ReemS3/reg_curious_hac/data/d4a6886/CausalDependenciesMujocoEnv-o1-v0/alg:chac|eta:0.5|fw:1|fwhidsiz:256,256,256|nlev:2|reg:True|rolbatsiz:1|timsca:25,10|109/progress.csv
policy/steps,train_0/fw_loss,train_1/subgoal_succ_rate,train_1/reward_-1.0_frac,train/episodes,train_1/reward_-0.0_frac,train_0/q_loss,train_1/reward_-10.0_frac,train_0/q_grads,train_1/fw_loss,train_0/current_q,train_1/next_q,train_1/target_q,train_0/mu_loss,train_0/q_grads_std,test_1/avg_q,test/success_rate,test_1/subgoal_succ_rate,train_0/next_q,train_1/avg_q,test/episodes,train_1/q_grads,train_0/avg_q,train/success_rate,train_1/q_grads_std,train_1/mu_grads_std,test_0/avg_q,test_1/n_subgoals,epoch,train_1/n_subgoals,train_0/mu_grads,train_1/mu_grads,train_1/q_loss,train_1/fw_bonus,train_0/mu_grads_std,train_0/fw_bonus,train_0/reward,train_1/reward,train_0/reward_-1.0_frac,train_1/mu_loss,train_0/reward_-0.0_frac,train_0/target_q,train_1/current_q
29736.0,8.628220639366191e-05,0.076,0.0002197265625,100.0,0.0,0.8142750813688402,0.0,0.038394985254853964,0.000890771254489664,-9.316669948066826,-3.0336023783111132,-3.5205810750453437,7.9846285630745255,0.1997710879892111,-4.087839614238626,0.0,0.0,-9.31521760140329,-2.9672660673695135,25.0,0.01871397364884615,-16.641174361306565,0.0,0.1658079158514738,0.11493037547916174,-25.0,250.0,0,1000.0,0.006506400508806109,0.0037935562781058253,1.413051811691158,-1.0113101959228517,0.11783380433917046,-0.9996154174208641,-0.7417266514494258,-1.3087068541353801,0.0021240234375,4.03995422406892,0.0,-9.49820334797713,-3.534858746517975
60986.0,7.103216094037635e-05,0.0,9.765625e-05,200.0,0.0,0.7038416045519915,0.0,0.04095825357362628,0.000774896341317799,-9.846988342553987,-4.793055878365783,-4.786994899398465,8.427261471157715,0.21968333534896373,-6.052527085183929,0.0,0.0,-9.846196150302724,-5.082949694935949,50.0,0.006293479248415679,-25.0,0.0,0.21810429878532886,0.11786453183740378,-25.0,250.0,1,1000.0,0.008902457566000522,0.0006278965607634746,1.3207248816201758,-1.0118048161268234,0.13165234848856927,-0.9996853351593018,-0.7421888653596398,-1.329193421304808,0.0025390625,5.817196182257029,0.0,-10.011795751020127,-4.8358918516223905
92236.0,6.591377714357805e-05,0.0,0.0001708984375,300.0,0.0,0.7557309232875745,0.0,0.04018859742209315,0.0007372335327090696,-10.022888546595478,-9.99999785140786,-8.406449998190705,8.716315229605476,0.22430177703499793,-9.999995502717528,0.0,0.0,-10.022555932935187,-7.230244196249005,75.0,0.009168167505413294,-25.0,0.0,0.27695552781224253,0.11777990516275168,-25.0,250.0,2,1000.0,0.011316174268722534,1.872660704975715e-05,4.463826148190883,-1.0119656026363373,0.14506289400160313,-0.999708816409111,-0.7430795078413212,-1.3138929450899013,0.0046875,10.999997817098071,0.0,-10.229629631776112,-8.301148734633285
123486.0,6.579705950571224e-05,0.0,4.8828125e-05,400.0,0.0,0.38450845464959726,0.0,0.03566365083679557,0.0007140444562537595,-9.00908370814316,-9.999999999926327,-8.406549858916934,8.32390531227218,0.22500110790133476,-9.999999997279344,0.0,0.0,-9.00704402122978,-9.99958303575676,100.0,0.019456325145438314,-25.0,0.0,0.320906275510788,0.1177799254655838,-25.0,250.0,3,1000.0,0.011643484001979232,1.8710847143665887e-05,3.8831323090380905,-1.012064555287361,0.14437390938401223,-0.9997093468904495,-0.7427257714683947,-1.316383843350195,0.0026611328125,10.999999999930008,0.0,-9.320434232290074,-8.272256185752797
154736.0,6.45229430119798e-05,0.0,0.000146484375,500.0,0.0,0.6008577386494076,0.0,0.03878998178988695,0.0007465467570000328,-10.249562873716688,-10.0,-8.412320333579412,9.00155892676822,0.23049530424177647,-9.999999999945272,0.0,0.0,-10.243272470890275,-9.998092368564672,125.0,0.02599869528785348,-25.0,0.0,0.36205668821930886,0.1177799254655838,-25.0,250.0,4,1000.0,0.007736527291126549,1.8710847143665887e-05,3.3767719349265013,-1.011925819516182,0.13885636813938618,-0.9997151896357537,-0.7445719546587497,-1.3188047085794097,0.0075927734375,11.0,0.0,-10.406356556648223,-8.26030341182533
185872.0,5.436522169475211e-05,0.0,7.32421875e-05,600.0,0.0,0.7789781070319861,0.0,0.038914299197494985,0.0007418074033921585,-10.290399627722502,-10.0,-8.445372440973445,9.151882508193678,0.23228590674698352,-9.999999999735486,0.0,0.0,-10.29178733254452,-9.999869004693506,150.0,0.027390526747331022,-25.0,0.01,0.38456504642963407,0.1177799254655838,-25.0,250.0,5,996.0,0.005154387431684881,1.8710847143665887e-05,2.8944176914905833,-1.011946052312851,0.13477949760854244,-0.999761775135994,-0.7460967106788303,-1.3331947065984422,0.020458984375,11.0,0.0,-10.49574206836235,-8.270345986613652
217122.0,5.3370113437267716e-05,0.0,9.765625e-05,700.0,0.0,0.4972503618131968,0.0,0.03715586392208934,0.0007487369613954798,-9.568392855945714,-10.0,-8.458133529766348,8.60344526313827,0.23421216011047363,-9.99999999999625,0.0,0.0,-9.562124181910653,-9.999972840126796,175.0,0.02894249469973147,-25.0,0.0,0.40324451476335527,0.1177799254655838,-25.0,250.0,6,1000.0,0.002891679498134181,1.8710847143665887e-05,2.7288643957681282,-1.0119164794683457,0.1357129842042923,-0.999766343832016,-0.7414603204349988,-1.3193981782038464,0.0191650390625,11.0,0.0,-9.875002433996336,-8.262316326973783
248372.0,4.342006791375752e-05,0.0,0.0001220703125,800.0,0.0,0.8235273663232883,0.0,0.03847666615620256,0.0006169206768390723,-10.241270847590531,-10.0,-8.492816718200196,9.201897381311513,0.236988914757967,-9.99999999999999,0.0,0.0,-10.23868963184228,-9.997807109160961,200.0,0.032022590097039935,-25.0,0.0,0.42254461869597437,0.1177799254655838,-25.0,250.0,7,1000.0,-0.00024690528007340615,1.8710847143665887e-05,3.054768458687685,-1.012479129433632,0.13982209786772729,-0.9998119667172432,-0.7445471003993589,-1.3189104682001926,0.095849609375,11.0,0.0,-10.412435992806945,-8.304518651608834
279622.0,4.5836600702386934e-05,0.0,0.0001220703125,900.0,0.0,0.5644237013549681,0.0,0.037465921975672244,0.0006354286306304857,-10.229278190536167,-10.0,-8.465213740011244,9.237963046914242,0.23941751308739184,-9.999999999999996,0.0,0.0,-10.222705288468726,-9.995707975209891,225.0,0.033395635150372985,-25.0,0.0,0.43704139441251755,0.1177799254655838,-25.0,250.0,8,1000.0,-0.0028565687709487973,1.8710847143665887e-05,2.8269984044933354,-1.012400135397911,0.142673284932971,-0.9998008862137795,-0.7437114812739309,-1.3104481150112406,0.0767333984375,11.0,0.0,-10.399396765693261,-8.265112783177113
310866.0,4.932503679810907e-05,0.0,0.0,1000.0,0.0,0.6292998632109575,0.0,0.0351933728903532,0.0005972529106657021,-10.361819631693905,-10.0,-8.44592021767836,9.479607532055626,0.2416899487376213,-10.0,0.0,0.0,-10.361295564654245,-9.998589734317193,250.0,0.03375078309327364,-25.0,0.01,0.45555078983306885,0.1177799254655838,-25.0,250.0,9,1000.0,-0.004111914290115237,1.8710847143665887e-05,2.730460620744507,-1.012563082575798,0.14530498832464217,-0.999784903228283,-0.7441551425254147,-1.3299143583033584,0.0508056640625,11.0,0.0,-10.55511239524528,-8.272051412471217
342116.0,5.8804410946322606e-05,0.0,4.8828125e-05,1100.0,0.0,0.7538199153030074,0.0,0.03468022653833032,0.0005733360449085012,-10.268225444172243,-10.0,-8.474125560201795,9.377571207646316,0.24441176205873488,-9.999999999999861,0.0,0.0,-10.266591253474422,-9.999999999914987,275.0,0.03393195988610387,-25.0,0.0,0.4663319803774357,0.1177799254655838,-25.0,250.0,10,1000.0,-0.005776371143292635,1.8710847143665887e-05,2.7953762897473644,-1.0126651734113694,0.147381304949522,-0.9997414246201515,-0.7448780357277428,-1.3117036852017918,0.0659912109375,11.0,0.0,-10.460945390624833,-8.280239974951115
373349.0,4.786545409842802e-05,0.0,7.32421875e-05,1200.0,0.0,0.7019820351344704,0.0,0.03396301884204149,0.0004949087960994802,-10.278582271397866,-10.0,-8.437488746824679,9.535126751861814,0.2474606666713953,-10.0,0.0,0.0,-10.278789754364215,-9.999999348674683,300.0,0.03225780175998807,-25.0,0.01,0.47364596799016,0.1177799254655838,-25.0,250.0,11,1000.0,-0.006365200993604958,1.8710847143665887e-05,2.619932535653628,-1.012999963760376,0.15105402953922747,-0.9997915953397751,-0.7427790948735492,-1.3288998796371743,0.0932861328125,11.0,0.0,-10.461712412170055,-8.269067648803292
404599.0,4.163957214586844e-05,0.0,4.8828125e-05,1300.0,0.0,0.6594234859787227,0.0,0.03353742742910981,0.0004840447225433309,-10.312979981633035,-10.0,-8.412690156418979,9.617163671045681,0.2503731608390808,-10.0,0.0,0.0,-10.309906425567945,-9.999919284971481,325.0,0.03310300363227725,-25.0,0.0,0.47797081544995307,0.1177799254655838,-25.0,250.0,12,1000.0,-0.006294529070146382,1.8710847143665887e-05,2.643545190054385,-1.0130463302135468,0.1548709139227867,-0.999820151925087,-0.7437821400177199,-1.3253952345439757,0.1732421875,11.0,0.0,-10.507977797125864,-8.24795581215029
435753.0,4.793205584974203e-05,0.0,2.44140625e-05,1400.0,0.0,0.48053822833670035,0.0,0.03207339905202389,0.00047880729180178606,-10.362874165238484,-10.0,-8.464271158862397,9.780424323118675,0.251713290810585,-10.0,0.0,0.0,-10.358718043487524,-9.993759535906463,350.0,0.03394306916743517,-25.0,0.01,0.48598589599132536,0.1177799254655838,-25.0,250.0,13,997.0,-0.007292556366883219,1.8710847143665887e-05,2.490371787169871,-1.0130686730146408,0.15970755629241468,-0.9997912898659707,-0.7452813834432164,-1.2953893229248934,0.0740478515625,11.0,0.0,-10.551538248280744,-8.252828343567556
467003.0,5.9571384872469936e-05,0.0,2.44140625e-05,1500.0,0.0,0.5526683571615114,0.0,0.030078460229560733,0.00044736596319125963,-10.096497516232983,-10.0,-8.49085193531559,9.49821121973786,0.25455085262656213,-10.0,0.0,0.0,-10.089508590066435,-9.99062476068623,375.0,0.03508996181190014,-25.0,0.0,0.48946180418133733,0.1177799254655838,-25.0,250.0,14,1000.0,-0.008059458225034177,1.8710847143665887e-05,2.5864966201564643,-1.0132028967142106,0.1641540013253689,-0.9997379183769226,-0.744021784873621,-1.3171849431280862,0.05087890625,11.0,0.0,-10.20929435615766,-8.299845162177728
498253.0,4.5641353381142835e-05,0.0,0.0,1600.0,0.0,0.5789268457921043,0.0,0.029648726945742963,0.0003989787554019131,-10.098981814665676,-10.0,-8.485200812632979,9.699886059981733,0.25653224214911463,-10.0,0.0,0.0,-10.097244227883307,-9.999999838559143,400.0,0.03629131084308028,-25.0,0.0,0.49323693066835406,0.1177799254655838,-25.0,250.0,15,1000.0,-0.008010686794295906,1.8710847143665887e-05,2.4475621056581383,-1.0134094417095185,0.16976170614361763,-0.9998017892241478,-0.7474106593152101,-1.3041168282579747,0.1304443359375,11.0,0.0,-10.338323380940215,-8.27847999656782
529491.0,4.358086862339405e-05,0.0,0.0001220703125,1700.0,0.0,0.558257267098538,0.0,0.029220737610012294,0.0004166033693763893,-9.784808900034333,-10.0,-8.487682727532814,9.460659908497792,0.258848462253809,-10.0,0.0,0.0,-9.77462939071881,-9.999999999997721,425.0,0.03469882691279054,-25.0,0.01,0.4993018664419651,0.1177799254655838,-25.0,250.0,16,1000.0,-0.008014328102581203,1.8710847143665887e-05,2.696253087493012,-1.0133341938257217,0.17530660107731819,-0.9998112410306931,-0.7425813995832868,-1.2960713994078106,0.1440673828125,11.0,0.0,-10.00629084826705,-8.282861818133032
560741.0,3.8957957667662416e-05,0.0,2.44140625e-05,1800.0,0.0,0.4274238838752636,0.0,0.03148804935626685,0.00038709837390342726,-10.201697024735342,-10.0,-8.452777437855696,9.478061385841087,0.26325407698750497,-10.0,0.0,0.0,-10.199160824769354,-9.998941443012471,450.0,0.03263913970440626,-25.0,0.0,0.5067110314965249,0.1177799254655838,-25.0,250.0,17,1000.0,-0.00781058482825756,1.8710847143665887e-05,2.5485503970927637,-1.0134601593017578,0.18090440891683102,-0.9998324394226075,-0.7424211013225431,-1.3188272425431933,0.153369140625,11.0,0.0,-10.391899391844762,-8.270310440338926
591991.0,3.984471068179119e-05,0.0,7.32421875e-05,1900.0,0.0,0.679455933770695,0.0,0.03214482516050339,0.0003723927802639082,-10.30260718267349,-10.0,-8.50963011310014,9.432221040335524,0.269038599729538,-10.0,0.0,0.0,-10.29882360985406,-9.999941621673486,475.0,0.032211856078356506,-25.0,0.0,0.5127805903553962,0.1177799254655838,-25.0,250.0,18,1000.0,-0.008471395773813128,1.8710847143665887e-05,2.4863961921877342,-1.0135229259729386,0.18751380927860736,-0.9998283714056015,-0.7427852790468024,-1.3139514021626382,0.1182373046875,11.0,0.0,-10.488504624140159,-8.31433842482096
623241.0,3.716176984198682e-05,0.0,2.44140625e-05,2000.0,0.0,0.7445919534514359,0.0,0.031138621782884002,0.000375916637131013,-10.450079834822917,-10.0,-8.44750345138324,9.462446789968032,0.2717136278748512,-10.0,0.0,0.0,-10.443703236962728,-9.999999999989464,500.0,0.032376731652766465,-25.0,0.0,0.5236051306128502,0.1177799254655838,-25.0,250.0,19,1000.0,-0.009508190979249775,1.8710847143665887e-05,2.7376111384102506,-1.0135078698396682,0.194424844160676,-0.999840684235096,-0.7448300051379192,-1.323123568570736,0.193505859375,11.0,0.0,-10.645103636899204,-8.284929818765841
654491.0,3.8066988599894104e-05,0.0,9.765625e-05,2100.0,0.0,0.6797654420806595,0.0,0.031162609113380313,0.0003593240340705961,-10.533955766981283,-10.0,-8.499887496868618,9.55456854915449,0.27482849135994913,-10.0,0.0,0.0,-10.537148954949256,-9.990901922044355,525.0,0.03314281515777111,-25.0,0.0,0.5312259122729301,0.1177799254655838,-25.0,250.0,20,1000.0,-0.010195450065657497,1.8710847143665887e-05,2.5113845244065227,-1.0135787099599838,0.2025335218757391,-0.9998365253210068,-0.7467932613952144,-1.3123435515561142,0.1849609375,11.0,0.0,-10.746735559051803,-8.30346799952614
685741.0,3.1376615197586943e-05,0.0,0.0,2200.0,0.0,0.5334265327188724,0.0,0.030699908593669535,0.0003226221480872482,-10.281310830813567,-10.0,-8.491416024503417,9.640399699829686,0.276354606449604,-10.0,0.0,0.0,-10.277472944692846,-9.99061118908545,550.0,0.03360311593860388,-25.0,0.0,0.5388909921050071,0.1177799254655838,-25.0,250.0,21,1000.0,-0.011555347079411148,1.8710847143665887e-05,2.7903813483826214,-1.0137353628873824,0.209952212870121,-0.9998672008514404,-0.7434150473978661,-1.3359326260659146,0.2218505859375,11.0,0.0,-10.462246558576053,-8.31766094715344
716954.0,3.479694864836347e-05,0.0,0.0,2300.0,0.0,0.5965948021565556,0.0,0.029731486458331347,0.00036097005868214184,-10.156721171782928,-10.0,-8.432159375076012,9.992487883545627,0.27762395814061164,-10.0,0.0,0.0,-10.151059802650414,-9.9813319285139,575.0,0.03431181162595749,-25.0,0.01,0.5463363036513329,0.1177799254655838,-25.0,250.0,22,999.0,-0.011808753432705998,1.8710847143665887e-05,2.7116724417716718,-1.0135716766119003,0.21515363603830337,-0.9998515173792839,-0.743517068138317,-1.3355333985135076,0.1566650390625,11.0,0.0,-10.324372166295143,-8.282230863540477
748119.0,3.5452824113235694e-05,0.0,0.0,2400.0,0.0,0.643313273067617,0.0,0.02913768175058067,0.00032558916354901156,-10.378659925121948,-10.0,-8.437203149113051,10.1693018349845,0.28029866963624955,-10.0,0.0,0.0,-10.379060935736888,-9.990535153290258,600.0,0.03463309928774834,-25.0,0.01,0.5544021770358085,0.1177799254655838,-25.0,250.0,23,997.0,-0.012081600492820144,1.8710847143665887e-05,2.5956760660593665,-1.0137226969003676,0.21912398114800452,-0.9998485162854195,-0.7452001346420729,-1.3178476803630474,0.1534423828125,11.0,0.0,-10.58413052821128,-8.2615103430885
779369.0,3.0973189359428944e-05,0.0,0.0,2500.0,0.0,0.7926465143170603,0.0,0.029391463659703732,0.000280497745188768,-10.439796649965862,-10.0,-8.382985422173226,10.20425034728842,0.28248831406235697,-10.0,0.0,0.0,-10.438683334282917,-9.994805899863534,625.0,0.03526089293882251,-25.0,0.0,0.5625802755355835,0.1177799254655838,-25.0,250.0,24,1000.0,-0.012776541500352323,1.8710847143665887e-05,2.455318173099715,-1.0139151692390442,0.22188055627048014,-0.9998690605163574,-0.7437333553061762,-1.323205148735724,0.175537109375,11.0,0.0,-10.644398333749757,-8.213667533777999
810619.0,2.710757498789462e-05,0.0,0.0,2600.0,0.0,0.7842768629649026,0.0,0.02969652656465769,0.0003189558497979306,-10.269625204111176,-10.0,-8.405674337754757,10.021129413145895,0.2855688326060772,-10.0,0.0,0.0,-10.267561767567754,-9.999999999990818,650.0,0.03471623277291656,-25.0,0.0,0.5704882547259331,0.1177799254655838,-25.0,250.0,25,1000.0,-0.013438718463294207,1.8710847143665887e-05,2.591894576461841,-1.013751021027565,0.22424700558185579,-0.9998867884278297,-0.7437178049687645,-1.3198149627547537,0.2533447265625,11.0,0.0,-10.47111109346871,-8.229923655380393
841700.0,3.009987649420509e-05,0.0,2.44140625e-05,2700.0,0.0,0.4206064239253526,0.0,0.02976403278298676,0.0002858892799849855,-10.008758981764498,-10.0,-8.404370399013718,9.99168335977849,0.28851408511400223,-10.0,0.0,0.0,-10.007353712051943,-9.99999999999993,675.0,0.03523711040616036,-25.0,0.01,0.5795938089489937,0.1177799254655838,-25.0,250.0,26,994.0,-0.014079646649770438,1.8710847143665887e-05,2.543606571674689,-1.0138921558856964,0.22664619721472262,-0.9998730629682541,-0.7435400452603063,-1.3235354380762145,0.205859375,11.0,0.0,-10.195567555212767,-8.230845666107204
872950.0,3.2773281236586624e-05,0.0,0.0,2800.0,0.0,0.6516180728879997,0.0,0.030643830308690667,0.0002691643090656726,-10.273028017270962,-10.0,-8.452467618828235,10.25569563479456,0.2917982444167137,-10.0,0.0,0.0,-10.274711859444562,-9.992148536444514,700.0,0.034269300382584335,-25.0,0.0,0.5872478350996971,0.1177799254655838,-25.0,250.0,27,1000.0,-0.014413852361030877,1.8710847143665887e-05,2.870500062192637,-1.013963559269905,0.2293980974704027,-0.9998608022928238,-0.7430944620617084,-1.308947111015732,0.1642333984375,11.0,0.0,-10.438083431070329,-8.271566216062986
904200.0,3.650839016700047e-05,0.0,0.0,2900.0,0.0,0.7081263868507256,0.0,0.030685562547296284,0.0002809602221532259,-10.31093653105614,-10.0,-8.460071837096041,10.294418495937624,0.2942732870578766,-10.0,0.0,0.0,-10.30972960065109,-9.999999995809272,725.0,0.03330396246165037,-25.0,0.0,0.5947490230202674,0.1177799254655838,-25.0,250.0,28,1000.0,-0.013998941937461495,1.8710847143665887e-05,2.448454635832548,-1.013913205265999,0.230799912661314,-0.9998436689376831,-0.7431225189793622,-1.3225327745960385,0.1284912109375,11.0,0.0,-10.513591955085849,-8.278821629625105
935437.0,2.6465725522939464e-05,0.0,0.0,3000.0,0.0,0.4783223677396773,0.0,0.03130400227382779,0.0002836919218680123,-10.500177188078364,-10.0,-8.441857999608041,10.584379392936734,0.2977505996823311,-10.0,0.0,0.0,-10.497922878322449,-9.999999999735577,750.0,0.032309741526842115,-25.0,0.01,0.604163010418415,0.1177799254655838,-25.0,250.0,29,1000.0,-0.01393241211771965,1.8710847143665887e-05,2.7555063815875416,-1.0139015197753907,0.23312588669359685,-0.9998897239565849,-0.7446592180589505,-1.312932218358037,0.2146484375,11.0,0.0,-10.683944096898056,-8.25675197991641
966687.0,2.7214278998144436e-05,0.0,0.0,3100.0,0.0,0.3634545049976108,0.0,0.02988863466307521,0.00023841352558520156,-10.10921231716328,-10.0,-8.458844284949157,10.23070751399833,0.3002363033592701,-10.0,0.0,0.0,-10.105443416919107,-9.999999987216677,775.0,0.031556913256645204,-25.0,0.0,0.6139109253883361,0.1177799254655838,-25.0,250.0,30,1000.0,-0.01393097611144185,1.8710847143665887e-05,2.4949185447664672,-1.014094814658165,0.2361164029687643,-0.9998863026499748,-0.7437908025858633,-1.3165200661991547,0.229638671875,11.0,0.0,-10.252491384550927,-8.266798057403703
997937.0,2.6238724399263446e-05,0.0,0.0,3200.0,0.0,0.6504062241825476,0.0,0.030522336764261127,0.00024385702417930588,-10.297192400386454,-10.0,-8.410168116071585,10.259552676932476,0.3040593914687634,-10.0,0.0,0.0,-10.290705161729292,-9.999979771666364,800.0,0.03153103180229664,-25.0,0.0,0.6235122397542,0.1177799254655838,-25.0,250.0,31,1000.0,-0.013834693538956343,1.8710847143665887e-05,2.4667925742869414,-1.0140715688467026,0.23960912562906742,-0.9998907715082168,-0.7411929418645741,-1.3183272957590817,0.2226806640625,11.0,0.0,-10.518396878458528,-8.22596344792772
1029187.0,2.3513445057687932e-05,0.0,4.8828125e-05,3300.0,0.0,0.7895811236850587,0.0,0.031011086562648414,0.00021456694812513888,-10.44240998637918,-10.0,-8.452454749989268,10.337311967698025,0.30756414234638213,-10.0,0.0,0.0,-10.44531005371,-9.999999999985086,825.0,0.03045120444148779,-25.0,0.0,0.6331355929374695,0.1177799254655838,-25.0,250.0,32,1000.0,-0.01344137389678508,1.8710847143665887e-05,2.436965955067418,-1.0141966104507447,0.24750535376369953,-0.999903267621994,-0.7447392297035549,-1.333099281239265,0.257421875,11.0,0.0,-10.63486021526593,-8.275749262925094
1060437.0,2.4083834000521163e-05,0.0,7.32421875e-05,3400.0,0.0,0.5831489397306117,0.0,0.03198759537190199,0.0002131667384674074,-10.417876838827642,-10.0,-8.41799484845353,9.710820279854662,0.31122113168239596,-10.0,0.0,0.0,-10.417881073153984,-9.999999999999957,850.0,0.030113565176725386,-25.0,0.0,0.640921114385128,0.1177799254655838,-25.0,250.0,33,1000.0,-0.014089083299040794,1.8710847143665887e-05,2.6520970709139737,-1.0142025828361512,0.255131646245718,-0.9999006524682045,-0.7439322578378779,-1.339791723453527,0.2020751953125,11.0,0.0,-10.61742678474145,-8.262723742597537
1091687.0,2.1714747549594905e-05,0.0,2.44140625e-05,3500.0,0.0,0.6976223364284675,0.0,0.03271875567734241,0.00025402264691365417,-10.154369301556537,-10.0,-8.427604916101558,10.077587197367915,0.31475368440151213,-10.0,0.0,0.0,-10.157296980936561,-10.0,875.0,0.029542275704443455,-25.0,0.0,0.6511345103383064,0.1177799254655838,-25.0,250.0,34,1000.0,-0.016487461095675827,1.8710847143665887e-05,2.5128180396006323,-1.0140281945466996,0.2623975194990635,-0.9999115109443665,-0.7416183540473866,-1.3556224942265545,0.278564453125,11.0,0.0,-10.345893085793303,-8.274733886927649
1122937.0,2.39558384009797e-05,0.0,0.0,3600.0,0.0,0.8287563031466822,0.0,0.03296362366527319,0.00022429960772569758,-10.389797407508294,-10.0,-8.431960345725678,10.362841766582278,0.3178934819996357,-10.0,0.0,0.0,-10.381536000083846,-9.981007514905444,900.0,0.027806539461016654,-25.0,0.0,0.6613638907670975,0.1177799254655838,-25.0,250.0,35,1000.0,-0.017425579112023117,1.8710847143665887e-05,2.526374428275136,-1.0141550540924071,0.2708112023770809,-0.9999012365937233,-0.7419428050015995,-1.3394017519756745,0.2130126953125,11.0,0.0,-10.560381696324756,-8.268635840052676
1154187.0,1.9547360761862364e-05,0.0,2.44140625e-05,3700.0,0.0,0.5430752183337871,0.0,0.03297093091532588,0.0002110547233314719,-10.29488235478775,-10.0,-8.417525722753348,9.847514909328728,0.3198124147951603,-10.0,0.0,0.0,-10.295216137086447,-9.999978957383872,925.0,0.028401938639581202,-25.0,0.0,0.6684946089982986,0.1177799254655838,-25.0,250.0,36,1000.0,-0.01810912457294762,1.8710847143665887e-05,2.52436517129458,-1.01421160697937,0.27889650985598563,-0.9999214425683022,-0.7424167806806509,-1.3268811915033438,0.2937255859375,11.0,0.0,-10.463789286118573,-8.237071691033659
1185437.0,2.234497305835248e-05,0.0,2.44140625e-05,3800.0,0.0,0.9747099285619301,0.0,0.032404749747365715,0.00019802168826572598,-10.115115697983127,-10.0,-8.43671125447436,9.558035956210428,0.32177000045776366,-10.0,0.0,0.0,-10.116992275480985,-9.990264240552532,950.0,0.02793033830821514,-25.0,0.0,0.6751827716827392,0.1177799254655838,-25.0,250.0,37,1000.0,-0.01676518488675356,1.8710847143665887e-05,2.398621808265729,-1.0142672121524812,0.2872003696858883,-0.9999086201190949,-0.7428742329837406,-1.3223801997868576,0.27216796875,11.0,0.0,-10.37462229870614,-8.251664720089039
1216687.0,2.724074870457116e-05,0.0,2.44140625e-05,3900.0,0.0,0.6947743885554287,0.0,0.033010983001440765,0.0001989940385101363,-10.380436697020647,-10.0,-8.406106151152203,9.788923941976952,0.3248648479580879,-10.0,0.0,0.0,-10.378440627243007,-9.990101993577252,975.0,0.027669529989361764,-25.0,0.0,0.6820684880018234,0.1177799254655838,-25.0,250.0,38,1000.0,-0.018153683841228486,1.8710847143665887e-05,2.578384651144555,-1.0142630875110625,0.295989865064621,-0.9998861744999885,-0.741300507507549,-1.3264674792771984,0.2128662109375,11.0,0.0,-10.566048764980458,-8.233121587273368
1247927.0,2.1566986106336117e-05,0.0,2.44140625e-05,4000.0,0.0,1.0267051920172439,0.0,0.03249771688133478,0.00021477402187883854,-10.370075453007697,-10.0,-8.434802941023085,9.966929594440467,0.3279298827052116,-10.0,0.0,0.0,-10.372215531667768,-9.991057648439375,1000.0,0.026448920788243412,-25.0,0.01,0.6874805808067321,0.1177799254655838,-25.0,250.0,39,1000.0,-0.018471000762656332,1.8710847143665887e-05,2.3793265428684074,-1.0141957074403762,0.3046168014407158,-0.9999122008681297,-0.7427783607090532,-1.3298029410230812,0.2511474609375,11.0,0.0,-10.568435480988512,-8.258749298374997
1279177.0,1.8946886257253936e-05,0.0,0.0,4100.0,0.0,0.53049097376998,0.0,0.03257898194715381,0.00018352952793065924,-10.230701831189577,-10.0,-8.412203609787543,9.320005145981565,0.3294725053012371,-10.0,0.0,0.0,-10.230012572289606,-9.997879312649017,1025.0,0.02631757645867765,-25.0,0.0,0.6937320277094841,0.1177799254655838,-25.0,250.0,40,1000.0,-0.01802460146136582,1.8710847143665887e-05,2.3534049240944896,-1.0143291026353836,0.31188385784626005,-0.9999242007732392,-0.7422838802827755,-1.325865719162539,0.3144287109375,11.0,0.0,-10.398434643398563,-8.233538877547181
1310427.0,2.4131409986694052e-05,0.0,2.44140625e-05,4200.0,0.0,0.44756017565455863,0.0,0.03193013146519661,0.0001848088581027696,-10.394598465230816,-10.0,-8.45408320275514,9.521286343036065,0.3311151094734669,-10.0,0.0,0.0,-10.39316014492853,-10.0,1050.0,0.02568839625455439,-25.0,0.0,0.7002797320485115,0.1177799254655838,-25.0,250.0,41,1000.0,-0.01796345254406333,1.8710847143665887e-05,2.513403424967587,-1.0143236130475999,0.31877151057124137,-0.9999004319310189,-0.7423818556395417,-1.3354455074426368,0.165966796875,11.0,0.0,-10.55657200983389,-8.293397056992616
1341677.0,1.9861984378621854e-05,0.0,0.0,4300.0,0.0,1.083769579608076,0.0,0.03174481596797705,0.00017247153773496392,-10.26263689857918,-10.0,-8.42661197611393,9.246569684175025,0.3322340726852417,-10.0,0.0,0.0,-10.257251966234923,-9.990712344727354,1075.0,0.0250428460072726,-25.0,0.0,0.7063123837113381,0.1177799254655838,-25.0,250.0,42,1000.0,-0.018057471280917524,1.8710847143665887e-05,2.485979069338284,-1.0143762916326522,0.32537279576063155,-0.9999200060963631,-0.7427578560869733,-1.3249615854889272,0.2819580078125,11.0,0.0,-10.463445390303036,-8.247931132561993
1372927.0,1.8573171496427675e-05,0.0,0.0,4400.0,0.0,0.6347089000385389,0.0,0.031914154160767795,0.00020310756299295462,-10.189312964911196,-10.0,-8.41177364132091,9.376216746640955,0.3352773658931255,-10.0,0.0,0.0,-10.186462225594278,-9.990112861691825,1100.0,0.023913027439266443,-25.0,0.0,0.7141945794224739,0.1177799254655838,-25.0,250.0,43,1000.0,-0.017552967788651584,1.8710847143665887e-05,2.4791392989166297,-1.0142455250024796,0.3330055058002472,-0.9999259248375892,-0.7432612997945398,-1.350079305383406,0.29794921875,11.0,0.0,-10.375137010004746,-8.260945461496528
1404177.0,1.6719589211788843e-05,0.0,0.0,4500.0,0.0,0.5109822530634054,0.0,0.03255690122023225,0.00021929889408056624,-10.475844674880358,-10.0,-8.403069651092522,9.285133558589186,0.338849763572216,-10.0,0.0,0.0,-10.47394608689316,-9.99999999999999,1125.0,0.02250769534148276,-25.0,0.0,0.7220655307173729,0.1177799254655838,-25.0,250.0,44,1000.0,-0.01479535058606416,1.8710847143665887e-05,2.5470755971329067,-1.0141764163970948,0.3371154569089413,-0.9999344199895859,-0.7453163311547542,-1.3334798073425191,0.32861328125,11.0,0.0,-10.63621436636589,-8.242102729770503
1435427.0,2.11738880352641e-05,0.0,0.0,4600.0,0.0,0.4707783607859911,0.0,0.031962848734110594,0.0001853020574344555,-10.347550738049435,-10.0,-8.422082639127186,9.436485397010422,0.339849853515625,-10.0,0.0,0.0,-10.341831030584189,-9.991197861829097,1150.0,0.021371628763154148,-25.0,0.0,0.7294523298740387,0.1177799254655838,-25.0,250.0,45,1000.0,-0.013546757237054407,1.8710847143665887e-05,2.4607137424540246,-1.014321517944336,0.3433461368083954,-0.999914002418518,-0.7450375628905022,-1.331916623502184,0.2687744140625,11.0,0.0,-10.500679695284045,-8.249998934088314
1466677.0,1.9283246911072637e-05,0.0,0.0,4700.0,0.0,0.680283696935492,0.0,0.031701257452368736,0.00020821746184083168,-10.509037426694949,-10.0,-8.398920938593076,9.6212451158241,0.3416001424193382,-10.0,0.0,0.0,-10.50931819451982,-9.990497804290321,1175.0,0.020672096917405725,-25.0,0.0,0.7375966414809227,0.1177799254655838,-25.0,250.0,46,1000.0,-0.01499245841987431,1.8710847143665887e-05,2.5048942307205158,-1.0142237365245819,0.35008271113038064,-0.999922651052475,-0.7426126989412296,-1.3300488682805736,0.32802734375,11.0,0.0,-10.694568961732992,-8.228203596844551
1497927.0,2.11073971058795e-05,0.0,0.0,4800.0,0.0,0.5225369455636969,0.0,0.031972544733434916,0.00018120861604984385,-10.255170001913061,-10.0,-8.46901276231671,9.672717054737058,0.34379917159676554,-10.0,0.0,0.0,-10.254277345966504,-9.999999984657348,1200.0,0.019655936304479836,-25.0,0.0,0.7473828926682472,0.1177799254655838,-25.0,250.0,47,1000.0,-0.017629245296120644,1.8710847143665887e-05,2.4830127180248676,-1.0143389999866486,0.3559422709047794,-0.9999143078923225,-0.741827266242035,-1.3374551451292063,0.3072021484375,11.0,0.0,-10.412209156209238,-8.29388248090911
1529177.0,1.7976215053749912e-05,0.0,0.0,4900.0,0.0,0.6199986444664256,0.0,0.03265503952279687,0.00019023802524316126,-10.344581497956531,-10.0,-8.479464682421533,9.180393869544286,0.3459932379424572,-10.0,0.0,0.0,-10.342539440785966,-9.99999898273982,1225.0,0.01904161893762648,-25.0,0.0,0.7575654581189155,0.1177799254655838,-25.0,250.0,48,1000.0,-0.01878852555528283,1.8710847143665887e-05,2.43421824243295,-1.0143004477024078,0.3614943377673626,-0.9999286532402039,-0.7424325903630233,-1.3447967136715306,0.2768798828125,11.0,0.0,-10.563504888098581,-8.310211524712923
1560427.0,1.9645317911454187e-05,0.0,0.0,5000.0,0.0,0.4995573378146204,0.0,0.03291650805622339,0.00018779704696498812,-10.185270343757049,-10.0,-8.425050946870764,9.174776602874823,0.3478683322668076,-10.0,0.0,0.0,-10.184543727194436,-9.999999869611894,1250.0,0.019173416821286083,-25.0,0.0,0.7651012375950813,0.1177799254655838,-25.0,250.0,49,1000.0,-0.02057264088653028,1.8710847143665887e-05,2.5346827830562804,-1.0143108785152435,0.36662106662988664,-0.9999210014939308,-0.7421235872898251,-1.3334493843707604,0.2988037109375,11.0,0.0,-10.385403917734221,-8.255336055933261
1591677.0,2.396065167431516e-05,0.0,2.44140625e-05,5100.0,0.0,0.5215658770058335,0.0,0.032904007472097874,0.00017810045792430174,-10.491181566342522,-10.0,-8.50071129056407,9.420476130812709,0.3492568895220757,-10.0,0.0,0.0,-10.49396974126535,-9.99999587531402,1275.0,0.018327192589640617,-25.0,0.0,0.773539912700653,0.1177799254655838,-25.0,250.0,50,1000.0,-0.01977883051149547,1.8710847143665887e-05,2.3900568391009296,-1.0143522500991822,0.3732760936021805,-0.9999012261629104,-0.7442133019474568,-1.326805040564068,0.21123046875,11.0,0.0,-10.677048024092265,-8.313440216467182
1622904.0,1.6945835159276613e-05,0.001,2.44140625e-05,5200.0,0.0,0.6140407612897557,0.0,0.03306079907342792,0.00017312462405243422,-10.33188591415632,-10.0,-8.503883531936593,9.190914564361373,0.35093641877174375,-10.0,0.0,0.0,-10.326439433396349,-9.994795687495456,1300.0,0.018244517082348467,-24.99894154587355,0.0,0.7811093538999557,0.11784094572067261,-25.0,250.0,51,1000.0,-0.02071412596851587,-0.00016732786025386304,2.366968921549141,-1.014373505115509,0.3802978344261646,-0.9999333828687668,-0.7414461834596295,-1.3263884147490899,0.3424072265625,11.0,0.0,-10.482465501113571,-8.311906290695443
1654154.0,1.7469278145654243e-05,0.0,0.0,5300.0,0.0,0.46449693280067483,0.0,0.03326644850894809,0.00015940550620143767,-10.331261373805727,-10.0,-8.511888886263336,9.123706352236562,0.3522295609116554,-10.0,0.0,0.0,-10.329802346095756,-9.999985506361012,1325.0,0.018805312039330602,-24.989707012272213,0.0,0.7886515513062478,0.11784094572067261,-25.0,250.0,52,1000.0,-0.019854523008689284,-0.00016732786025386304,2.478758337424113,-1.0144320636987687,0.38819524720311166,-0.9999309867620468,-0.7421774050351815,-1.325062714388332,0.32822265625,11.0,0.0,-10.52310794029702,-8.32343226836746
1685404.0,1.6369977925023704e-05,0.0,0.0,5400.0,0.0,0.44560037840431177,0.0,0.03357531195506454,0.00018418688232486603,-10.237878187069418,-10.0,-8.517111874726837,9.486035916427705,0.3539786070585251,-10.0,0.0,0.0,-10.241391965103187,-9.999999999999867,1350.0,0.01844646641984582,-25.0,0.0,0.7963393568992615,0.11784094572067261,-25.0,250.0,53,1000.0,-0.022357838274911047,-0.00016732793301343918,2.5593959820623007,-1.0143262892961502,0.39490080773830416,-0.9999360248446465,-0.744157464732416,-1.3094702731643337,0.33349609375,11.0,0.0,-10.355205512604162,-8.312626565857432
1716654.0,2.0251444607310986e-05,0.0,0.0,5500.0,0.0,0.4937282716354202,0.0,0.03329297248274088,0.00016611135397397446,-10.338806515080433,-10.0,-8.472968324283723,9.45607575555482,0.35539553612470626,-10.0,0.0,0.0,-10.336963887232018,-10.0,1375.0,0.01790090133436024,-24.999999795228042,0.0,0.8020266622304917,0.1178409531712532,-25.0,250.0,54,1000.0,-0.024110058369114996,-0.0001673269143793732,2.343865819193456,-1.0144034504890442,0.40098299011588096,-0.9999182254076004,-0.7468829397395893,-1.31293902740872,0.3296875,11.0,0.0,-10.51073034453933,-8.273061942836947
1747896.0,1.7314983392680005e-05,0.0,0.0,5600.0,0.0,0.4873829627175034,0.0,0.03355541378259659,0.0001706909344648011,-10.489235990932624,-9.999999999999998,-8.527816948223045,10.332833875273534,0.3571468755602837,-10.0,0.0,0.0,-10.488393777323674,-9.990442292632462,1400.0,0.01767491828650236,-24.997155561486583,0.01,0.8085528522729873,0.1178409606218338,-25.0,250.0,55,1000.0,-0.02492663487792015,-0.00016731767391320318,2.340072860287022,-1.0143838793039321,0.4060882404446602,-0.999931700527668,-0.7447534425024059,-1.310365776348044,0.3308837890625,10.999999999999995,0.0,-10.686245666330787,-8.319501894241302
1779146.0,1.723855491491122e-05,0.0,0.0,5700.0,0.0,0.5427565889578133,0.0,0.03270529042929411,0.00015004916713223793,-9.673324626505812,-10.0,-8.480946940945726,9.25371342533941,0.35811507999897,-10.0,0.0,0.0,-9.677435588683693,-9.999343800488795,1425.0,0.017350517213344574,-25.0,0.0,0.814573447406292,0.1178409606218338,-25.0,250.0,56,1000.0,-0.025734803220257164,-0.00016731767391320318,2.3770611348444595,-1.0144720047712326,0.4077538773417473,-0.9999320402741432,-0.741640824778733,-1.3166110034457232,0.3562255859375,11.0,0.0,-10.014926533950836,-8.285407870321698
1810291.0,1.6078411977105134e-05,0.0,2.44140625e-05,5800.0,0.0,0.5974718305586002,0.0,0.03352392436936498,0.0001549407283164328,-10.185926027673792,-10.0,-8.476742165881154,9.640656613380937,0.3597031943500042,-10.0,0.0,0.0,-10.186668837339713,-9.999999999999986,1450.0,0.01682775462977588,-25.0,0.01,0.8211945116519928,0.1178409606218338,-25.0,250.0,57,996.0,-0.026534525351598857,-0.00016731767391320318,2.5935934568284744,-1.0144511312246323,0.41162349209189414,-0.9999373555183411,-0.7457694614175125,-1.3138417752561509,0.3550537109375,11.0,0.0,-10.426544368132705,-8.293366095648972
1841541.0,1.6547587370041585e-05,0.0,2.44140625e-05,5900.0,0.0,0.5338462578921708,0.0,0.03468337841331959,0.00016394567755924073,-10.500901081418593,-10.0,-8.458827438237353,9.846129240830345,0.3611724816262722,-10.0,0.0,0.0,-10.502832739581478,-9.999999998204606,1475.0,0.015503530157729983,-24.999080060027847,0.0,0.8284469425678254,0.1178409606218338,-25.0,250.0,58,1000.0,-0.02822763007134199,-0.00016731767391320318,2.873358088450268,-1.014412698149681,0.4159561194479465,-0.9999352097511292,-0.7461590105995128,-1.3222454069873493,0.3356689453125,11.0,0.0,-10.691804063084103,-8.284570330551853
1872791.0,1.559865800118132e-05,0.0,0.0,6000.0,0.0,0.5347636381987041,0.0,0.03396211452782154,0.00015118016344786155,-10.196104034070155,-10.0,-8.439045113708564,9.676215251643765,0.3625516042113304,-10.0,0.0,0.0,-10.194747870932273,-9.990973397749203,1500.0,0.014352687983773649,-25.0,0.0,0.8347456648945808,0.1178409606218338,-25.0,250.0,59,1000.0,-0.02855816106311977,-0.00016731767391320318,2.400821471281182,-1.0144671887159347,0.41963670402765274,-0.9999395579099655,-0.7434268113662256,-1.335480660583562,0.3393310546875,11.0,0.0,-10.455634167433043,-8.266369746155084
1904041.0,1.8735575440587127e-05,0.0,0.0,6100.0,0.0,0.4089673899847684,0.0,0.034060201980173586,0.00013891234339098447,-10.3907453377426,-10.0,-8.487076667263757,10.237480437573215,0.3642440505325794,-10.0,0.0,0.0,-10.390837434928594,-9.99010786150023,1525.0,0.01292689663823694,-24.999999999999943,0.0,0.8407172963023186,0.1178409606218338,-25.0,250.0,60,1000.0,-0.029429463529959322,-0.00016731767391320318,2.4833378115717357,-1.0145195305347443,0.42293196320533755,-0.999925172328949,-0.7430412006287952,-1.3186733469512546,0.3201904296875,11.0,0.0,-10.546018520188701,-8.298755083506535
1935291.0,1.5424307548528304e-05,0.0,0.0,6200.0,0.0,0.5177040603330545,0.0,0.034974119253456594,0.00015070980480231811,-10.581207977239188,-10.0,-8.499961644537109,10.338588570141553,0.36541223526000977,-10.0,0.0,0.0,-10.584932019758662,-9.999996449918173,1550.0,0.011946602747775615,-25.0,0.0,0.8469323173165322,0.1178409606218338,-25.0,250.0,61,1000.0,-0.02924524350091815,-0.00016731767391320318,2.371731240408118,-1.0144691824913026,0.42601975724101065,-0.9999403685331345,-0.744818812792073,-1.3205524648496065,0.3217529296875,11.0,0.0,-10.766554865411226,-8.301607794189211
1966541.0,1.8801890450959036e-05,0.0,2.44140625e-05,6300.0,0.0,0.8093708469455729,0.0,0.033671384863555434,0.00016463732899865135,-10.118885415230324,-10.0,-8.531946079314224,10.11415105019861,0.36661134734749795,-10.0,0.0,0.0,-10.11844757385423,-10.0,1575.0,0.011251441016793252,-25.0,0.0,0.853631554543972,0.1178409606218338,-25.0,250.0,62,1000.0,-0.02906543416902423,-0.00016731767391320318,2.4425041782660744,-1.014409738779068,0.42922854647040365,-0.9999248698353768,-0.7455068689712789,-1.3355495949392207,0.323486328125,11.0,0.0,-10.419908273939466,-8.350330820410957
1997791.0,1.6768058003435726e-05,0.0,0.0,6400.0,0.0,0.5126079809054114,0.0,0.034542111400514844,0.00015602649800712244,-10.476504820365307,-10.0,-8.438858988876458,10.310042854220459,0.368119265884161,-10.0,0.0,0.0,-10.477332316541961,-9.990157537980103,1600.0,0.01106674368493259,-25.0,0.0,0.8591562882065773,0.1178409606218338,-25.0,250.0,63,1000.0,-0.030129280965775253,-0.00016731767391320318,3.0067448584307988,-1.014446485042572,0.43275782093405724,-0.9999341905117035,-0.7418372159831051,-1.3171109420014546,0.3226318359375,11.0,0.0,-10.652240461213312,-8.264355682378172
2029041.0,1.528069210507965e-05,0.0,0.0,6500.0,0.0,0.5919082859209412,0.0,0.03397796768695116,0.00015516269486397504,-10.467569243338545,-10.0,-8.436514640607786,10.630970544635053,0.3690892316401005,-10.0,0.0,0.0,-10.466052814301728,-9.991650518100244,1625.0,0.010417326563037932,-25.0,0.0,0.8655402779579162,0.1178409606218338,-25.0,250.0,64,1000.0,-0.0315820143558085,-0.00016731767391320318,2.351025392912268,-1.0144501745700836,0.43437184393405914,-0.9999410197138786,-0.7419993179319135,-1.3236191327952838,0.33046875,11.0,0.0,-10.619800575325298,-8.252973822592073
2060291.0,3.712332509167027e-05,0.0,0.0,6600.0,0.0,0.5022986980347662,0.0,0.03434381261467934,0.00017907398141687737,-10.519609319704855,-10.0,-8.408568099459956,10.543547488144037,0.3694968782365322,-10.0,0.0,0.0,-10.521186341579028,-9.990904794889106,1650.0,0.009357848903164268,-24.999993199150573,0.0,0.8699615135788917,0.1178409606218338,-25.0,250.0,65,1000.0,-0.03220738917589187,-0.00016731767391320318,2.289944703500249,-1.0143481135368346,0.4375820368528366,-0.999840846657753,-0.7436093900061678,-1.3057214197724534,0.1409423828125,11.0,0.0,-10.714600525570496,-8.209280126825153
2091541.0,1.7910249357555586e-05,0.0,0.0,6700.0,0.0,0.6622948309690468,0.0,0.03386281607672572,0.00017761239578248933,-10.334359626907325,-10.0,-8.377606863499826,10.33195450592496,0.37110433503985407,-10.0,0.0,0.0,-10.331351034697688,-9.999999999656469,1675.0,0.008827105700038373,-25.0,0.0,0.873065185546875,0.1178409606218338,-25.0,250.0,66,1000.0,-0.03364698179066181,-0.00016731767391320318,2.3185121856230375,-1.0143543630838394,0.43784986808896065,-0.999928955733776,-0.7437511010859452,-1.3132806916248227,0.277685546875,11.0,0.0,-10.544697925964245,-8.19144238164844
2122791.0,1.8494407004254754e-05,0.0,0.0,6800.0,0.0,0.635052881794197,0.0,0.03402759609743953,0.00018029189959634095,-10.165682897102904,-10.0,-8.38472272680374,10.24487185550847,0.37187072187662124,-10.0,0.0,0.0,-10.166249266255283,-9.990429995029618,1700.0,0.008852891041897237,-24.999999999987214,0.0,0.8782373398542405,0.1178409606218338,-25.0,250.0,67,1000.0,-0.038476118072867396,-0.00016731767391320318,2.662401707322968,-1.0143429070711136,0.4340848743915558,-0.9999262720346451,-0.7436643123743124,-1.3230283908662386,0.337744140625,11.0,0.0,-10.395521892844494,-8.214537827353094
2154041.0,2.252780313938274e-05,0.0,0.0,6900.0,0.0,0.7869130203909371,0.0,0.034158424101769926,0.00015491867779928725,-10.447254584662932,-10.0,-8.425394556015386,10.584766880711296,0.37226864099502566,-10.0,0.0,0.0,-10.450179510879911,-10.0,1725.0,0.008714348054490983,-25.0,0.0,0.8832059964537621,0.1178409606218338,-25.0,250.0,68,1000.0,-0.03990816492587328,-0.00016731767391320318,2.3717250188752623,-1.0144512325525283,0.4322053030133247,-0.9999077782034874,-0.7449978372103943,-1.3089101810153807,0.2978515625,11.0,0.0,-10.641368185112123,-8.232510622769002
2185291.0,1.9330782060933414e-05,0.0,0.0,7000.0,0.0,0.6246326689478627,0.0,0.033845850452780726,0.0001614319106010953,-10.472558259727291,-10.0,-8.408947549363223,10.527112251126773,0.37344675064086913,-10.0,0.0,0.0,-10.467737097288301,-9.999993580243215,1750.0,0.00922924350015819,-25.0,0.0,0.8874301671981811,0.1178409606218338,-25.0,250.0,69,1000.0,-0.04001559112221002,-0.00016731767391320318,2.5264518267621967,-1.0144234031438828,0.4297761470079422,-0.9999224424362183,-0.7434670821901819,-1.3228489165507198,0.3185546875,11.0,0.0,-10.641912641988096,-8.222978039821994
2216524.0,1.7099274987231184e-05,0.0,4.8828125e-05,7100.0,0.0,0.855539443079946,0.0,0.03355065044015646,0.00016275911475531756,-10.336097845691661,-10.0,-8.437638564370577,10.365101442879237,0.3737978063523769,-10.0,0.0,0.0,-10.336136656458141,-9.999999999857149,1775.0,0.008177492138929664,-25.0,0.01,0.8906477093696594,0.1178409606218338,-25.0,250.0,70,1000.0,-0.04002019194886088,-0.00016731767391320318,2.275932923583904,-1.014417764544487,0.4269587241113186,-0.9999326825141907,-0.744424347266613,-1.3034491112455726,0.319384765625,11.0,0.0,-10.546302982639919,-8.233573463760989
2247774.0,0.00020714287402370246,0.0,0.0,7200.0,0.0,0.9850081180007152,0.0,0.03407911602407694,0.00018029245438810904,-10.415554329317487,-10.0,-8.403514229409778,10.437675067597134,0.3746253877878189,-10.0,0.0,0.0,-10.412556941430193,-9.999999999077762,1800.0,0.00782257723622024,-24.99999998866845,0.0,0.896076574921608,0.1178409606218338,-25.0,250.0,71,1000.0,-0.03871499672532082,-0.00016731767391320318,2.400451925408332,-1.014342901110649,0.42468110248446467,-0.9990611508488655,-0.743500304895133,-1.330096260659775,4.8828125e-05,11.0,0.0,-10.62230433152665,-8.231799746525141
2279024.0,1.9514219775373932e-05,0.0,2.44140625e-05,7300.0,0.0,0.7051607532266803,0.0,0.033297743368893865,0.00015193242288660258,-10.139778006639602,-10.0,-8.372024464649297,10.17597319065796,0.3758825160562992,-10.0,0.0,0.0,-10.136871460494035,-9.995791618399341,1825.0,0.007121803774498403,-25.0,0.0,0.9012011244893074,0.1178409606218338,-25.0,250.0,72,1000.0,-0.037642941903322936,-0.00016731767391320318,2.3963152811779933,-1.0144639700651168,0.4236073262989521,-0.9999216049909592,-0.7445164659591683,-1.3323418474617938,0.281103515625,11.0,0.0,-10.407072439081722,-8.204461348984609
