ReemS3/reg_curious_hac/data/d4a6886/CausalDependenciesMujocoEnv-o1-v0/alg:chac|eta:0.75|fw:1|fwhidsiz:256,256,256|nlev:2|reg:False|rolbatsiz:1|timsca:27,27|104/progress.csv
train_0/mu_grads,train_1/fw_bonus,train_1/avg_q,train/episodes,train_0/q_grads_std,train_1/q_grads,test_1/avg_q,train_0/current_q,train_0/fw_loss,policy/steps,train_0/reward,train_0/q_grads,train_1/reward,train_1/subgoal_succ_rate,train_0/target_q,train_1/reward_-0.0_frac,train_1/q_loss,train_0/avg_q,train_0/mu_grads_std,test_1/subgoal_succ_rate,train_0/reward_-1.0_frac,train_1/mu_loss,test/success_rate,test/episodes,train/success_rate,train_1/mu_grads,train_0/fw_bonus,epoch,test_0/avg_q,train_1/n_subgoals,train_1/next_q,train_1/fw_loss,train_1/current_q,train_1/reward_-1.0_frac,train_0/q_loss,test_1/n_subgoals,train_1/q_grads_std,train_0/mu_loss,train_1/target_q,train_1/mu_grads_std,train_0/reward_-0.0_frac,train_0/next_q,train_1/reward_-27.0_frac
0.0012246189930010588,-0.9967284083366394,-10.287302624768177,100.0,0.1409298688173294,0.013008162681944668,-7.500406202157291,-4.525799982321027,0.00033751430455595253,81203.0,-0.6365735807794408,0.0153423388954252,-2.4193481160520607,0.11059371362048893,-4.46110489335223,0.0,19.184302754167582,-3.115156716814017,0.15641459152102472,0.877521613832853,0.0033447265625,11.5463795082252,0.04,25.0,0.11,0.006519198103342205,-0.9987601444125176,0,-1.4350856738689028,2577.0,-11.617694060747121,0.001610413461457938,-11.022525744479545,0.0058837890625,0.6856156261512625,4164.0,0.20462921187281607,4.397069446581051,-10.991114336483374,0.17897510156035423,0.0,-4.350835205841969,0.0
-0.004487649002112448,-0.9970696344971657,-15.523597506233273,200.0,0.16617544889450073,0.0019333289499627426,-6.738979868173974,-4.970944627452016,0.0003731489661731757,157530.0,-0.6487900555526721,0.01712365630082786,-2.433862136056632,0.10636480136693721,-4.951532751209129,0.0,11.689271091939386,-5.348353436586981,0.18604678474366665,0.5470505617977528,0.00244140625,9.473877310878974,0.0,50.0,0.22,0.004094018251635134,-0.9986270144581795,1,-1.4243395724185948,2341.0,-9.530251393250031,0.0015296413737814873,-9.519862216830782,0.006787109375,0.5780684175378216,1424.0,0.24652039334177972,4.822646083077663,-9.534827194467466,0.24433702565729618,0.0,-4.781883836169314,0.0
-0.004182796081295237,-0.9959197625517845,-13.567558833603846,300.0,0.18406675904989242,-0.00173268195358105,-20.50603550205903,-2.944068312082589,0.000415553185302997,233503.0,-0.6731584107528761,0.018985060276463628,-2.4118766676212546,0.10876132930513595,-3.2478649407722004,0.0,9.180134826175763,-5.511680399571933,0.20992192327976228,0.0029542097488921715,0.00048828125,9.319826403219157,0.0,75.0,0.28,0.003619340236764401,-0.9984685972332954,2,-0.31750808588561386,2317.0,-9.337774794149567,0.0018018257047515362,-9.44745916925479,0.007275390625,1.0726178540494087,677.0,0.2737385414540768,2.82801636011792,-9.473250726333239,0.2601341277360916,0.0,-2.89064887235987,0.0
-0.009696287359111011,-0.9966735184192658,-17.42662657622172,400.0,0.19171004146337509,-0.005253956583328545,-11.921456995169006,-5.502489503158745,0.0003977052620030008,303646.0,-0.6749878240952967,0.01975060091353953,-2.4245712120497047,0.22280017338534894,-5.452492212482194,0.0,16.546825343555813,-4.858697688148687,0.23820214979350568,0.9390048154093098,0.001123046875,11.386846537219611,0.04,100.0,0.31,0.0036472597799729555,-0.9985352858901024,3,-1.8664430344935388,2307.0,-11.37874905835729,0.0016234058508416637,-10.369737491151074,0.007568359375,0.42009536182534896,6853.0,0.30403814986348154,5.30948132238418,-10.40627085889012,0.28133788555860517,0.0,-5.226489831891523,0.0
-0.017539807269349693,-0.9965342864394188,-14.64655928597142,500.0,0.19799690805375575,-0.008219088427722454,-11.578885223243125,-5.585587426138771,0.00042345464244135654,361804.0,-0.681665435355535,0.01949300682172179,-2.3058474389217736,0.4063088512241055,-5.509871224024299,0.0,14.210156220654431,-10.46060808668026,0.2612467683851719,0.9668520335841239,0.001171875,10.799938647127922,0.08,125.0,0.45,0.0026271665119566023,-0.9984390869736671,4,-1.8194705941187581,2124.0,-10.752469145969041,0.0016563615208724514,-10.006401866946153,0.00693359375,0.45920784548374793,9171.0,0.3240496151149273,5.397540795649062,-10.00422465763817,0.3035503178834915,0.0,-5.299163428842418,0.0
-0.028350090608000755,-0.9956272721290589,-14.313149403289424,600.0,0.2057785265147686,-0.010552062909118832,-11.586088583853616,-5.525903812914935,0.00040488546655979005,419429.0,-0.6949396141215403,0.017374811647459864,-2.246770592008397,0.39183276616431695,-5.440241678250389,0.0,12.794144079540512,-10.089570664621146,0.28436858877539634,0.5626702997275205,0.0018310546875,10.554393043953345,0.0,150.0,0.54,0.001838634256273508,-0.9985084518790245,5,-2.8522576086330735,2057.0,-10.520568940600239,0.0018710559903411194,-9.874089870155345,0.006640625,0.767383942540397,1468.0,0.33984398394823073,5.446644701071089,-9.8748913408046,0.3202322870492935,0.0,-5.307314403146519,0.0
-0.03827987564727664,-0.9950811848044395,-14.940434401301601,700.0,0.21572827287018298,-0.01196921314112842,-18.886269916991328,-4.154021900807768,0.0003998432177468203,480786.0,-0.7003459345556621,0.01786605454981327,-2.2176484689862264,0.2948148148148148,-4.2253885951601635,0.0,11.340772834663047,-9.46612251399244,0.3051140375435352,0.0,0.001708984375,10.081721587117482,0.0,175.0,0.48,0.0013924949074862526,-0.9985272884368896,6,-5.554240257110602,2025.0,-9.994173381848245,0.00200032324064523,-9.72381563121086,0.0068115234375,0.6794265388418408,675.0,0.3561352573335171,3.9757924838034255,-9.718629252464675,0.3401954747736454,0.0,-3.891814759689306,0.0
-0.046981983538717034,-0.9951178759336472,-17.231237797493176,800.0,0.22512185834348203,-0.014507906604558229,-10.740727442158864,-5.130229196625484,0.00041540186502970756,550015.0,-0.7128924386084691,0.017422069096937776,-2.1953370852537772,0.15601503759398497,-5.0769807168106045,0.0,9.469474158507087,-8.60338987066365,0.31865141838788985,0.011730205278592375,0.0009033203125,10.337936542925549,0.0,200.0,0.42,-0.0006526403114548885,-0.998469166457653,7,-0.8583547344793747,2128.0,-10.289887649227271,0.001991638130857609,-10.109225737568988,0.0079345703125,0.6509653949660722,682.0,0.37031773179769517,4.946394116104495,-10.127363962051424,0.3682492807507515,0.0,-4.826950849581185,0.0
-0.05410435451194644,-0.9952013358473778,-14.987046902620623,900.0,0.23895905315876007,-0.0174216796644032,-16.41294806671592,-2.589629030440778,0.0003892763998010196,608414.0,-0.7154803153171088,0.01715457309037447,-2.162270794095093,0.24024526198439242,-2.853440744123958,0.0,10.833742703115615,-8.422348959262177,0.333698732405901,0.3535749265426053,0.0020263671875,10.939129663512443,0.04,225.0,0.64,-0.00393686363240704,-0.9985667735338211,8,-0.6599367436918236,1794.0,-10.833708243873783,0.001971880576456897,-10.621283386935952,0.0077392578125,0.6104769105527423,1021.0,0.3850836805999279,2.446141148186797,-10.659745789016807,0.3845771819353104,0.0,-2.3832377238954563,0.0
-0.06208614651113749,-0.9954387694597244,-16.16122666700725,1000.0,0.24981167912483215,-0.02056189253926277,-17.49063320652126,-6.088491143020399,0.00038621411149506455,670344.0,-0.7233567104718531,0.01643668655306101,-2.1497691151016625,0.2637737688932228,-6.0105104578587545,0.0,7.66990401923218,-8.8296695757101,0.3510004296898842,0.9208604697059404,0.0020263671875,11.750492780920842,0.12,250.0,0.46,-0.006702834332827479,-0.9985782027244567,9,-0.9244553907499056,2051.0,-11.56294494467014,0.0019156817201292143,-11.480086109253396,0.0077392578125,0.6454007337121743,5067.0,0.3995587877929211,5.8976835433521355,-11.551947564898857,0.40189523845911024,0.0,-5.771113993286233,0.0
-0.06595198176801205,-0.9957398161292076,-17.363417577021075,1100.0,0.2563228152692318,-0.024971190420910717,-10.902362872650178,-4.741121402421428,0.00035452415104373356,730904.0,-0.7198340613696927,0.014674014504998922,-2.1208587820143294,0.27835562159484895,-4.789896491293954,0.0,7.442182662247667,-12.061524618937426,0.36406695321202276,0.11964549483013294,0.0073974609375,12.296516858913023,0.12,275.0,0.52,-0.008248988958075642,-0.9986966073513031,10,-1.3632618004521586,2019.0,-12.184307189200144,0.0018444190209265798,-12.159627928129563,0.0080810546875,0.43767792864176336,677.0,0.41267216503620147,4.53815399647989,-12.226551045785893,0.4168868213891983,0.0,-4.367985192624166,0.0
-0.07019789144396782,-0.9962350308895112,-15.050476021658197,1200.0,0.26436610966920854,-0.028927203686907887,-17.750594484438462,-4.413089526644391,0.00034646521671675143,788525.0,-0.7273672228540817,0.015487883635796607,-2.148430095965159,0.23391158365976497,-4.371561057794045,0.0,5.854993411563781,-9.605231392916261,0.3787748418748379,0.7971715668031262,0.0166015625,11.941170706310825,0.08,300.0,0.65,-0.01023936492856592,-0.998726698756218,11,-4.535635757944701,1787.0,-11.762257468489532,0.001727197240688838,-11.879957305062508,0.0072021484375,0.7489813943998851,2687.0,0.4247927464544773,4.299452299952227,-11.895202895667978,0.42900445237755774,0.0,-4.134714592033731,0.0
-0.0709245327860117,-0.9961309060454369,-16.305977442551782,1300.0,0.2714165195822716,-0.0317774779163301,-7.906970246868752,-1.7008431260222383,0.0003459404266322963,857169.0,-0.7245845099732833,0.016276559419929983,-2.2802583114189474,0.1557884707003335,-1.970462050899906,0.0,6.794358536651586,-9.202128632628176,0.39294293820858,0.0014792899408284023,0.008837890625,12.470243810931695,0.0,325.0,0.44,-0.011524263536557555,-0.9987286761403084,12,-0.3559886345168863,2099.0,-12.376898088874947,0.001751845912076533,-12.355663671405875,0.0079345703125,1.011330151099238,676.0,0.4355108134448528,1.477497161164208,-12.37656732741578,0.4406124837696552,0.0,-1.5058497292151667,0.0
-0.07568495068699121,-0.995613032579422,-15.697887246090392,1400.0,0.2755571410059929,-0.03271408434957266,-19.01465322986941,-2.9315981737781187,0.00029629361197294204,934591.0,-0.7241364931509452,0.015074592526070773,-2.338154967734954,0.09234715690466011,-3.200856324626521,0.0,6.216680728338416,-4.392725257891612,0.4100606992840767,0.03017241379310345,0.0331298828125,13.1026944393966,0.0,350.0,0.27,-0.012765036849305033,-0.9989141434431076,13,-1.1085121717018156,2339.0,-12.993997506727458,0.0018744308094028384,-12.795416484017219,0.0074462890625,0.8198795957979378,696.0,0.4467887535691261,2.725746185401004,-12.837523180654255,0.45318872928619386,0.0,-2.73074099657085,0.0
-0.08271660078316927,-0.9964292243123054,-17.95155631405426,1500.0,0.28230492025613785,-0.03671984160318971,-14.162223910773337,-5.578776543593328,0.00030030156594875736,1008307.0,-0.7256159042968647,0.016022498114034535,-2.3274093117935992,0.15569123419101613,-5.545897810322088,0.0,6.445390651214629,-5.6117286420835635,0.42401655241847036,0.44293015332197616,0.028271484375,12.934398689096287,0.0,375.0,0.3,-0.015309115638956428,-0.998899158835411,14,-1.0626792886190504,2293.0,-12.868332946026978,0.001681229067617096,-12.822905266635422,0.0087890625,0.5642394751631551,1174.0,0.4572913728654385,5.358001665698859,-12.858174357891565,0.46497486904263496,0.0,-5.259655193260942,0.0
-0.08586382381618023,-0.9966715261340141,-16.79371518259354,1600.0,0.289238753169775,-0.039009549841284755,-14.921239198644633,-4.379150185326683,0.0002817899254296208,1072520.0,-0.7336165918106416,0.014654255332425236,-2.315256745654915,0.24173748819641172,-4.387311130738711,0.0,5.805648556569459,-8.178363453311007,0.4353691816329956,0.7613531047265987,0.0256591796875,13.017714587728118,0.16,400.0,0.44,-0.01654030503705144,-0.9989683210849762,15,-1.6629674463570105,2118.0,-12.886274945053108,0.001623880077386275,-12.814077400772854,0.0078857421875,0.47459843459972023,2158.0,0.46762763410806657,4.191808374326607,-12.853316353140698,0.47587187588214874,0.0,-4.0184987618076065,0.0
-0.09044361859560013,-0.9970729768276214,-18.114266010755045,1700.0,0.2998529329895973,-0.041016850341111424,-14.892404388735342,-5.109683215323123,0.00024820964681566694,1131967.0,-0.7420341847155214,0.016890547098591925,-2.357965751033407,0.29698857736240913,-5.0579144553560225,0.0,6.6789071477686,-8.952738875019627,0.4448616556823254,0.671960569550931,0.052099609375,13.691991237699316,0.08,425.0,0.53,-0.01760015469044447,-0.9990937605500221,16,-2.3383213825065883,1926.0,-13.618438677918126,0.0015288520895410328,-13.417416617064125,0.0078369140625,0.6653888116099346,1826.0,0.4798011861741543,4.924700265357362,-13.466645237540282,0.4864723190665245,0.0,-4.751935523100654,0.0
-0.09785935152322053,-0.997364017367363,-17.44241992489265,1800.0,0.3092569775879383,-0.043472493253648284,-13.252478884958458,-4.910018400906095,0.0002395695853920188,1194783.0,-0.743360613663026,0.01813760371878743,-2.3130128791104654,0.2398597896845268,-4.961551233350984,0.0,5.231595509823364,-10.14825365522445,0.45636831000447275,0.8775261748234722,0.059326171875,14.074020752396176,0.08,450.0,0.52,-0.018073050165548922,-0.9991260409355164,17,-0.5737724194623071,1997.0,-13.959914433539897,0.001459958401392214,-13.84059142300922,0.00751953125,0.6943504148866984,4107.0,0.4943881340324879,4.640255407351084,-13.907076100867522,0.5003389462828636,0.0,-4.602493079580604,0.0
-0.10278162136673927,-0.9976943910121918,-16.02282830703097,1900.0,0.3163738869130611,-0.04599731648340821,-18.965478967555295,-5.35576750483882,0.00022691480480716564,1252351.0,-0.7509896201281663,0.018538308003917335,-2.2753574341753846,0.27666314677930304,-5.370490643163789,0.0,4.231022649428709,-7.908012262198345,0.4673698902130127,0.8921471172962226,0.0603515625,13.382115671242781,0.16,475.0,0.58,-0.01933587868697941,-0.9991733282804489,18,-1.5822002413710734,1894.0,-13.295725258394913,0.0013817586965160444,-13.272500231081697,0.006982421875,0.5342829012293647,4024.0,0.5048422187566757,5.156809425172615,-13.327681378750786,0.50774946808815,0.0,-4.997126800124322,0.0
-0.10788010768592357,-0.9980003505945205,-16.36184511068632,2000.0,0.32195499166846275,-0.05044863913208246,-20.035070333953946,-5.775716714542231,0.00022054335749999154,1308547.0,-0.7591071429862495,0.018457895889878274,-2.2002508160763683,0.3535,-5.681823594417198,0.0,5.522720044715217,-10.569720487568507,0.478019305318594,0.9198264047510278,0.0501220703125,12.815730396852283,0.24,500.0,0.57,-0.021335255727171897,-0.9991971284151078,19,-1.5919512515092038,2000.0,-12.609267265143416,0.0013093361398205162,-12.794706494040826,0.00810546875,0.4850573478858884,4378.0,0.5153210803866386,5.5281131658168094,-12.861222060188396,0.5155008867383003,0.0,-5.353189535284644,0.0
-0.1110477901995182,-0.9980730220675469,-16.34016411531519,2100.0,0.33089593052864075,-0.05401237728074193,-14.979716417365907,-4.66384308939495,0.00023004837676126043,1359506.0,-0.7659830313037673,0.01863784994930029,-2.1623661566471126,0.4089534180278282,-4.714897004854587,0.0,6.3436198983020216,-11.763356758586673,0.48739335834980013,0.1,0.0750244140625,12.313146332148097,0.0,525.0,0.7,-0.024255281453952192,-0.99916160851717,20,-2.2374447888095084,1653.0,-12.131200330976522,0.0012921313813421876,-12.44477552778873,0.007373046875,0.7122118095163292,740.0,0.5255477860569954,4.501631724108243,-12.501517635496949,0.5217637047171593,0.0,-4.338576897111146,0.0
-0.1142238076776266,-0.9982134953141213,-15.02459955654926,2200.0,0.3360175773501396,-0.058914735447615385,-16.184062577800432,-5.291965561849521,0.00022399330555344932,1411502.0,-0.7696507960092276,0.018414929369464518,-2.0770924362339427,0.30655391120507397,-5.309404825790753,0.0,4.8930394858468365,-10.591788847015573,0.4966425642371178,0.939113492450073,0.0565673828125,11.562217238798643,0.44,550.0,0.65,-0.026178493769839405,-0.9991842433810234,21,-1.3206849801567273,1892.0,-11.37053911663045,0.0012588808458531275,-11.698714770780693,0.008154296875,0.5180033907570119,4106.0,0.5361395969986915,5.043064375686896,-11.750760261700737,0.5275748685002327,0.0,-4.910773749523197,0.0
-0.1197882866486907,-0.9984101399779319,-15.242819305691034,2300.0,0.3434323832392693,-0.060783847514539954,-11.006219479329134,-5.499290251974468,0.00021312627104634884,1465286.0,-0.7760696365163312,0.01921665817499161,-2.0712089769673185,0.35722543352601155,-5.4591222677107885,0.0,4.344832340873657,-11.250692507612714,0.5045503720641136,0.043909348441926344,0.0984619140625,11.94763683586876,0.0,575.0,0.71,-0.02837359462864697,-0.9992248475551605,22,-0.7960736672710749,1730.0,-11.808040210161947,0.001212336352909915,-12.035363614597975,0.0080322265625,0.491755911060635,706.0,0.5481025502085686,5.230067040730201,-12.087206715355489,0.5340865328907967,0.0,-5.064119736639431,0.0
-0.1234439354389906,-0.9981645926833153,-12.9924370004008,2400.0,0.3493168972432613,-0.06198130333796144,-18.78084443541464,-6.169933651532803,0.000217240149868303,1527364.0,-0.7682655013155454,0.019082761975005268,-2.1193958861047575,0.20704845814977973,-6.087403228633503,0.0,5.399262806296925,-10.907586909189288,0.514032444357872,0.6113671274961597,0.0855224609375,12.467013304277966,0.24,600.0,0.46,-0.029644459346309306,-0.9992094665765763,23,-2.360513066182541,2043.0,-12.252242048197123,0.001270454269251786,-12.365890542964248,0.00810546875,0.7544781304863848,1302.0,0.5598973110318184,6.052001710963072,-12.448076215659498,0.5408773601055146,0.0,-5.843358131015342,0.0
-0.12467958405613899,-0.9985516726970672,-16.042026988791626,2500.0,0.3561318390071392,-0.06459697932004929,-3.7233453548130626,-6.900901234741869,0.00023269904850167222,1582276.0,-0.7695328019086446,0.019297868106514217,-2.0351359645599585,0.3144690781796966,-6.845110604257627,0.0,13.394598217929007,-13.040880619044028,0.5222485780715942,0.002976190476190476,0.0721923828125,7.823249158751599,0.08,625.0,0.7,-0.03215763168409467,-0.9991517141461372,24,-1.1238068228656894,1714.0,-7.836337801092161,0.0011788332456490024,-8.615381890591626,0.0078369140625,0.5236973523073196,672.0,0.5739853501319885,6.715117296832,-8.7024752462167,0.5475629061460495,0.0,-6.539124986620965,0.0
-0.12907908037304877,-0.9985760599374771,-12.27458070026601,2600.0,0.3607055626809597,-0.0689294222742319,-13.747575572594076,-5.037832203691965,0.0002270780998514965,1639188.0,-0.7713141744581662,0.018949681706726552,-2.0450480661682375,0.28627015008337964,-5.055110200078749,0.0,6.287811149909755,-11.74802801824545,0.5293984562158585,0.007352941176470588,0.05625,10.434647597616195,0.0,650.0,0.59,-0.03258960172533989,-0.9991727188229561,25,-1.686726775919488,1799.0,-10.322020548915628,0.0011730600192095153,-10.751961628113737,0.00791015625,0.5606940496550846,680.0,0.5850586622953415,4.789853588506789,-10.73048912409502,0.5517775431275368,0.0,-4.657047683032566,0.0
-0.13192564472556115,-0.9986127898097038,-14.089126691505388,2700.0,0.36588556692004204,-0.0711376117542386,-17.01924522317873,-4.162211054490697,0.00022592354871449062,1705723.0,-0.7644671082598506,0.01898035886697471,-2.098450806721303,0.19307654802535348,-4.276111175372518,0.0,6.502112630224931,-9.878553446265665,0.536826841533184,0.024566473988439308,0.0804443359375,11.790122745824359,0.0,675.0,0.53,-0.03246857188642025,-0.9991770252585411,26,-1.8648714348365072,2051.0,-11.592381551910552,0.00116436337120831,-11.792535875788795,0.0082763671875,0.7133372752958677,692.0,0.5955084383487701,4.05980189000943,-11.862334119786876,0.5577788800001144,0.0,-3.9194217729269534,0.0
-0.13036864884197713,-0.9985221281647683,-14.80796902412694,2800.0,0.3689069181680679,-0.07310460396111011,-14.36491062356706,-5.52781742585067,0.00023515435023000464,1757644.0,-0.7652458406886581,0.018282687244936823,-2.0592801917202452,0.3466183574879227,-5.436884829163288,0.0,5.934602359429215,-8.967893841058812,0.5437401965260505,0.9580296261462498,0.0698974609375,11.484270314751337,0.04,700.0,0.76,-0.03207057463005185,-0.9991425484418869,27,-1.1653831248464628,1656.0,-11.33564235428664,0.0011858251644298434,-11.446460680638202,0.007080078125,0.5457797117440962,8506.0,0.6086382701992988,5.28659097625629,-11.548341667615949,0.5646579504013062,0.0,-5.103955729135753,0.0
-0.13017635941505432,-0.998832854628563,-15.615130561796601,2900.0,0.37442387714982034,-0.07650656644254923,-17.755429525128086,-5.76992586647416,0.00021787499463243876,1814602.0,-0.7653901528039568,0.019224056554958225,-2.114106406854262,0.3503575076608784,-5.746377619299096,0.0,5.424622065648634,-12.478105785697391,0.5493119791150093,0.9688931757897276,0.0997802734375,12.07039737645468,0.2,725.0,0.62,-0.03594906879588962,-0.9992070958018303,28,-0.5732808242845615,1958.0,-11.82448922983394,0.0011122739102574996,-11.81250198284876,0.0078857421875,0.5408260558021534,8294.0,0.6191512957215309,5.556866783330019,-11.924296632878427,0.5722265556454659,0.0,-5.391114807977209,0.0
-0.13183458149433136,-0.9990520969033241,-14.80897202049401,3000.0,0.3792667254805565,-0.07789440900087356,-5.665544958670286,-5.656097486708581,0.00023216993577079847,1864217.0,-0.7626851513461588,0.018500719452276826,-2.052820885321853,0.44312090530077425,-5.616480662064125,0.0,10.26561432531604,-10.245511916861673,0.5565429925918579,0.9566229628721971,0.0763671875,10.148950215246346,0.08,750.0,0.71,-0.03648954480886459,-0.9991536796092987,29,-0.6820868904455342,1679.0,-10.224613791814047,0.0010603775663184933,-10.448547558643387,0.0071044921875,0.5276482903803446,8161.0,0.6304404765367508,5.427978105018667,-10.646721097583418,0.5774053290486336,0.0,-5.2709036217120655,0.0
-0.13613388501107693,-0.9992157578468323,-13.082693274840413,3100.0,0.38389522656798364,-0.08055532760918141,-13.263652826438625,-6.0003428390484075,0.00022384660078387242,1914024.0,-0.7674170463200426,0.018818213045597075,-2.0175041320610037,0.44163528778913397,-5.960705705851037,0.0,6.096692698950994,-9.801127518121168,0.5645023509860039,0.9894413515070071,0.1041748046875,8.454547124200406,0.32,775.0,0.62,-0.03819474168121815,-0.999184787273407,30,-1.2532038218739305,1859.0,-8.294782239653648,0.001021640132239554,-8.823597404006609,0.0075439453125,0.40084319475807784,10418.0,0.6409836083650589,5.746760394352877,-8.920955584309487,0.5818795830011367,0.0,-5.557725990017595,0.0
-0.13628533929586412,-0.999183577299118,-13.968311180691769,3200.0,0.38897953778505323,-0.08116066753864289,-9.354258260569495,-6.447030329440246,0.00023362497886409984,1964633.0,-0.7643683627742576,0.01990467170253396,-1.9712253358429734,0.414607358594179,-6.418565036311115,0.0,6.677936671855894,-13.401853659434007,0.5706719130277633,0.880661784648766,0.0726806640625,11.657737515929732,0.28,800.0,0.62,-0.04114208677783608,-0.9991482600569725,31,-1.296927410847658,1821.0,-11.476240904220283,0.0010292578241205773,-11.582808529277244,0.0078857421875,0.39258697440802737,3687.0,0.6555978864431381,6.204964211506011,-11.686565217267454,0.5881709381937981,0.0,-6.039149361312619,0.0
-0.13762518279254438,-0.9989750355482101,-12.7366578401632,3300.0,0.39264959618449213,-0.08020540643483401,-16.69588720577793,-6.161301178461207,0.00022072751016821712,2016123.0,-0.7723088753769843,0.01964439358562231,-1.9625672430083796,0.43331547937868237,-6.145557234194089,0.0,4.559688816847299,-12.393787034152874,0.5778069734573364,0.9369261477045908,0.09404296875,12.465905909968514,0.12,825.0,0.68,-0.04066798537969589,-0.9991964504122735,32,-1.8221796871737117,1867.0,-12.224705348077483,0.0010786210434162058,-12.260927704330268,0.0068115234375,0.4788932437105675,5010.0,0.663297264277935,5.945987936635253,-12.401421406949444,0.5949704706668854,0.0,-5.7614591074525165,0.0
-0.13916237093508244,-0.9991969883441925,-15.045140448636042,3400.0,0.3953587763011456,-0.0825157530605793,-14.393579393013779,-4.797254421125745,0.00021533945910050533,2066974.0,-0.7786676671381428,0.019862351566553117,-1.889691823567773,0.4324644549763033,-4.9806876160083995,0.0,4.638630277387282,-12.554570130359783,0.5835749000310898,0.014598540145985401,0.092626953125,10.995542240326753,0.0,850.0,0.72,-0.04221732076257467,-0.9992165759205818,33,-0.7873057338660987,1688.0,-10.79886269168308,0.0010260823139105924,-11.054977952263487,0.0078125,0.4502857217941438,685.0,0.6722791239619255,4.512970173238276,-11.164008886140044,0.602846673130989,0.0,-4.417425874825009,0.0
-0.13913508430123328,-0.9992271214723587,-12.398384085866278,3500.0,0.39988476783037186,-0.08304198533296585,-3.3247877517045334,-6.149953577712243,0.00023907344257168006,2126974.0,-0.7755327078040863,0.020624079508706927,-1.916139788703731,0.20706791827719492,-6.126704545720051,0.0,7.366517642413915,-10.137143410326184,0.5896094486117363,0.8478735005452562,0.096240234375,10.50273763131926,0.0,875.0,0.58,-0.04181265560910106,-0.9991279020905495,34,-1.5538923567613179,1811.0,-10.391676812249191,0.0010189470427576452,-10.636557460670797,0.0075927734375,0.5089894579444679,3668.0,0.6829532146453857,5.907239815918876,-10.807216589372695,0.6078257158398628,0.0,-5.760051593064948,0.0
-0.1426995385438204,-0.9993407458066941,-12.10653414476194,3600.0,0.40519958138465884,-0.08571880906820298,-16.59833479822055,-6.655538325979222,0.00023914747434901075,2176904.0,-0.775056564503393,0.02081562620587647,-1.9030395326069993,0.36018957345971564,-6.629535351237555,0.0,6.721304158858194,-12.942302801896423,0.597218994796276,0.798922056384743,0.0944091796875,11.30421685636978,0.28,900.0,0.7,-0.04250987898558378,-0.9991276279091835,35,-1.5602477814924622,1688.0,-11.078088343311151,0.000992051030334551,-11.239744421746442,0.0075927734375,0.4492427433369766,2412.0,0.6922305077314377,6.429260775084934,-11.42863614677915,0.6176091998815536,0.0,-6.259084859040355,0.0
-0.14537899047136307,-0.9996273562312126,-14.729152771072451,3700.0,0.40918069928884504,-0.09025894310325384,-20.483311433181946,-6.3693028184260765,0.00021488417114596815,2229894.0,-0.7787596450994897,0.020206177420914174,-1.9405013169543963,0.3267857142857143,-6.316638630597455,0.0,6.479678809448811,-12.898464389337516,0.6053363934159279,0.9244556113902848,0.100732421875,12.689016411124552,0.16,925.0,0.69,-0.04554281737655401,-0.9992182731628418,36,-1.2600023225216161,1680.0,-12.393413698975488,0.0009242127809557133,-12.405423670926599,0.0062744140625,0.5254166387241508,5970.0,0.7028746202588081,6.125360083109957,-12.491098778480978,0.6270068392157555,0.0,-5.960014789955302,0.0
-0.14765808247029782,-0.999417231976986,-15.137647720871948,3800.0,0.4145047150552273,-0.09089199882000684,-11.192286743405726,-6.3819943611943915,0.00022258503049670252,2285007.0,-0.7773608514016814,0.020993199804797767,-1.9470588967291405,0.2792134831460674,-6.327844409174049,0.0,5.1396538321693495,-11.892998294161876,0.6136268690228462,0.7032657657657657,0.0836669921875,12.737448953466913,0.2,950.0,0.63,-0.04594798581674695,-0.9991895020008087,37,-1.5614642049434848,1780.0,-12.544071764454628,0.0009739496585098095,-12.472450237275329,0.0078857421875,0.7235080896302535,1776.0,0.7102386102080345,6.218202007389783,-12.570783322260407,0.6367457136511803,0.0,-6.035568928630022,0.0
-0.148412449285388,-0.9991814389824867,-14.902090317592732,3900.0,0.41772763058543205,-0.0946035236120224,-12.001901800131288,-5.223270790532644,0.00022936411332921124,2337716.0,-0.7764023716415978,0.020285269105806948,-1.9851225082340533,0.25818989450305385,-5.1398090013787225,0.0,6.730659021830057,-10.451504121180788,0.6190547317266464,0.9630006788866259,0.07138671875,9.385316862023572,0.4,975.0,0.67,-0.046071077976375815,-0.9991641819477082,38,-1.7571979413134537,1801.0,-9.176837042136418,0.0010297611603164113,-9.551799852977519,0.0067138671875,0.7490090014770663,5892.0,0.7193902626633644,5.079390680056449,-9.724240424897989,0.647401288151741,0.0,-4.841756571692715,0.0
-0.1492749448865652,-0.9993741318583489,-14.31705570049428,4000.0,0.420145870000124,-0.09789712559431792,-20.10354699287065,-5.603706402696853,0.00022489440852950792,2389340.0,-0.7747585968794738,0.019883596524596214,-2.0057517373068547,0.36544074722708697,-5.597853344193988,0.0,7.411418730915796,-10.781325242813123,0.6247241407632828,0.7333026255181944,0.093212890625,10.230784437536027,0.08,1000.0,0.66,-0.04748021988198161,-0.9991808712482453,39,-0.7262963427867766,1713.0,-9.958691616599712,0.000984149018768221,-10.17559554584485,0.0073974609375,0.48698677675084906,2171.0,0.7300448194146156,5.352171138234333,-10.36747140636064,0.6548649683594704,0.0,-5.188897155188904,0.0
-0.1480175420641899,-0.9990270629525184,-14.938931610255363,4100.0,0.42201189920306204,-0.09924400206655264,-17.907522429731053,-5.685703052071572,0.00021372903283918278,2438979.0,-0.774219708416058,0.020934946835041046,-2.0119088625400763,0.36479444122756227,-5.62464541277499,0.0,5.999944361075203,-10.50901552234152,0.6322082415223121,0.8720099409754583,0.1111328125,12.715063669300182,0.24,1025.0,0.63,-0.048520000744611026,-0.999222582578659,40,-1.3412502372049955,1727.0,-12.506098414579231,0.001066304580308497,-12.491924754814567,0.007763671875,0.6205321497716106,3219.0,0.7443915918469429,5.4445480761831035,-12.61822156040569,0.6645998060703278,0.0,-5.29369533601519,0.0
-0.1506087753921747,-0.999513067305088,-16.398962180224867,4200.0,0.4260522723197937,-0.10027960054576397,-16.4774474526628,-5.820065227802485,0.00024250254573416897,2489257.0,-0.7703659309470823,0.022137099551036953,-2.0213138143273683,0.30128205128205127,-5.793777970238073,0.0,5.906590903170122,-11.868404075821251,0.6379905313253402,0.8933010003031222,0.059326171875,12.62824589903698,0.4,1050.0,0.65,-0.048520783241838214,-0.9991150930523872,41,-1.6981806627950136,1716.0,-12.486864471264113,0.0009512627395452001,-12.453950583284975,0.00693359375,0.5319138779786571,3299.0,0.7562784254550934,5.590804124444541,-12.551972138542206,0.6745681554079056,0.0,-5.426563519938793,0.0
-0.15479303598403932,-0.9993378758430481,-14.831467120899472,4300.0,0.43050303012132646,-0.10226974748075009,-14.819078743416583,-6.327668588367905,0.00022000072567607276,2538994.0,-0.7685925129855604,0.022360472520813347,-1.975823238025987,0.34617664493183165,-6.278168349714364,0.0,5.942204839589428,-14.5352460046937,0.6431521117687226,0.7870685464268352,0.107080078125,13.159136336628496,0.32,1075.0,0.68,-0.049133222363889215,-0.9991991639137268,42,-1.925878595354241,1687.0,-12.953150026108029,0.0009927316365065052,-12.84557216630825,0.0062744140625,0.5709923990181072,2057.0,0.7672569319605828,6.149492498866621,-12.984872264383762,0.6830469816923141,0.0,-5.94735262955985,0.0
-0.15360504500567912,-0.9842206418514252,-14.768444025507868,4400.0,0.43561294600367545,-0.10307870246469975,-16.334280960854784,-6.879423617395003,0.00034170006110798565,2587647.0,-0.7652745052484533,0.022773962793871762,-2.039133773897265,0.3451917732073374,-6.8420274703374515,0.0,5.328458805874146,-14.133600921749876,0.6493539229035378,0.9710373880989994,0.0648681640625,13.641667670067068,0.56,1100.0,0.69,-0.04853655649349094,-0.9987445026636124,43,-1.633490320329494,1799.0,-13.463744907748998,0.004571092559490353,-13.246629599286214,0.0041259765625,0.40428240411322075,5697.0,0.7764952555298805,6.643350070482633,-13.372260103629449,0.6896568685770035,0.0,-6.462109301694295,0.0
-0.15779306441545488,-0.989079338312149,-14.640876045563779,4500.0,0.4401423178613186,-0.10417913496494294,-12.79925754172282,-6.894640234548646,0.0003295277354482096,2632881.0,-0.767409897259131,0.022976698400452734,-2.017734924613978,0.37305699481865284,-6.862634618482875,0.0,6.122524684593484,-13.293975846799361,0.6551002398133278,0.8992130750605327,0.0757568359375,12.08755122115565,0.24,1125.0,0.79,-0.048606493044644594,-0.9987899750471115,44,-1.9124038065987687,1544.0,-11.913481025856386,0.003421002172399312,-11.926317235839395,0.00615234375,0.5431034853240372,3304.0,0.7871555119752884,6.695386219873853,-12.039746269931989,0.6931583672761917,0.0,-6.539524422648364,0.0
-0.15708346515893937,-0.9915109097957611,-14.100122578653389,4600.0,0.4448652774095535,-0.10707106012851,-13.148665363696656,-6.7135631370896975,0.0002735887832386652,2674061.0,-0.7700805501201102,0.023083999333903194,-1.9976885165771818,0.40667574931880107,-6.684194736072745,0.0,5.577268329001567,-15.173298858888588,0.6624386221170425,0.9579470947320823,0.0685791015625,12.444128158875278,0.36,1150.0,0.78,-0.04827389130368829,-0.9989989623427391,45,-1.5339458676271625,1468.0,-12.33024911157255,0.002845435304334387,-12.251951298258266,0.0057373046875,0.5986004370844276,4423.0,0.7984830304980278,6.499206080642597,-12.36831731988947,0.6968023687601089,0.0,-6.355908168262263,0.0
-0.15994659513235093,-0.9932820856571197,-13.324007449543332,4700.0,0.44918189719319346,-0.10902542602270841,-11.062820295141977,-6.294957288785306,0.0003876871287502581,2717325.0,-0.7710909299756168,0.0229116216301918,-1.9660329222031578,0.34892307692307695,-6.290274642706656,0.0,5.838110658388656,-13.019223488676728,0.6720537662506103,0.6727066817667045,0.097265625,12.527100107147968,0.6,1175.0,0.73,-0.04821384325623512,-0.9985727086663246,46,-2.9845464226387146,1625.0,-12.418891404072275,0.002426184358773753,-12.268166001033544,0.00634765625,0.5263963826722268,883.0,0.8094084098935127,6.083385568889472,-12.375002529345632,0.6993401303887368,0.0,-5.918913861043777,0.0
-0.16200222373008727,-0.9938248947262764,-13.77001489530953,4800.0,0.4540488734841347,-0.11108725238591433,-10.487595734752233,-5.694016018879369,0.00027486715734994507,2764173.0,-0.7728442488132714,0.02338845287449658,-1.941540939634433,0.35398230088495575,-5.7008511021997,0.0,5.757904691710988,-14.273755624598577,0.6772744908928872,0.05379746835443038,0.0778564453125,12.149273711645288,0.12,1200.0,0.79,-0.04809190109372139,-0.9989941731095314,47,-2.9714363644501,1469.0,-12.067622314325451,0.0022976969601586463,-11.967626371400256,0.0075439453125,0.5970037201690779,632.0,0.8230073735117912,5.5373836042781015,-12.075983545635612,0.7027318596839904,0.0,-5.346214914429801,0.0
-0.1613157007843256,-0.9944445088505744,-12.047559550896876,4900.0,0.4589823096990585,-0.11305836290121078,-11.328736235635548,-6.754669989615668,0.00034363641316303983,2812068.0,-0.7696855386497191,0.023779648588970304,-2.0048672338354665,0.243858597962852,-6.738806338963485,0.0,6.296742074044346,-12.393000046341337,0.6837883681058884,0.9328404189772027,0.10048828125,12.085842822393346,0.48,1225.0,0.68,-0.04845051746815443,-0.9987372785806656,48,-2.159656780116499,1669.0,-12.01743429702373,0.0021510262944502757,-11.962746685208769,0.007373046875,0.5190732755989764,3246.0,0.8334868058562279,6.566374228815446,-12.070700129740178,0.7057869404554367,0.0,-6.38789772800664,0.0
-0.1611705504357815,-0.9944033935666085,-12.860139585663134,5000.0,0.4639956921339035,-0.11395631525665521,-10.70360765101898,-5.2468107678845035,0.000243746497653774,2856295.0,-0.7751255112667422,0.023343278933316468,-1.9391037780391343,0.3985313751668892,-5.358124827037672,0.0,6.210392066055113,-13.645145649559096,0.6896059900522232,0.9625372498935717,0.094189453125,11.608050144741535,0.24,1250.0,0.82,-0.048253164533525704,-0.9991104394197464,49,-1.0272736809612564,1498.0,-11.497439269283756,0.0021607609145576135,-11.486626757282036,0.0080810546875,0.5417154183641363,7047.0,0.8438916459679604,5.0568132190677275,-11.593964122444003,0.7092316716909408,0.0,-4.889383695864764,0.0
-0.16359035409986972,-0.9940074115991593,-12.127441109188247,5100.0,0.46691111102700233,-0.11516052056103945,-9.06187598155475,-6.14949353219867,0.0003376700060471194,2891124.0,-0.7786449683590035,0.023629413824528454,-1.9317721148800047,0.396859386152748,-6.106373207120411,0.0,7.4608964885115,-10.71778107180088,0.6945487156510353,0.9821388702835454,0.080859375,11.381360287152892,0.76,1275.0,0.82,-0.048619665391743186,-0.9987595483660698,50,-1.473306560280968,1401.0,-11.333485884104874,0.0022544950887095185,-11.393540408680646,0.0070556640625,0.5834352047307361,4479.0,0.8568298876285553,5.932214863706248,-11.442468065557083,0.7121698066592217,0.0,-5.7503189814336135,0.0
-0.16639452911913394,-0.9938766762614251,-11.667394594522278,5200.0,0.4696956627070904,-0.11623737867921591,-11.741381123900304,-6.560624581503649,0.0003213772924937075,2928277.0,-0.7796123335272569,0.023596643609926103,-1.9686718090481008,0.4556338028169014,-6.526502237867744,0.0,6.28164648512097,-11.401632795925952,0.699368679523468,0.8281660535995796,0.0828369140625,10.76837299178462,0.48,1300.0,0.79,-0.05025647934526205,-0.9988204210996627,51,-1.3866253023741848,1420.0,-10.67568550109296,0.002285436526290141,-10.887806392527,0.0065185546875,0.6835197204034904,1903.0,0.8681094825267792,6.403732788180764,-10.98208366795821,0.714847457408905,0.0,-6.2158137382784435,0.0
-0.16972039230167865,-0.9940967664122582,-12.76310548510785,5300.0,0.47159905806183816,-0.11764858402311802,-10.46409793683405,-6.652260808104184,0.0002663935472810408,2970358.0,-0.782337025839297,0.02359860176220536,-1.9553235080562446,0.41696364932287955,-6.643255064997687,0.0,5.810712823775276,-12.314000768366451,0.7058764934539795,0.9122036874451273,0.1094970703125,10.232607131689255,0.2,1325.0,0.81,-0.05025896402075887,-0.9990258350968361,52,-1.0105732343892582,1403.0,-10.127323138141506,0.0022333411092404277,-10.360281375161545,0.0076904296875,0.5723894215291173,4556.0,0.8787233412265778,6.458007797271804,-10.493574653959044,0.7183455437421798,0.0,-6.281597771782183,0.0
-0.1733729351311922,-0.9939938127994538,-12.444131513617616,5400.0,0.47338286936283114,-0.11826104912906885,-9.00169061353332,-6.506926177954161,0.00035778575802396516,3008059.0,-0.7859503998966829,0.023358471831306814,-1.9062255048429506,0.4139633286318759,-6.47960476544722,0.0,5.909223302272628,-12.090050927311937,0.7118690922856331,0.9433693796243597,0.107666015625,9.931127544300246,0.48,1350.0,0.81,-0.05044365450739861,-0.9986844033002853,53,-1.4194454646729697,1418.0,-9.799762010794092,0.002257711149286479,-9.998664373864315,0.007763671875,0.5477519437323917,3514.0,0.8882896929979325,6.290482283352293,-10.122029167884879,0.7211517259478569,0.0,-6.109113861576672,0.0
-0.17582265697419644,-0.9940898671746254,-12.812716626135332,5500.0,0.4763579308986664,-0.12128319274634122,-9.358413064362205,-6.819811963451332,0.00023206645455502438,3048109.0,-0.787019964981664,0.023800392914563418,-1.8243281295202904,0.3971631205673759,-6.801822067745737,0.0,6.334769339005292,-12.858304237588012,0.7170399740338326,0.9934192486975596,0.1035400390625,9.671837392903274,0.52,1375.0,0.82,-0.050166362430900335,-0.9991540715098381,54,-1.3398441994198405,1551.0,-9.59109549572566,0.00223497643310111,-9.871980223136308,0.0078125,0.46238349540066137,7294.0,0.8988411471247673,6.577857227144977,-9.952639272452483,0.7250186264514923,0.0,-6.408946439599606,0.0
-0.17449965551495553,-0.9940122693777085,-11.811412161897087,5600.0,0.4800547532737255,-0.1224061606451869,-11.691278311099413,-6.9446241017801045,0.0002329523311345838,3087045.0,-0.7932081022408966,0.023952757846564053,-1.882664444729744,0.4493712772998015,-6.944477792790826,0.0,6.349980531000634,-12.552676332381633,0.7225623697042465,0.8935108153078203,0.124658203125,9.546776984376466,0.6,1400.0,0.78,-0.05017083147540689,-0.9991507634520531,55,-0.9638334964014229,1511.0,-9.480761044966417,0.002253343310439959,-9.75300893157566,0.007470703125,0.46004584029157874,2404.0,0.9079487890005111,6.705890435381377,-9.855001403864156,0.7289601653814316,0.0,-6.526414678397169,0.0
-0.1747912358492613,-0.994000680744648,-12.904430413068958,5700.0,0.4825874984264374,-0.12324921526014805,-11.040528962147317,-6.780692226017626,0.00023671000853937586,3125376.0,-0.7901650421394152,0.02413204754702747,-1.8321061267721235,0.4139821795750514,-6.759130523150992,0.0,6.268975473181704,-13.232061058730276,0.728068046271801,0.8263971462544589,0.09873046875,9.415673732236863,0.52,1425.0,0.71,-0.0492530413903296,-0.9991367354989051,56,-1.6271729918231257,1459.0,-9.322626396338233,0.0022560857149073856,-9.621440674310659,0.00751953125,0.5652120342430637,1682.0,0.9152400732040405,6.55825487507722,-9.74710345241933,0.7335306242108345,0.0,-6.391064258033113,0.0
-0.17604454085230828,-0.9943372026085854,-11.940187800081215,5800.0,0.4858041450381279,-0.12387720178812742,-12.472595450602531,-6.600100880446094,0.0002200359889684478,3158682.0,-0.7925609860922123,0.02451926819048822,-1.8174868914702529,0.4456681350954479,-6.6264873763199645,0.0,6.289779075328066,-11.791950348550142,0.7352213814854622,0.9192520186995325,0.115625,9.106948554270717,0.76,1450.0,0.82,-0.04996821321547031,-0.999199016392231,57,-1.3783628931744398,1362.0,-8.98508302192283,0.0021764254342997447,-9.348634670788275,0.0082275390625,0.4260734750929128,2353.0,0.9211880430579186,6.413842368768866,-9.454372657418725,0.7390603393316268,0.0,-6.181804703615951,0.0
-0.17611434757709504,-0.9942856416106224,-12.108357797578684,5900.0,0.4890733450651169,-0.1247872281819582,-13.02180502200416,-6.484161686468684,0.00023401018443109934,3188391.0,-0.7905154638890963,0.0246215614490211,-1.7701595436403295,0.4124203821656051,-6.480725767471085,0.0,5.642596140953168,-13.400434720606517,0.7390208095312119,0.9880102769055096,0.1166015625,8.947733309797329,0.88,1475.0,0.82,-0.05036013247445226,-0.9991468206048012,58,-1.3161301541528967,1256.0,-8.880264348391075,0.0021886353613808753,-9.256140310951068,0.007421875,0.3944152124628041,3503.0,0.9281786054372787,6.214983364280695,-9.368726243436962,0.7418835178017616,0.0,-6.034657926534954,0.0
-0.17555566802620887,-0.9940615177154541,-12.758475216221827,6000.0,0.4916925571858883,-0.1253158777952194,-8.626061166132569,-6.651069677015639,0.00022940924027352593,3222438.0,-0.7972763530284283,0.02498082211241126,-1.7888352010035304,0.4001386962552011,-6.603663034068504,0.0,6.760724490428624,-13.691001273421028,0.7452176317572594,0.9599271402550091,0.1043701171875,9.38402135671948,0.8,1500.0,0.71,-0.050215940456837416,-0.9991640090942383,59,-0.9205511769641752,1442.0,-9.310136334171847,0.002241687651257962,-9.590734170065623,0.0078857421875,0.47133955061973226,2196.0,0.9378410965204239,6.350945476294899,-9.68387457104674,0.7444418966770172,0.0,-6.1902915825625255,0.0
-0.17787837237119675,-0.9942934945225715,-13.70682683295027,6100.0,0.4942601636052132,-0.1264543529599905,-9.119004187147693,-6.789853309828549,0.00021358633057388943,3265776.0,-0.792914910151012,0.025787780759856105,-1.8155899779067113,0.35948158253751705,-6.809135706486091,0.0,6.581127164073149,-14.75323118423599,0.7509979158639908,0.9077223306384165,0.1346435546875,7.496039429691571,0.32,1525.0,0.75,-0.051005045976489784,-0.9992231130599976,60,-1.1857075160522699,1466.0,-7.466763307488617,0.0021867714734980837,-7.858499378430793,0.0080810546875,0.4688130304959994,3587.0,0.9484701946377754,6.532025991666737,-7.999860758959608,0.7475551322102547,0.0,-6.388712786619028,0.0
-0.1804740060120821,-0.9938106551766396,-11.231373905380702,6200.0,0.4962134785950184,-0.12861970588564872,-11.562551302435232,-6.517345993226504,0.0002242457001557341,3310174.0,-0.7940951402280916,0.02612862610258162,-1.8004179940835456,0.4042042042042042,-6.46523736316625,0.0,6.800911254641562,-11.794944876457931,0.7587437346577645,0.9780579662682168,0.1227294921875,8.625115267508018,0.4,1550.0,0.72,-0.05114117199555039,-0.9991832986474037,61,-3.4421127389587074,1665.0,-8.534957117214,0.002301068318774924,-8.842525595128285,0.00732421875,0.72023045695686,6107.0,0.9576206296682358,6.347584938958265,-8.94932545869935,0.7510767713189125,0.0,-6.130656955868236,0.0
-0.18357004411518574,-0.9937506899237633,-10.63137504852046,6300.0,0.49817394390702247,-0.12941391691565513,-12.081502497339207,-5.7445249687308575,0.0002310911331733223,3355412.0,-0.7931549090229965,0.025623720278963445,-1.8316591062066436,0.35662824207492794,-5.7359856277287395,0.0,7.400083549239359,-10.732509568346078,0.7676788941025734,0.035168195718654434,0.1122802734375,8.864304723434381,0.12,1575.0,0.77,-0.050332503486424686,-0.9991577208042145,62,-0.9975675852277348,1388.0,-8.849446761074251,0.002315262466436252,-9.129369799344229,0.007763671875,0.733516986398122,654.0,0.9635027632117271,5.541679398254983,-9.243025934430621,0.755037260055542,0.0,-5.372425135285975,0.0
-0.1862908974289894,-0.9935701355338097,-10.515498424680262,6400.0,0.5002688646316529,-0.13195335678756237,-12.492651646675332,-6.145567882547046,0.0002195928551373072,3409287.0,-0.7865372298634611,0.025725065218284725,-1.8649940959367086,0.22759059122695485,-6.072324592929545,0.0,7.605724434102501,-9.247396646565218,0.7749737069010735,0.8766009852216748,0.119677734375,7.931688600850224,0.0,1600.0,0.66,-0.04947071867063642,-0.9992006868124008,63,-1.297249698644955,1573.0,-7.9053431627133195,0.00235799930524081,-8.31284202577223,0.007568359375,0.7774520247447263,4060.0,0.9723541140556335,5.9632674399524195,-8.447241781856212,0.7584629639983177,0.0,-5.76869929010793,0.0
-0.18839436434209347,-0.9936324879527092,-12.1649469683545,6500.0,0.5036019369959831,-0.13389678113162518,-11.013716719288848,-6.6296857099058055,0.0002141642427886836,3452998.0,-0.7831548488909903,0.026292884768918157,-1.9167369787217468,0.21451104100946372,-6.569289724571101,0.0,7.27865031905952,-9.861076112641037,0.7804565832018853,0.8852924474730267,0.106396484375,9.166198771475607,0.72,1625.0,0.69,-0.05018151979893446,-0.9992209553718567,64,-1.6614229323706453,1585.0,-9.12153491839852,0.00234324072371237,-9.500423712778959,0.007861328125,0.755145372850718,1761.0,0.9811087146401405,6.390816627849942,-9.595387115958358,0.7623760178685188,0.0,-6.256130281802488,0.0
-0.1904273647814989,-0.9936841443181038,-12.437755309808317,6600.0,0.5061896488070488,-0.13537726290524005,-8.387297530584334,-6.350217715930759,0.00022648885278613305,3482735.0,-0.7832715121239744,0.026467881817370652,-1.8856402729805268,0.41446872645064053,-6.315574969201843,0.0,6.759620215148749,-11.922660754920319,0.7855676233768463,0.9330819981149858,0.119140625,9.29967389048895,0.88,1650.0,0.83,-0.05129245780408383,-0.9991749063134193,65,-2.5344342038533645,1327.0,-9.226343009678326,0.002331014379160479,-9.572875528471574,0.0080810546875,0.679227030962477,1061.0,0.9913048774003983,6.189663618330682,-9.64554913601356,0.7664931580424309,0.0,-5.970722815552968,0.0
-0.1943763505667448,-0.9930117860436439,-12.007057274546728,6700.0,0.5076958447694778,-0.13636602126061917,-14.558256488556786,-6.5246590587726185,0.000243499275893555,3515755.0,-0.7821020605104423,0.026239879475906492,-1.9372177900942915,0.3737458193979933,-6.419995189885017,0.0,7.392068036111462,-12.323967613159065,0.7915520131587982,0.826201448321264,0.1021240234375,10.183408853564027,0.56,1675.0,0.84,-0.05284754680469632,-0.999111370742321,66,-1.6970531799099522,1196.0,-10.184069309364716,0.002490164351183921,-10.428658564459838,0.0079345703125,0.8094997430453572,1519.0,0.9989100098609924,6.333701410530736,-10.506837766678856,0.76861020475626,0.0,-6.119522526457634,0.0
-0.19505824372172356,-0.9932495936751365,-13.191562820078646,6800.0,0.5108615294098854,-0.13818651475012303,-10.919685579023135,-4.888882616890482,0.00020507248991634696,3557284.0,-0.784756357733204,0.026873033493757248,-1.9636810508927738,0.3698727015558699,-4.873761514947217,0.0,7.335794086071246,-12.481911724459176,0.7975284337997437,0.8352826510721247,0.1383544921875,9.820824092124354,0.4,1700.0,0.76,-0.05317201288416982,-0.9992549225687981,67,-1.833121818033161,1414.0,-9.858044801076648,0.0024338734743651,-10.158197053777238,0.0078857421875,0.663280225886476,2052.0,1.007332867383957,4.663135285394056,-10.223943496670213,0.7709045767784118,0.0,-4.485728266540186,0.0
-0.19824945963919163,-0.9931235685944557,-12.467398914132183,6900.0,0.513289387524128,-0.14018783681094646,-12.495357124705846,-6.084249838224602,0.00021474121203937102,3591403.0,-0.7846557748711348,0.02686771578155458,-1.9344076007124387,0.4209737827715356,-6.006705291050708,0.0,7.095417816461788,-8.024289512925904,0.802810138463974,0.9281978126485972,0.1530029296875,10.148366262675596,0.72,1725.0,0.84,-0.053166871517896654,-0.9992187961935997,68,-1.3483977447978956,1335.0,-10.135871903954328,0.002463705837726593,-10.38948357020407,0.007666015625,0.5862045221333411,2103.0,1.016614991426468,5.8493096285486805,-10.468268040049121,0.7736873626708984,0.0,-5.652900366484866,0.0
-0.20085946880280972,-0.9925470694899559,-12.552627662661312,7000.0,0.516468633711338,-0.14153193309903145,-10.990332135045898,-5.575414826336479,0.00021486028308572713,3629378.0,-0.7870726558136084,0.026902643078938127,-1.8805037091431587,0.4548215641609719,-5.590647936583658,0.0,7.335803532952484,-9.446238082746168,0.8090518042445183,0.9006400487656202,0.1355712890625,9.526947271659747,0.44,1750.0,0.78,-0.0534470927901566,-0.999218362569809,69,-1.3348183373826308,1317.0,-9.505891636717712,0.002600167749915272,-9.826026373475269,0.00869140625,0.5729990406382285,3281.0,1.024826428294182,5.33991051546153,-9.923206333860495,0.7771623224020004,0.0,-5.1694984975986475,0.0
-0.20145670808851718,-0.9928270414471626,-13.21281890907709,7100.0,0.5208019271492959,-0.14330932013690473,-12.187831067076727,-6.3770002726944615,0.00023076868128555362,3664761.0,-0.7833956887541718,0.027355357958003878,-1.925306371763145,0.41388699795779443,-6.325136342504014,0.0,7.417294043203718,-11.532705522764541,0.8142853274941444,0.9931812837996709,0.110498046875,10.07194831774693,0.76,1775.0,0.76,-0.05446287160739303,-0.9991589307785034,70,-1.676038254316309,1469.0,-10.089197295062236,0.0025338943931274118,-10.337812619189654,0.0075927734375,0.4708246847349704,4253.0,1.0339768379926682,6.12949937502731,-10.46132575066687,0.7794853031635285,0.0,-5.932320369821995,0.0
-0.2027524970471859,-0.9928870782256126,-13.974307894721855,7200.0,0.5239714816212654,-0.14515942186117173,-8.886026524254321,-6.201460055252838,0.00021940535261819605,3701215.0,-0.7880205593017309,0.027368074236437678,-1.9423318730503525,0.39666666666666667,-6.132274530472904,0.0,6.412641698871623,-13.132162744384594,0.8192170977592468,0.9542074363992172,0.153466796875,10.084807227775027,0.76,1800.0,0.7,-0.054128220025449994,-0.9992013856768608,71,-1.0360981906649986,1500.0,-10.074893755305363,0.0025196863687597217,-10.321743174201297,0.008056640625,0.6187091427825473,2555.0,1.042738339304924,5.978390609285164,-10.44353283775812,0.7819612711668015,0.0,-5.771374329143777,0.0
-0.2040289707481861,-0.9927480682730675,-12.371071550223808,7300.0,0.5268761411309242,-0.14747020974755287,-13.425277190711702,-5.831320005052591,0.00022070800077926832,3732290.0,-0.7938420967064304,0.027121518505737185,-1.9173215398855974,0.45990566037735847,-5.804811210520034,0.0,6.483818408000521,-10.107457910372762,0.8241027265787124,0.965629522431259,0.1453369140625,9.990919474775072,0.68,1825.0,0.82,-0.053850069642066956,-0.9991965189576149,72,-2.445070431436999,1272.0,-9.974839142395714,0.0025525889708660544,-10.209480538595155,0.008203125,0.5372943172067316,2764.0,1.0535010695457458,5.6064989194812895,-10.33147395671163,0.7849355816841126,0.0,-5.4016873785214585,0.0
-0.2017389964312315,-0.9930334225296974,-13.080512212803242,7400.0,0.5296333521604538,-0.1480786506086588,-11.610646432604232,-5.287804989952166,0.0002165783997043036,3766380.0,-0.7922346253035357,0.02723435005173087,-1.8632119683406927,0.4431401320616288,-5.281673113284752,0.0,6.930923575317041,-11.146439787077176,0.826794558763504,0.9460632362058277,0.1537841796875,9.373349465567,0.6,1850.0,0.8,-0.05290508884936571,-0.9992119506001472,73,-1.6483660211233464,1363.0,-9.32766476290207,0.002485044422792271,-9.739438494879437,0.008056640625,0.6482495055370887,3226.0,1.0612295806407928,5.093100451143119,-9.835948796180391,0.7869427189230919,0.0,-4.862538667978365,0.0
-0.20345952324569225,-0.9921019360423088,-12.665524168272775,7500.0,0.5340836197137833,-0.14915803037583827,-11.393239789427861,-5.278493305485553,0.00021955815973342396,3802845.0,-0.7963150944873633,0.02743307766504586,-1.8136871061484272,0.4536015574302401,-5.2746174524778,0.0,6.232503340973946,-9.034288644120377,0.8303493648767472,0.9594464113292566,0.1796875,8.4139254141887,0.68,1875.0,0.71,-0.051974558364599945,-0.9992008104920387,74,-1.8528886952343406,1541.0,-8.307998772974807,0.002705533237894997,-8.766550734319733,0.007421875,0.5165623160572143,3107.0,1.0670597463846208,5.025911978651047,-8.891454773036699,0.7885245606303215,0.0,-4.835600576602323,0.0
-0.20347648710012436,-0.9922906026244164,-12.36620872731503,7600.0,0.5376621171832084,-0.1495040126144886,-11.79581758135239,-6.431635789703881,0.00022638839291175828,3837242.0,-0.7997327875269548,0.02780502256937325,-1.8124159115257499,0.4129692832764505,-6.387604459154902,0.0,5.427631957507034,-10.525415605854404,0.8352846965193749,0.998109640831758,0.1229248046875,9.508085762323208,0.84,1900.0,0.73,-0.051753430254757406,-0.999175301194191,75,-1.9931370816270992,1465.0,-9.456991701657818,0.0026608759362716228,-9.793117070191585,0.007080078125,0.4688965384303458,3703.0,1.0731063961982727,6.176370959455525,-9.888507719659447,0.7896575585007668,0.0,-5.964824959548187,0.0
-0.20224825404584407,-0.9930786311626434,-12.117063893986087,7700.0,0.539770320057869,-0.15083648450672626,-8.35839583424945,-6.057345495442827,0.00021737897950515616,3878606.0,-0.8025976471770264,0.029306000843644143,-1.7599884061986812,0.4383289124668435,-6.0937012854890416,0.0,5.728903010145072,-11.987505617902498,0.8364525303244591,0.826044703595724,0.1575439453125,10.058115639174675,0.4,1925.0,0.81,-0.05229424983263016,-0.9992089465260505,76,-1.8817750748888171,1508.0,-10.034979055230384,0.0024743446905631573,-10.24891019832133,0.0076171875,0.5293126009510094,2058.0,1.0814588606357574,5.832180262623214,-10.372820828642423,0.7915278404951096,0.0,-5.638637465334723,0.0
-0.20343348644673825,-0.9927246049046516,-11.401155432501042,7800.0,0.5412441223859787,-0.15198311470448972,-13.264428764919005,-6.564025531876064,0.0002126214993040776,3914404.0,-0.810915078713515,0.029390372894704343,-1.756842038765535,0.3881401617250674,-6.548354928059178,0.0,5.579114591315519,-12.659621252650645,0.8394492238759994,0.986034255599473,0.172119140625,10.300587223881069,0.68,1950.0,0.72,-0.05246354155242443,-0.999226713180542,77,-1.6033963852656794,1484.0,-10.299066738799862,0.0025581441179383544,-10.414763226671056,0.0083251953125,0.4074412243109786,3795.0,1.090084618330002,6.304537355784371,-10.538414873940672,0.7920133277773858,0.0,-6.078460700030663,0.0
-0.208537258207798,-0.992661964893341,-11.838526786485053,7900.0,0.5438530206680298,-0.15334623865783215,-7.6275748156774315,-6.847974430319712,0.00021067372654215433,3949421.0,-0.807950589342363,0.029911717819049954,-1.748842980117115,0.410092395167022,-6.834701985727412,0.0,5.599358790911284,-12.22071066422808,0.8450462430715561,0.944547134935305,0.1890380859375,10.248604444490173,0.68,1975.0,0.79,-0.052667225059121844,-0.999234002828598,78,-2.332770892057969,1407.0,-10.283386513864482,0.002572971151676029,-10.368394337288134,0.0075439453125,0.5355769434980535,2705.0,1.0973088294267654,6.673148476336751,-10.50762184702804,0.7939979940652847,0.0,-6.44240596632832,0.0
-0.2120526112616062,-0.9934601560235023,-11.09657305175604,8000.0,0.5452649429440498,-0.15391925759613515,-10.81736784642211,-5.849438047626755,0.0002123213325830875,3982843.0,-0.8113731227243989,0.03072149185463786,-1.7420845205986553,0.4344512195121951,-5.831011780065586,0.0,5.513447468588066,-13.079011348213921,0.8509270295500755,0.9584338964869938,0.1677001953125,10.653979520107665,0.64,2000.0,0.8,-0.05279972394928336,-0.9992278441786766,79,-1.8447615005572513,1312.0,-10.667434167167176,0.002384033950511366,-10.707222992604958,0.0080078125,0.4328117192095817,3729.0,1.1043030738830566,5.573329003639022,-10.83537814370924,0.7956385508179664,0.0,-5.35696810981813,0.0
-0.21547955311834813,-0.9935682579874993,-12.930193756018545,8100.0,0.5473621964454651,-0.1555464059114456,-4.510402003249458,-6.844132594431099,0.00021357703444664368,4013706.0,-0.8073619403712655,0.03131143171340227,-1.768222385442641,0.3581847649918963,-6.841116284988283,0.0,5.70553741559969,-12.703987547328097,0.854334919154644,0.9837286265857694,0.1554931640625,10.345265038367925,0.84,2025.0,0.81,-0.053599150758236645,-0.9992231622338295,80,-1.788693644358983,1234.0,-10.461923001777777,0.0023584459151607005,-10.496426896348732,0.0089111328125,0.44776460105142,3626.0,1.1128008365631104,6.622073762251304,-10.622093949387885,0.7972046002745629,0.0,-6.413468070791646,0.0
-0.21814761571586133,-0.9931340903043747,-11.764345526652946,8200.0,0.5483710184693337,-0.15741389952600002,-13.377042110341803,-6.6643744524442,0.0002313980476174038,4045732.0,-0.8089200032380177,0.031550315022468564,-1.7475877208864403,0.45682888540031397,-6.6620715942750595,0.0,5.535314576095251,-12.89920378871151,0.8581485196948051,0.7305801376597837,0.133740234375,10.386374965711836,0.6,2050.0,0.81,-0.052940156869590284,-0.9991565689444541,81,-2.4129785897291827,1274.0,-10.412277642188661,0.0024612153472844513,-10.451049160423851,0.0084716796875,0.5113528840676118,1017.0,1.1196547538042068,6.478564436359463,-10.569265294278832,0.7992028340697288,0.0,-6.236033140118519,0.0
-0.21984137929975986,-0.9929850175976753,-11.921681171130787,8300.0,0.550454780459404,-0.15925025194883347,-8.058731514840003,-6.605813211204809,0.00020529342982626985,4078282.0,-0.8096951163799531,0.03170111831277609,-1.7469095824966643,0.45958429561200925,-6.611016341068991,0.0,5.644101575996389,-11.901621557815307,0.8608828783035278,0.8335443037974684,0.13271484375,10.141376989116187,0.6,2075.0,0.84,-0.052194836735725406,-0.999254098534584,82,-1.6017327796395266,1299.0,-10.18710271280805,0.0024965026357676836,-10.25242826310849,0.00810546875,0.4116643973048097,1580.0,1.1261716842651368,6.356407770745849,-10.37735309205658,0.8021334365010262,0.0,-6.145185406423332,0.0
