ReemS3/reg_curious_hac/data/d4a6886/CausalDependenciesMujocoEnv-o1-v0/alg:chac|eta:0.75|fw:1|fwhidsiz:256,256,256|nlev:2|reg:True|rolbatsiz:1|timsca:27,27|107/progress.csv
train_0/q_grads_std,train_0/target_q,train_1/next_q,train_1/q_grads,train_0/avg_q,test_1/subgoal_succ_rate,test_1/avg_q,train_1/fw_loss,train_1/fw_bonus,train_1/mu_grads_std,train_1/reward_-1.0_frac,train/episodes,train_1/avg_q,train_0/mu_grads,train_1/mu_grads,train/success_rate,train_0/q_loss,train_1/q_loss,train_1/q_grads_std,train_0/fw_bonus,train_1/reward_-0.0_frac,policy/steps,train_0/mu_grads_std,train_1/reward_-27.0_frac,train_0/fw_loss,train_0/reward_-1.0_frac,train_1/reward,train_0/mu_loss,train_1/n_subgoals,test_1/n_subgoals,train_0/q_grads,epoch,test_0/avg_q,train_0/next_q,train_0/current_q,train_0/reward_-0.0_frac,train_1/subgoal_succ_rate,train_0/reward,test/success_rate,train_1/current_q,test/episodes,train_1/target_q,train_1/mu_loss
0.17637896873056888,-0.7902676920573818,-12.861364563521562,0.03162774592638016,-3.6470469635039193,0.0,-19.507714442855328,0.0012298330111661926,-0.9988203018903732,0.15509661547839643,0.004248046875,100.0,-10.005727307610409,-0.010013231262564658,0.0017176071065478026,0.0,0.4452351931453684,26.12904302383503,0.20399244427680968,-0.9994868099689483,0.0,72362.0,0.17666352093219756,0.0,0.00015523875426879386,0.006884765625,-2.0940165999225426,0.507925861695915,2700.0,675.0,0.035654074605554344,0,-0.366290355312202,-0.5051222650273873,-0.5241821971144078,0.0,0.27925925925925926,-0.5703428948876536,0.0,-10.406068856594421,25.0,-10.294682824557475,12.289422576674722
0.20152267031371593,-2.369969556298156,-16.359808835194187,0.0424369621090591,-3.0653814944702553,0.8789329685362517,-5.89139577235968,0.001218748727114871,-0.998859803378582,0.21761084720492363,0.003759765625,200.0,-16.611397580763942,0.0010279310285113753,0.000831818401638884,0.0,0.23831557529865255,24.632493354645913,0.2688106790184975,-0.9995341360569,0.0,157062.0,0.2074142299592495,0.0,0.00014122272114036605,0.006494140625,-2.229780870734976,2.155611463900317,2700.0,4386.0,0.039915687404572964,1,-0.889267442589338,-2.1543831423398956,-2.414968073189393,0.0,0.09814814814814815,-0.565465808637964,0.0,-11.700330648012722,50.0,-11.603943555756784,14.733410579335645
0.2276033226400614,-7.062092557023865,-14.972817123186683,0.04601281592622399,-11.495527330212655,0.0,-18.274715276320432,0.0012117637030314653,-0.9988847106695176,0.24631783738732338,0.003662109375,300.0,-14.42129231796295,0.008312623016536236,-9.136334674622048e-05,0.0,9.216867913780039,19.67951672855194,0.3014010667800903,-0.9995934754610062,0.0,231810.0,0.2240734100341797,0.0,0.00012364426875137723,0.01181640625,-2.215651352819259,9.545576904643683,2700.0,675.0,0.041109271068125966,2,-26.995249439012426,-9.488849768534207,-6.890491362125519,0.0,0.24481481481481482,-0.5581564262618486,0.0,-10.856297231000024,75.0,-10.770221241051598,14.076268254282473
0.23722059279680252,-8.651164912770719,-16.51613236250521,0.04886105703189969,-26.96378164888084,0.0,-19.62550428550938,0.001112087616638746,-0.9992399707436561,0.2627885676920414,0.0030517578125,400.0,-20.22947306522539,0.008312623016536236,-0.002441179769812152,0.0,4.328426758120225,18.740111987357885,0.32819453403353693,-0.9996362358331681,0.0,321908.0,0.2240734100341797,0.0,0.00011098259419668466,0.0105712890625,-2.289751398574663,10.13511526291509,2700.0,675.0,0.041522844042629,3,-26.99192064079631,-10.118016930122497,-8.533511639817117,0.0,0.014814814814814815,-0.5569952377351001,0.0,-11.061372312037284,100.0,-10.984401576363489,15.868446555057506
0.24958060793578624,-9.146864111033725,-12.91881643607834,0.05112901786342263,-26.856126428199065,0.0,-22.40008552317993,0.0011035971940145828,-0.9992702350020408,0.278087941557169,0.00322265625,500.0,-20.292631644272333,0.008312620222568512,-0.0056292697787284855,0.0,3.4214861397449448,13.016501062178241,0.347099332511425,-0.9996976152062416,0.0,412619.0,0.2240734100341797,0.0,9.279806272388669e-05,0.020361328125,-2.271228690124917,10.152332810244866,2700.0,675.0,0.041636760160326955,4,-26.999991799067367,-10.10906471794116,-8.958608391171994,0.0,0.006666666666666667,-0.5590796773722104,0.0,-10.101774551071061,125.0,-10.049181288271768,12.423059343962962
0.25912808179855346,-9.60307548280932,-11.137219418566048,0.05370461232960224,-26.98727452657078,0.0,-17.256976779112165,0.0011028661101590842,-0.9992728382349014,0.30358799546957016,0.0034912109375,600.0,-20.97163203804426,0.008312620222568512,-0.008891893969848751,0.0,2.3476323790041436,7.5479293267061935,0.3632520601153374,-0.9997359663248062,0.0,503023.0,0.2240734100341797,0.0,8.143644936353667e-05,0.024951171875,-2.366425876298672,10.297046782157848,2700.0,675.0,0.041354193724691866,5,-26.99790862673417,-10.255051774454166,-9.386675829593457,0.0,0.01037037037037037,-0.5606090421199041,0.0,-9.65510451352408,150.0,-9.593972651315259,10.855535501109973
0.267492513358593,-9.943991428695053,-23.66163878883783,0.0529061621055007,-26.981880046392053,0.004424778761061947,-25.251094061083737,0.0010834195927600376,-0.9993421554565429,0.305708210170269,0.0027587890625,700.0,-22.67420297474298,0.008312635123729706,-0.010365161346271634,0.0,1.2693569802403506,23.10638334312199,0.37294200286269186,-0.9997883766889573,0.0,593673.0,0.2240734100341797,0.0,6.591208220925182e-05,0.0377685546875,-2.3990909080428535,9.992851819253302,2700.0,678.0,0.04179519359022379,6,-26.984228337483188,-9.962574238575431,-9.729607939994244,0.0,0.007037037037037037,-0.5585896739899908,0.0,-14.640904332023188,175.0,-14.233322980537007,23.25610356318205
0.27025640606880186,-9.969868246707332,-25.878566661512316,0.05440338207408786,-26.962772262908853,0.005891016200294551,-19.30965187910726,0.0010237626498565077,-0.9995547711849213,0.30833085253834724,0.0033203125,800.0,-25.085007428280896,0.008312635123729706,-0.010629527387209237,0.0,0.562984640199722,27.012355053137536,0.38792392164468764,-0.9998738616704941,0.0,684440.0,0.2240734100341797,0.0,4.059248735757137e-05,0.1187744140625,-2.506700217035541,9.891558003309541,2700.0,679.0,0.041763694304972884,7,-26.914170632938752,-9.866125441127371,-9.842099075993033,0.0,0.005555555555555556,-0.56379292866186,0.0,-16.128966735355238,200.0,-15.24427729789123,23.78581364494044
0.27571103647351264,-9.994077506725883,-24.448448462690614,0.055352830607444045,-26.972039091311103,0.0,-18.99112264502297,0.0008690038084750995,-1.0001063644886017,0.3164219081401825,0.003173828125,900.0,-21.460946474547885,0.008312635123729706,-0.012140181986615062,0.0,0.9859681678381804,29.121901794071892,0.40194698944687846,-0.9998819097876549,0.0,775344.0,0.2240734100341797,0.0,3.82058477953251e-05,0.1555419921875,-2.503908426783892,9.808594891611438,2700.0,675.0,0.04158619716763497,8,-27.0,-9.801049561956443,-9.762120921242271,0.0,0.003703703703703704,-0.5637217007973959,0.0,-16.039472767916667,225.0,-14.171047586868468,23.893581871099542
0.2790204264223576,-10.243594176896513,-24.15387440642912,0.057307391241192815,-27.0,0.0,-19.73990736154897,0.0008058118241024203,-1.0003315955400467,0.32593567818403246,0.0031982421875,1000.0,-21.030207749365015,0.008312635123729706,-0.017128831380978225,0.0,0.7914747999896885,30.795708399266097,0.42061205133795737,-0.9999320536851883,0.0,866469.0,0.2240734100341797,0.0,2.335571541607351e-05,0.2638671875,-2.474612925526526,10.132441486751683,2700.0,675.0,0.041470817755907774,9,-27.0,-10.077093738367534,-10.02734093403701,0.0,0.0,-0.5625623593456112,0.0,-16.006241595559466,250.0,-14.010020799860342,24.14988819339721
0.28267365172505377,-10.030396410208827,-24.35757487859409,0.060009945463389155,-27.0,0.0,-20.840275157192142,0.0006841786249424331,-1.0007651060819627,0.3336812451481819,0.0024169921875,1100.0,-21.06135900739593,0.008312635123729706,-0.01647981470450759,0.0,0.8576961261674526,26.301883009025875,0.44555619433522226,-0.9999321326613426,0.0,957594.0,0.2240734100341797,0.0,2.3329716509579156e-05,0.2657958984375,-2.4907796578769195,9.8138814542419,2700.0,675.0,0.04180958392098546,10,-27.0,-9.783808102305816,-9.740065692662677,0.0,0.0,-0.564631473056943,0.0,-16.152965129053605,275.0,-14.280451019931656,24.41241818027247
0.28609717860817907,-10.09171893199316,-24.362019507632034,0.06237111808732152,-27.0,0.0,-21.129566284538658,0.0006900735897943377,-1.0007440984249114,0.3380628764629364,0.00283203125,1200.0,-21.108611834713134,0.008312635123729706,-0.01822987771593034,0.0,0.720586452579632,26.712604671633063,0.47326501831412315,-0.9999116718769073,0.0,1048719.0,0.2240734100341797,0.0,2.9391797670541565e-05,0.196044921875,-2.5092680551497324,9.835073456263672,2700.0,675.0,0.04193909326568246,11,-27.0,-9.82987029235297,-9.81192243250552,0.0,0.0,-0.5639122451291769,0.0,-16.203377119108602,300.0,-14.442223643559922,24.064678166313236
0.2883540980517864,-9.952810396155513,-24.232320265896956,0.06547341048717499,-26.97763398249969,0.0,-20.12554825878594,0.0006099301564972848,-1.0010297447443008,0.34165695160627363,0.0024658203125,1300.0,-22.70422446530999,0.008312635123729706,-0.018938867887482048,0.0,0.7624556208186768,25.96910711327875,0.4981298170983791,-0.9999166905879975,0.0,1139844.0,0.2240734100341797,0.0,2.7906016771339637e-05,0.2477783203125,-2.4441172987415483,9.70851443924752,2700.0,675.0,0.041682853177189824,12,-26.951192700340258,-9.696580413658335,-9.659228486474863,0.0,0.0,-0.5636205306844204,0.0,-16.24582542641563,325.0,-14.393829619319405,24.205671907415
0.2914804257452488,-9.906820031308197,-24.81457831566044,0.06894807312637567,-26.924452866698115,0.014598540145985401,-22.48756239971686,0.000545118563604774,-1.0012607395648956,0.3479878306388855,0.0022705078125,1400.0,-21.16502803155974,0.008312635123729706,-0.02028222749941051,0.0,0.7519171066769026,21.665907262309588,0.5216192543506623,-0.9999504759907722,0.0,1230556.0,0.2240734100341797,0.0,1.789866812487162e-05,0.302978515625,-2.511081786533032,9.61766607534712,2700.0,685.0,0.04196013044565916,13,-26.908173014889165,-9.619979955719078,-9.593749417565084,0.0,0.007037037037037037,-0.5667783909993886,0.0,-15.876648578494928,350.0,-14.690817268496838,24.84278209280866
0.29510039985179903,-10.159339181645418,-24.12598177363734,0.07545939758419991,-26.748024868491356,0.01171303074670571,-18.089571548844095,0.0005512330310011749,-1.0012389481067658,0.351860498636961,0.00244140625,1500.0,-22.642545934800935,0.008312635123729706,-0.022102658916264773,0.0,0.7023381792555929,19.92717207124727,0.5426632642745972,-0.9999559819698334,0.0,1319873.0,0.2240734100341797,0.0,1.626935677450092e-05,0.3501708984375,-2.490422042467253,10.00555505728924,2700.0,683.0,0.04157270723953843,14,-26.972900134720607,-9.964553842592242,-9.938529228698329,0.0,0.027407407407407408,-0.564381084312845,0.0,-16.212451047184388,375.0,-14.392785951358121,23.57447978162515
0.2975428283214569,-10.181366875969974,-24.203786258245067,0.08147053327411413,-26.95822881231455,0.005891016200294551,-18.97810996599398,0.0005089351849164814,-1.001389703154564,0.3558399140834808,0.001611328125,1600.0,-20.865483343634214,0.008312635123729706,-0.023853917978703974,0.0,0.8027240379833358,19.16059790813564,0.566509734094143,-0.9999504387378693,0.0,1410052.0,0.2240734100341797,0.0,1.790912288015534e-05,0.3529296875,-2.4962824872076452,10.029136273302907,2700.0,679.0,0.041623641084879634,15,-26.965587115631468,-10.017104823447484,-9.966692984634392,0.0,0.014444444444444444,-0.5665769659139187,0.0,-15.929519153182843,400.0,-14.207145538613497,24.148584349385978
0.29813820123672485,-10.06544734604962,-24.286116651008363,0.0839672276750207,-26.953807788120503,0.004424778761061947,-20.875863420035923,0.000498378377960762,-1.001427337527275,0.36042653024196625,0.0016845703125,1700.0,-20.183076706237205,0.008312635123729706,-0.02316760318353772,0.0,0.7459299875885316,21.794394094295114,0.5880881786346436,-0.9999504685401917,0.0,1500587.0,0.2240734100341797,0.0,1.7903418847708962e-05,0.3141845703125,-2.4671781233770163,9.967783855654652,2700.0,678.0,0.041202061157673595,16,-26.969097009599615,-9.916505163382116,-9.878219558673656,0.0,0.00962962962962963,-0.5622923029757658,0.0,-15.818265611999669,425.0,-14.155917778177749,24.24035894019199
0.3003105320036411,-10.082064751135078,-26.996745494555434,0.08925167117267847,-26.96173500585824,0.004424778761061947,-26.967275293238416,0.0005033632842241786,-1.001409563422203,0.36582549214363097,0.002001953125,1800.0,-20.959202619037256,0.008312635123729706,-0.020026916544884442,0.0,0.8278632508800123,13.099779879537142,0.604644575715065,-0.9999504521489143,0.0,1591451.0,0.2240734100341797,0.0,1.7907353662849345e-05,0.297802734375,-2.478617772634607,9.856077124772632,2700.0,678.0,0.04091560365632176,17,-26.96766057208486,-9.854242910012426,-9.842940193418624,0.0,0.004814814814814815,-0.5668882468191441,0.0,-16.671299515992935,450.0,-16.223728711547643,26.998329337516424
0.3019677855074406,-10.181896858829209,-24.554725376259306,0.09362968597561121,-26.899406575587683,0.01171303074670571,-24.43916209370553,0.00042484307050472125,-1.001689425110817,0.3712139390408993,0.0015869140625,1900.0,-22.900228862676034,0.008312635123729706,-0.020947383437305688,0.0,0.9002730645006111,18.99919186465012,0.6224309340119362,-0.9999524250626564,0.0,1681618.0,0.2240734100341797,0.0,1.7319148628303083e-05,0.2909423828125,-2.4867443780713074,10.088355990754625,2700.0,683.0,0.0405540531501174,18,-26.89795936923446,-10.03422096807068,-10.01144878443443,0.0,0.015925925925925927,-0.5649661359526362,0.0,-15.192615829980593,475.0,-14.54814433259286,24.69150659618767
0.3036968052387238,-10.20457708769721,-24.45017263636309,0.09769946057349443,-26.90181044453481,0.0,-21.772080508351426,0.0004695269657531753,-1.0015301674604415,0.37315711230039594,0.001904296875,2000.0,-22.581209122579928,0.008312635123729706,-0.021651604445651174,0.0,0.7267890422878592,10.57902309872364,0.6414936289191246,-0.9999539792537689,0.0,1771713.0,0.2240734100341797,0.0,1.6857370610523503e-05,0.319091796875,-2.4584147663252223,10.110968608724278,2700.0,675.0,0.04037334779277444,19,-27.0,-10.068530887249219,-10.040243370012453,0.0,0.017037037037037038,-0.5647101779108198,0.0,-14.5603976068353,500.0,-14.417475744558136,24.40503466473647
0.3049233675003052,-10.181160517557775,-24.503417036561295,0.10238565485924482,-27.0,0.0,-21.480228746514783,0.00041381923656444994,-1.001728704571724,0.3736809968948364,0.00185546875,2100.0,-21.320935717625723,0.008312635123729706,-0.022475123638287187,0.0,0.6459180961625901,10.85220173566548,0.660114187002182,-0.999956738948822,0.0,1862838.0,0.2240734100341797,0.0,1.604623978437303e-05,0.3460205078125,-2.5212512714737385,10.084846657277003,2700.0,675.0,0.040577421244233844,20,-27.0,-10.053301709905025,-10.030266238837802,0.0,0.0,-0.5655531476637407,0.0,-14.246173191514714,525.0,-14.312418418258536,24.51836623487123
0.30693734213709833,-10.22968409302217,-24.294080594786827,0.10733307506889105,-26.9897459733664,0.0029542097488921715,-21.01682231621538,0.0003980996611062437,-1.0017847537994384,0.3749395482242107,0.0019775390625,2200.0,-21.382460611343713,0.008312635123729706,-0.023293750267475842,0.0,0.847900901755029,8.62363255147846,0.6793434351682663,-0.9999625697731972,0.0,1953775.0,0.2240734100341797,0.0,1.431581354154332e-05,0.337939453125,-2.4937628353971375,10.074650117014226,2700.0,677.0,0.039989877678453925,21,-26.985654813773476,-10.059862318501322,-10.032638038516044,0.0,0.002962962962962963,-0.5631925477257027,0.0,-13.982359659795211,550.0,-14.146601090131043,24.6470017385188
0.3087127566337585,-10.193955863527547,-24.29369871400167,0.10963076613843441,-26.94335804716035,0.004424778761061947,-20.70539720050697,0.0004156903705734294,-1.0017220377922058,0.37522119507193563,0.0018798828125,2300.0,-20.767505735873353,0.008312635123729706,-0.02402808954939246,0.0,0.7331612369084585,8.341941064730566,0.6921402797102928,-0.9999568358063697,0.0,2044492.0,0.2240734100341797,0.0,1.6013500112421752e-05,0.316259765625,-2.418582367163617,10.05781182944836,2700.0,678.0,0.0397768079303205,22,-26.930692206305885,-10.04263734308492,-10.021978158733663,0.0,0.006666666666666667,-0.5647841323512693,0.0,-14.005362772730958,575.0,-14.163124914394064,24.416474197241183
0.30998462736606597,-10.258503915051719,-23.27567444564371,0.1106904311105609,-26.972271778448803,0.0,-19.901367787087587,0.00044138487210148013,-1.001630488038063,0.37657655999064443,0.0022216796875,2400.0,-20.9139907573382,0.008312635123729706,-0.024166527576744555,0.0,0.7421273573974843,5.545886960861404,0.705453471839428,-0.9999730363488197,0.0,2135567.0,0.2240734100341797,0.0,1.1220339297324245e-05,0.3810546875,-2.5203661139330507,10.127884286081828,2700.0,675.0,0.03949587559327483,23,-26.999977764059388,-10.105100761470766,-10.09522117966252,0.0,0.0011111111111111111,-0.5689629825144948,0.0,-13.24503940058338,600.0,-13.376966120931064,24.051161764414964
0.3113429419696331,-10.184103794378615,-26.654504160993234,0.1124177223071456,-26.99975352610815,0.0,-24.451591829151315,0.00038740254240110517,-1.0018228769302369,0.37734796926379205,0.001513671875,2500.0,-22.694214903493407,0.008312635123729706,-0.02378671090118587,0.0,0.7309429290233285,8.785110541915449,0.7166292607784271,-0.9999554112553597,0.0,2226692.0,0.2240734100341797,0.0,1.6439094997622307e-05,0.3513671875,-2.490018705865077,10.004490262319269,2700.0,675.0,0.038979547936469315,24,-26.999685416021883,-9.990918701928186,-9.98164132992451,0.0,0.0,-0.5651682947023801,0.0,-16.38271123910961,625.0,-15.935675782844914,25.921886366047126
0.312494707852602,-9.987396987919352,-23.67282765303638,0.10998600050806999,-26.99967594775098,0.0,-20.17469860289928,0.0003740493935765699,-1.0018704622983932,0.37752691060304644,0.001416015625,2600.0,-23.64598235778319,0.008312635123729706,-0.024284799955785273,0.0,0.6294262812558735,6.974870469503413,0.7254848703742027,-0.9999596044421196,0.0,2317817.0,0.2240734100341797,0.0,1.5193294427717773e-05,0.3571533203125,-2.532547694306049,9.790083684416976,2700.0,675.0,0.03849893184378743,25,-26.998585704248562,-9.761321055368139,-9.743929915464058,0.0,0.0,-0.5621297953708563,0.0,-13.490277695401304,650.0,-13.616908404812056,24.377535500091096
0.31359151005744934,-10.083710182484829,-24.356815656505802,0.11048518233001232,-26.994199933304678,0.0,-19.56732347179159,0.0003669209239888005,-1.0018958687782287,0.37753456830978394,0.0017333984375,2700.0,-21.353144304733604,0.008312635123729706,-0.024363881256431342,0.0,0.7616838757140406,6.408496717619667,0.7322485372424126,-0.9999679863452912,0.0,2408900.0,0.2240734100341797,0.0,1.2714410684111498e-05,0.3750244140625,-2.440580168022643,9.881758630549111,2700.0,675.0,0.037881067115813495,26,-26.998330780009372,-9.870503362654746,-9.860824310704885,0.0,0.0007407407407407407,-0.5654827174876118,0.0,-13.992136898986507,675.0,-14.130813265000176,24.477900003837142
0.31462177708745004,-10.108490431539352,-26.97024425014349,0.11097952127456664,-26.99887943305772,0.0,-26.737005917883707,0.0003623456330387853,-1.0019121676683427,0.3775356709957123,0.001708984375,2800.0,-20.62185816132967,0.008312635123729706,-0.0243669040966779,0.0,0.5858549687490371,12.610480789855842,0.7397395119071006,-0.9999579086899757,0.0,2500025.0,0.2240734100341797,0.0,1.570081200270579e-05,0.3150146484375,-2.4685261398528384,9.934223912020878,2700.0,675.0,0.03792643323540688,27,-26.999977123316082,-9.905494910601382,-9.895288771541052,0.0,0.0,-0.5648942597334099,0.0,-16.15347363450024,700.0,-15.902213424453214,26.91862308865177
0.3155537165701389,-10.173710804879189,-23.804117799179075,0.10776957254856825,-26.88542987703316,0.0,-20.50705557733887,0.000346224525856087,-1.0019696325063705,0.3775357984006405,0.0013671875,2900.0,-23.056517109142952,0.008312635123729706,-0.024365688767284156,0.0,0.5823830662705369,6.507229484829212,0.7404627129435539,-0.9999680206179619,0.0,2590626.0,0.2240734100341797,0.0,1.2702935180186614e-05,0.3341796875,-2.422800757591176,10.020225032870071,2700.0,675.0,0.0371151277795434,28,-26.999999683718453,-9.994064702157385,-9.991000179732328,0.0,0.008148148148148147,-0.5644756472767767,0.0,-13.334291892308425,725.0,-13.46523841217921,24.424292606809793
0.31681641936302185,-10.273899432639558,-23.73223773170249,0.10758928880095482,-26.996935175874018,0.0,-20.106817854358066,0.00037177174672251565,-1.0018785834312438,0.37753922045230864,0.00185546875,3000.0,-20.42026715629097,0.008312635123729706,-0.024372116243466736,0.0,0.6132323857247691,5.170710898340168,0.7419969201087951,-0.99997019469738,0.0,2681747.0,0.2240734100341797,0.0,1.206004384357584e-05,0.385986328125,-2.4187862959348423,10.17796056664374,2700.0,675.0,0.036623725388199094,29,-26.999967283601695,-10.137354396960665,-10.121466166529814,0.0,0.00037037037037037035,-0.5674058772394346,0.0,-13.404843708641863,750.0,-13.539719574368423,24.377053365269557
0.31717030629515647,-10.078625275334566,-24.300034545137553,0.10650692339986563,-26.99897843918727,0.0,-20.397772853667536,0.0003247079439461231,-1.002046322822571,0.37759608030319214,0.0017333984375,3100.0,-20.42721378049682,0.008312635123729706,-0.025142472237348557,0.0,0.6252124054744601,5.4542816526287465,0.7447147458791733,-0.9999563619494438,0.0,2772872.0,0.2240734100341797,0.0,1.6156963044977602e-05,0.30322265625,-2.4625904387237822,9.875850494839913,2700.0,675.0,0.0360637073405087,30,-26.999976866483756,-9.862504255414901,-9.84281773764026,0.0,0.0,-0.5676221459350927,0.0,-13.888068112313007,775.0,-14.050449264118914,24.407903256162562
0.31806444451212884,-10.125059187608242,-24.353959859630926,0.10440312065184117,-26.994974893592527,0.0,-20.59727402404309,0.0003398177512281109,-1.0019924730062484,0.37759608030319214,0.0013671875,3200.0,-20.385570980279503,0.008312635123729706,-0.025142472237348557,0.0,0.5369111557514961,6.556586549328918,0.7466191783547401,-0.9999695762991905,0.0,2863852.0,0.2240734100341797,0.0,1.2239968839367066e-05,0.3517333984375,-2.4692603254512506,9.919037632807424,2700.0,675.0,0.03580364091321826,31,-26.99990052026806,-9.897117422489305,-9.88801454781527,0.0,0.0025925925925925925,-0.5640548953331745,0.0,-13.777190395781883,800.0,-13.933173619710852,24.394122395319403
0.3190696582198143,-10.29178637419233,-24.3525830436549,0.10461561977863312,-26.996390117177132,0.0,-20.547951544088942,0.00031694307253928857,-1.0020740181207657,0.37759608030319214,0.001416015625,3300.0,-20.315378664391357,0.008312635123729706,-0.025142474099993706,0.0,0.6813550100558862,8.9569308446204,0.7484343394637107,-0.9999655246734619,0.0,2954901.0,0.2240734100341797,0.0,1.3439732958886452e-05,0.3439208984375,-2.446685491576136,10.200400685791745,2700.0,675.0,0.03570554964244366,32,-26.99930762931634,-10.169704094355131,-10.145923943405828,0.0,0.0011111111111111111,-0.5648229256647028,0.0,-13.91132772138007,825.0,-14.100636350046154,24.37540904790388
0.319581263512373,-10.248876195572064,-24.399904707607607,0.10337241999804973,-26.996451395024668,0.0,-20.45185379690326,0.0002874590158171486,-1.0021790862083435,0.37759608030319214,0.0011962890625,3400.0,-20.44459652605633,0.008312635123729706,-0.025142479687929153,0.0,0.685764376897288,5.256840108125101,0.7490267232060432,-0.9999815613031388,0.0,3045948.0,0.2240734100341797,0.0,8.687186380029743e-06,0.3891357421875,-2.4091934535616017,10.088687122102423,2700.0,675.0,0.03519537085667253,33,-26.99871908893726,-10.067208405806356,-10.046935664399403,0.0,0.0011111111111111111,-0.5620986652738793,0.0,-13.978107873962614,850.0,-14.163811767670007,24.436697732839963
0.32010782808065413,-10.016888155076852,-23.865823661874554,0.10267625283449888,-26.985092778638595,0.0029542097488921715,-20.490871857408465,0.0003163473629683722,-1.0020761281251906,0.37759608030319214,0.0017333984375,3500.0,-20.48830185373947,0.008312635123729706,-0.025142479687929153,0.0,0.6376547230023212,6.598704015486672,0.7520669505000115,-0.9999666467308999,0.0,3136742.0,0.2240734100341797,0.0,1.311032492594677e-05,0.374658203125,-2.5138124874141794,9.832094367582679,2700.0,677.0,0.03474267451092601,34,-26.99503562965408,-9.81321688928514,-9.802086924106666,0.0,0.005185185185185185,-0.5595497662507114,0.0,-13.587918055968236,875.0,-13.75817787484542,24.424484746100404
0.3205203726887703,-10.120793635902464,-23.338611398424156,0.10245145205408335,-26.99453908115594,0.0029542097488921715,-19.701582080663357,0.00030382881923287643,-1.0021207511425019,0.37759634852409363,0.0010009765625,3600.0,-20.475671862635046,0.008312635123729706,-0.02514183856546879,0.0,0.5560673951331644,8.735308266171817,0.75384271889925,-0.9999749258160591,0.0,3227795.0,0.2240734100341797,0.0,1.0656667143393861e-05,0.3855712890625,-2.4397391690123187,9.963476141191702,2700.0,677.0,0.03491935720667243,35,-26.991368087732994,-9.933040869671734,-9.927493148129377,0.0,0.0011111111111111111,-0.5644407531723118,0.0,-13.360298767047016,900.0,-13.528222300796392,24.207871627376086
0.3219880394637585,-10.277560532545646,-24.06759639380486,0.10215058252215385,-26.967576859111354,0.01171303074670571,-21.232486419138517,0.0002990106935612857,-1.002137929201126,0.377597039192915,0.001123046875,3700.0,-20.328548403868016,0.008312635123729706,-0.02513804375194013,0.0,0.7357949420572136,5.284792526206944,0.7603591457009315,-0.99997069388628,0.0,3318127.0,0.2240734100341797,0.0,1.1913535536223207e-05,0.3739013671875,-2.4270359437203295,10.08837731148769,2700.0,683.0,0.03384881438687444,36,-26.946858403457203,-10.069259239067042,-10.051228722124492,0.0,0.012222222222222223,-0.5644946239444835,0.0,-13.76454061033157,925.0,-13.949021946413911,24.390306640464495
0.32370374277234076,-10.218394935367572,-23.921193106290552,0.10257926769554615,-26.976546469242876,0.0,-20.792626579689067,0.0003360804315889254,-1.0020057886838913,0.37754007503390313,0.001416015625,3800.0,-20.67583549952324,0.008312635123729706,-0.02805223558098078,0.0,0.6479970594836619,5.408042895731353,0.7636804729700089,-0.9999752953648567,0.0,3408792.0,0.2240734100341797,0.0,1.0549414173510741e-05,0.383837890625,-2.4680917790243257,10.012709370119065,2700.0,675.0,0.03380290996283293,37,-26.999942607086208,-10.007397494347606,-9.993603586760946,0.0,0.007407407407407408,-0.5650450917961279,0.0,-13.536537338295332,950.0,-13.722567005066622,24.255713723076987
0.32453272938728334,-10.23074314757725,-24.229892500121018,0.10417958293110133,-26.98899241742864,0.0,-19.43254435456179,0.00032290097115037495,-1.0020527601242066,0.37978578358888626,0.001171875,3900.0,-20.46516134984998,0.008312635123729706,-0.028979768231511115,0.0,0.7123562752919802,5.27284447406372,0.7682942152023315,-0.9999699622392655,0.0,3499670.0,0.2240734100341797,0.0,1.2125655280215141e-05,0.37470703125,-2.4465886298341504,10.081766454013472,2700.0,675.0,0.03345300620421767,38,-26.99999968165744,-10.0456840980825,-10.03597648870221,0.0,0.003703703703703704,-0.5649888297324651,0.0,-14.016451723096926,975.0,-14.197858791272825,24.24656483129791
0.32654345855116845,-10.277149927988578,-24.353514402992516,0.10717135407030583,-26.99574084620803,0.0014792899408284023,-20.1561362927036,0.0003224869695259258,-1.0020542442798615,0.3826103091239929,0.0011474609375,4000.0,-20.690100719787882,0.008312635123729706,-0.030369244795292617,0.0,0.6779212936907912,6.250180628238329,0.7729523435235024,-0.9999708384275436,0.0,3590698.0,0.2240734100341797,0.0,1.1868476394738537e-05,0.3725830078125,-2.4437142436105206,10.108682004512023,2700.0,676.0,0.03311255788430571,39,-26.99586278733117,-10.076195540621066,-10.061598815925526,0.0,0.0014814814814814814,-0.5644214198113332,0.0,-14.16834547670474,1000.0,-14.338524131876502,24.378750124342552
0.32787259444594385,-10.324309757818167,-24.35261897482282,0.10743311494588852,-26.991964378935233,0.0029542097488921715,-20.510887057300067,0.00031889001038507556,-1.0020670592784882,0.3837915524840355,0.0009765625,4100.0,-20.528328234341014,0.008312635123729706,-0.031725461967289446,0.0,0.7587748695513056,4.002877592681538,0.774983486533165,-0.9999737188220024,0.0,3681727.0,0.2240734100341797,0.0,1.1010912339770585e-05,0.3899169921875,-2.451133220342308,10.187481055543689,2700.0,677.0,0.032822356279939416,40,-26.992617540229144,-10.161173103326984,-10.15322849005523,0.0,0.0014814814814814814,-0.565868676858372,0.0,-13.996101082036102,1025.0,-14.173963355318147,24.361677464993953
0.33013268783688543,-10.351210834090878,-24.392389858722574,0.10787418056279421,-26.975943420632998,0.004424778761061947,-20.385973117331186,0.0003460822728811763,-1.0019701302051545,0.3860030859708786,0.0010498046875,4200.0,-20.4673324332034,0.008312635123729706,-0.03285086331889033,0.0,0.6169429574856162,5.609407614805634,0.7785667687654495,-0.9999727636575699,0.0,3772626.0,0.2240734100341797,0.0,1.1297696755718788e-05,0.386962890625,-2.5018108944695996,10.226507891350943,2700.0,678.0,0.03255676068365574,41,-26.990976590798567,-10.191516201160741,-10.170264977680437,0.0,0.003703703703703704,-0.565795192627047,0.0,-14.100871064096754,1050.0,-14.26966323000681,24.3584032328098
0.33177963420748713,-10.142879540457653,-24.375424993651087,0.10707160215824843,-26.915318252924106,0.0029542097488921715,-20.502949740923466,0.0003416208761336748,-1.0019860506057738,0.38787246197462083,0.0011962890625,4300.0,-20.46279191837735,0.008312635123729706,-0.03268133383244276,0.0,0.5827939145542317,5.460111931810663,0.7807085514068604,-0.9999789074063301,0.0,3862968.0,0.2240734100341797,0.0,9.476948423525756e-06,0.38623046875,-2.4628317163595055,9.995538576904153,2700.0,677.0,0.03247082009911537,42,-26.95720513548938,-9.95905135136247,-9.96005982528219,0.0,0.012592592592592593,-0.5648995124498469,0.0,-14.036284513781672,1075.0,-14.19919559869766,24.358200207766433
0.33369415402412417,-10.13463005346619,-24.17758066920843,0.10420249588787556,-26.842487348810824,0.025974025974025976,-20.909857277509005,0.0003423906411626376,-1.001983305811882,0.3901792362332344,0.001171875,4400.0,-20.494815013474046,0.008312635123729706,-0.03366908878087997,0.0,0.5682959732181084,8.812658730329284,0.7860380411148071,-0.9999654695391655,0.0,3952015.0,0.2240734100341797,0.0,1.3457390139137715e-05,0.3751220703125,-2.5249220958579826,9.938968383464395,2700.0,693.0,0.03226074893027544,43,-26.94728405139554,-9.917205366838568,-9.91066890767937,0.0,0.03185185185185185,-0.5630101667578856,0.0,-13.727207251076726,1100.0,-13.929954398366945,24.265854267698813
0.33531571477651595,-10.23070493345919,-24.064521527321766,0.10512868091464042,-26.95101484648965,0.0,-19.936622103029002,0.0003537231750669889,-1.0019429117441176,0.3928396314382553,0.0011962890625,4500.0,-20.60315764289543,0.008312635123729706,-0.032522601541131735,0.0,0.8369075569950126,7.731501562647047,0.7894044578075409,-0.9999758690595627,0.0,4042686.0,0.2240734100341797,0.0,1.0379881211974862e-05,0.3852294921875,-2.517075082152587,10.075692718211934,2700.0,675.0,0.0318668719381094,44,-26.99995968692101,-10.051326918344115,-10.03221458468008,0.0,0.008148148148148147,-0.5636353226691426,0.0,-13.850635569287945,1125.0,-13.99748905472315,23.864628000540044
0.3365256771445274,-10.137087759217097,-24.151421610187413,0.10475564077496528,-26.967967214794733,0.0,-20.10978283343382,0.0003294323141744826,-1.0020294725894927,0.39455191493034364,0.0010009765625,4600.0,-20.484977541586876,0.008312635123729706,-0.032321611884981394,0.0,0.46369176507060716,3.745158301282035,0.7961635679006577,-0.999984210729599,0.0,4132245.0,0.2240734100341797,0.0,7.910122997145664e-06,0.389501953125,-2.540735642294385,9.984775542198767,2700.0,675.0,0.031941380072385075,45,-26.999999278045536,-9.961413124002148,-9.952567641554639,0.0,0.02259259259259259,-0.5613852098009374,0.0,-13.820956443340966,1150.0,-13.988507899148356,24.087587283440648
0.3379358947277069,-10.139708082697164,-24.182129993851124,0.10458693746477365,-26.99682979132599,0.0,-19.991141636378273,0.000344192553893663,-1.0019768685102464,0.39844836443662646,0.001123046875,4700.0,-20.678957639075712,0.008312635123729706,-0.03216641824692488,0.0,0.6471687000955272,6.02872425489587,0.7979765936732293,-0.9999725475907326,0.0,4223360.0,0.2240734100341797,0.0,1.1360685391537118e-05,0.3747802734375,-2.4812681452673133,10.004349663325598,2700.0,675.0,0.03143105236813426,46,-26.99999122540008,-9.967108775319426,-9.956631350913597,0.0,0.00037037037037037035,-0.560704807302318,0.0,-13.802670613367846,1175.0,-13.98830393969862,24.177855717138353
0.33943523094058037,-10.04101677966203,-24.27781508884102,0.10309855975210666,-26.99111404466459,0.0,-20.35161065959414,0.00031761322534293865,-1.0020716100931168,0.40244207382202146,0.0011962890625,4800.0,-20.375935359215834,0.008312635123729706,-0.03181645208969712,0.0,0.7751422912141983,4.112417983206295,0.8027166292071343,-0.9999775603413582,0.0,4314180.0,0.2240734100341797,0.0,9.876263470687264e-06,0.3841064453125,-2.4807608238232204,9.859783644166228,2700.0,675.0,0.03123086062259972,47,-26.99999455781712,-9.841629804664175,-9.835073767914409,0.0,0.004814814814814815,-0.5623723199991219,0.0,-14.133214340270456,1200.0,-14.309567298192974,24.260737629861637
0.340498410910368,-10.056050246691004,-24.36955741003714,0.1023285573348403,-26.990892322897352,0.0029542097488921715,-20.413253894337018,0.0003518088917189743,-1.0019497275352478,0.4045510195195675,0.0013427734375,4900.0,-20.41154617127354,0.008312635123729706,-0.03137819524854422,0.0,0.9078038971170599,5.731694217433477,0.8046224862337112,-0.9999592244625092,0.0,4405151.0,0.2240734100341797,0.0,1.5308580475448253e-05,0.3219970703125,-2.410857305471654,9.868982221038786,2700.0,677.0,0.03099448112770915,48,-26.99151540796424,-9.861547644675204,-9.845980987855423,0.0,0.0025925925925925925,-0.5614888289212103,0.0,-13.925815400229897,1225.0,-14.096473707842296,24.367698601342443
0.3417457818984985,-10.024711345380307,-24.36694289116254,0.10189019311219454,-26.99942345430156,0.0,-20.176042669509357,0.00032990922991302794,-1.0020277947187424,0.4065993010997772,0.0015380859375,5000.0,-20.45943482647569,0.008312635123729706,-0.03156819259747863,0.0,0.5255559857704836,4.070120822002152,0.8061748877167701,-0.9999673619866372,0.0,4496276.0,0.2240734100341797,0.0,1.2898009447326331e-05,0.343798828125,-2.4700565062852546,9.872971846214863,2700.0,675.0,0.03036186983808875,49,-26.999986018474416,-9.835694349310938,-9.838108111350486,0.0,0.0,-0.5621134218963562,0.0,-13.941735310497416,1250.0,-14.111431305990175,24.141694518453686
0.3437954470515251,-10.246022190966837,-24.423998687589847,0.102561616897583,-26.99853943426285,0.0,-19.856821644629843,0.0003382421607966535,-1.0019980907440185,0.4095221385359764,0.0013916015625,5100.0,-20.327048642078076,0.008312635123729706,-0.03230568515136838,0.0,0.6740383500385103,5.7474415095516305,0.8099466845393181,-0.9999854624271393,0.0,4587358.0,0.2240734100341797,0.0,7.536083353443246e-06,0.3957275390625,-2.488030038461511,10.064833781236086,2700.0,675.0,0.030291709024459122,50,-27.0,-10.051646998774967,-10.039103493872044,0.0,0.0007407407407407407,-0.5666223418927985,0.0,-13.92243085057333,1275.0,-14.098448014339075,24.322652559045764
0.3453972592949867,-10.427692384078279,-24.421199336575313,0.10159145444631576,-26.99914735167782,0.0,-20.348859916643832,0.0003282583391410299,-1.0020336717367173,0.4136785216629505,0.0011474609375,5200.0,-20.35576409441554,0.008312635123729706,-0.03334291512146592,0.0,0.7055164893972444,4.3965153756139035,0.8111116766929627,-0.9999803900718689,0.0,4678465.0,0.2240734100341797,0.0,9.035182745265048e-06,0.392919921875,-2.4170123230702303,10.34370144515844,2700.0,675.0,0.03011947642080486,51,-27.0,-10.297524371590148,-10.266251373905934,0.0,0.00037037037037037035,-0.5655956859998696,0.0,-14.043839153427035,1300.0,-14.231638604034597,24.413877451658045
0.3463184371590614,-10.279169704372181,-24.404579401861163,0.10042423214763403,-26.999999987149568,0.0,-20.411462624602088,0.00032877935082069597,-1.0020318180322647,0.4163370683789253,0.0011474609375,5300.0,-20.410202538287074,0.008312635123729706,-0.03431521942839026,0.0,0.7507906785106649,5.845575643702745,0.8125254079699517,-0.9999826118350029,0.0,4769590.0,0.2240734100341797,0.0,8.382180226362834e-06,0.391650390625,-2.4651869082190387,10.159845920268669,2700.0,675.0,0.0297501552850008,52,-27.0,-10.12059715902387,-10.095615752623322,0.0,0.0,-0.5625933073635678,0.0,-13.996665574611239,1325.0,-14.193095038548734,24.38831865367498
0.34755769148468973,-10.209823695495277,-24.44549841338524,0.0983221223577857,-26.999999999999957,0.0,-20.46924055122328,0.0003154135494696675,-1.0020794510841369,0.4183535560965538,0.0009521484375,5400.0,-20.47822319478189,0.008312635123729706,-0.03465366661548615,0.0,0.5214131812107936,3.9982167095444465,0.8119666576385498,-0.9999880939722061,0.0,4860715.0,0.2240734100341797,0.0,6.754596142855007e-06,0.3986572265625,-2.4754710338362202,10.053039324321663,2700.0,675.0,0.02914216835051775,53,-27.0,-10.046279127264768,-10.036047959705705,0.0,0.0,-0.5648468784354919,0.0,-14.129326676923233,1350.0,-14.298096040915416,24.43811132760397
0.3483131527900696,-10.260949366378345,-24.453966376837464,0.09866339601576328,-26.993972826483073,0.0,-20.49936214943935,0.0003668416502478067,-1.0018961668014525,0.41896571069955824,0.0016357421875,5500.0,-20.481760246322125,0.008312635123729706,-0.03505752207711339,0.0,0.7711274825745464,3.109586728900454,0.815920141339302,-0.9999765783548356,0.0,4951693.0,0.2240734100341797,0.0,1.0166533706978953e-05,0.390869140625,-2.455942789179244,10.102086383898506,2700.0,675.0,0.028630613582208753,54,-27.0,-10.092571915773291,-10.074791543834404,0.0,0.0022222222222222222,-0.5673342331563618,0.0,-14.25558866031401,1375.0,-14.42767232352021,24.45206193428958
0.34895257353782655,-10.254213100043433,-24.429399590828723,0.0972188800573349,-26.995446960363637,0.0,-20.559424319933488,0.0003086028904363047,-1.0021037310361862,0.4200784705579281,0.0013671875,5600.0,-20.552538455543495,0.008312635123729706,-0.03526097051799297,0.0,0.6579991615282506,3.6672162951483984,0.8180242851376534,-0.999981914460659,0.0,5042792.0,0.2240734100341797,0.0,8.587871013787662e-06,0.3970703125,-2.4577708059088765,10.134889047693466,2700.0,675.0,0.02855031844228506,55,-27.0,-10.096131494065025,-10.095057129203706,0.0,0.00037037037037037035,-0.5662735538429843,0.0,-14.153211919464113,1400.0,-14.335336256461968,24.42491957877302
0.3495194599032402,-10.021300681171446,-24.382030469312816,0.09594522304832935,-26.96895448231108,0.01171303074670571,-20.133115571785556,0.00031487425512750634,-1.0020813733339309,0.4201077498495579,0.001318359375,5700.0,-20.432539673388153,0.008312635123729706,-0.03629657365381718,0.0,0.6311206140737272,4.767278972407432,0.8196266770362854,-0.9999880820512772,0.0,5132975.0,0.2240734100341797,0.0,6.759593651395334e-06,0.3910888671875,-2.5106643862862255,9.869069513424284,2700.0,683.0,0.027560351835563778,56,-26.980094603490702,-9.85370098499109,-9.842498798169796,0.0,0.013703703703703704,-0.5600861320919648,0.0,-14.054243883661565,1425.0,-14.213912304509062,24.34953109093562
0.34994171410799024,-10.009956247371084,-24.391483027184144,0.09775807224214077,-26.942023474732647,0.0,-20.42410801801581,0.00033128491195384414,-1.0020228892564773,0.42215741202235224,0.0010498046875,5800.0,-20.134363401854383,0.008312635123729706,-0.036677506659179925,0.0,0.5802836308521339,3.684405887962292,0.8190315261483192,-0.9999798655509948,0.0,5222803.0,0.2240734100341797,0.0,9.196813277867476e-06,0.384912109375,-2.4735525949479777,9.859943246444999,2700.0,675.0,0.02730097118765116,57,-27.0,-9.835287133966792,-9.837212141898513,0.0,0.01925925925925926,-0.5624644462553988,0.0,-13.946496359305527,1450.0,-14.11831983524417,24.36375748506899
0.3506645724177361,-10.12573022753159,-24.33039124922834,0.09698487762361765,-26.893042071163354,0.0,-20.37618439860715,0.00034042484185192734,-1.0019903004169464,0.42411899343132975,0.0009521484375,5900.0,-20.324427645180307,0.008312635123729706,-0.03760630125179887,0.0,0.5127811294481264,4.84695446700233,0.8222733750939369,-0.9999760612845421,0.0,5313580.0,0.2240734100341797,0.0,1.0320746525849245e-05,0.3842041015625,-2.476126239362202,9.974197164156749,2700.0,675.0,0.026985824946314095,58,-26.999999995099856,-9.966542497261688,-9.964500635841755,0.0,0.005555555555555556,-0.5653931850913068,0.0,-13.990394824201825,1475.0,-14.163903112349749,24.323761286168754
0.3525755047798157,-10.311201824591425,-24.322219689485127,0.09504606984555722,-26.976696257379324,0.0,-20.58098342656693,0.00032639909186400474,-1.0020402997732163,0.4268465988337994,0.0012939453125,6000.0,-20.45566907386569,0.008312635123729706,-0.03718984378501773,0.0,0.7264831792237295,4.76302728871078,0.823953264951706,-0.9999708354473114,0.0,5404607.0,0.2240734100341797,0.0,1.1865781141295884e-05,0.3677001953125,-2.492380191577831,10.156780013237977,2700.0,675.0,0.026528595387935637,59,-26.997261189477033,-10.146420982035872,-10.130344503472951,0.0,0.001851851851851852,-0.5656299181464419,0.0,-14.142807860081735,1500.0,-14.335048339364652,24.315174439620804
0.3533946469426155,-10.34401764392372,-24.34950664062243,0.09587264582514762,-26.92944240974832,0.0,-20.38379929097819,0.0003106723823293578,-1.0020963579416275,0.42798553332686423,0.001123046875,6100.0,-20.493301451598853,0.008312635123729706,-0.03744871076196432,0.0,0.6912124654447354,4.592053165127995,0.8282926067709923,-0.9999794229865074,0.0,5495402.0,0.2240734100341797,0.0,9.32452551296592e-06,0.39208984375,-2.5245475255498606,10.211137675678062,2700.0,675.0,0.025703154550865293,60,-26.991322609428856,-10.18406811884734,-10.165690895003642,0.0,0.005925925925925926,-0.5653390941999532,0.0,-14.073772749010876,1525.0,-14.249529721043581,24.335233808209118
0.355048206448555,-10.348502091187575,-24.365081594357104,0.09614882655441762,-26.99094041173667,0.0,-20.460723934571007,0.00033953108722926115,-1.0019934952259064,0.4293064005672932,0.001318359375,6200.0,-20.44702134043303,0.008312635123729706,-0.03714981535449624,0.0,0.6517088766065469,4.028895036938306,0.8365339562296867,-0.9999836325645447,0.0,5586514.0,0.2240734100341797,0.0,8.076062488271419e-06,0.396240234375,-2.4102090678064996,10.215410851229402,2700.0,675.0,0.025655894307419658,61,-27.0,-10.187198577605589,-10.179321495939197,0.0,0.00037037037037037035,-0.5669331656579744,0.0,-14.039655232695633,1550.0,-14.211736313602284,24.358048906762598
0.3562166288495064,-10.323158801542919,-24.42540097918725,0.09715351928025484,-26.99999999999999,0.0,-20.65406606320644,0.0003294340051070321,-1.0020294964313508,0.4298517979681492,0.001171875,6300.0,-20.531047730548458,0.008312635123729706,-0.037387095112353566,0.0,0.590931815218437,3.7246720874929737,0.8438613042235374,-0.9999748125672341,0.0,5677639.0,0.2240734100341797,0.0,1.068983494292297e-05,0.383154296875,-2.4385078586998135,10.198532536281718,2700.0,675.0,0.025404559867456555,62,-27.0,-10.15638251514098,-10.147941670493266,0.0,0.0,-0.5664915063938679,0.0,-14.240656928268624,1575.0,-14.414177290449846,24.428308363287947
0.3577504031360149,-10.355245416684042,-24.414934231288946,0.09641604032367468,-26.999999784326157,0.0,-20.597988497473725,0.00033844458957901227,-1.0019973754882812,0.42977665066719056,0.0012939453125,6400.0,-20.600764526013073,0.008312635123729706,-0.03769784485921264,0.0,0.7097377433114535,5.583399785950439,0.8496276140213013,-0.9999851509928703,0.0,5768764.0,0.2240734100341797,0.0,7.628063974607357e-06,0.3956298828125,-2.5159351336817055,10.267150513547353,2700.0,675.0,0.025187249993905425,63,-26.999914923027895,-10.249509979677791,-10.210189454194726,0.0,0.0,-0.5646081041912112,0.0,-14.286296308782903,1600.0,-14.46996562827519,24.404394454272953
0.35827826261520385,-10.321014514039993,-24.440800789057207,0.09575658105313778,-26.99761754628739,0.0,-20.53514687008443,0.00032523589979973624,-1.0020444482564925,0.4298295624554157,0.0012451171875,6500.0,-20.57241377099862,0.008312635123729706,-0.0382222137413919,0.0,0.6221537570679561,3.229295310363777,0.8558748468756676,-0.9999792575836182,0.0,5859889.0,0.2240734100341797,0.0,9.376415687256667e-06,0.398876953125,-2.4909713158132947,10.169171231649461,2700.0,675.0,0.02513577528297901,64,-27.0,-10.150474851424596,-10.15324789535212,0.0,0.0,-0.5688546755322023,0.0,-14.26041438429532,1625.0,-14.429553166961574,24.43280574645572
