ReemS3/reg_curious_hac/data/d4a6886/CausalDependenciesMujocoEnv-o1-v0/alg:chac|eta:0.75|fw:1|fwhidsiz:256,256,256|nlev:2|reg:False|rolbatsiz:1|timsca:27,27|102/progress.csv
train_0/mu_grads_std,train_1/next_q,train_1/n_subgoals,test/episodes,train_0/q_grads_std,train_1/reward_-27.0_frac,train_0/next_q,train_0/q_grads,train_1/mu_grads,train_1/fw_bonus,train_1/avg_q,train/episodes,train_1/reward_-1.0_frac,test_1/avg_q,train_1/q_grads_std,train_1/reward_-0.0_frac,train_1/subgoal_succ_rate,train_0/q_loss,train_1/reward,train_0/current_q,train/success_rate,train_0/fw_loss,train_0/mu_grads,train_1/current_q,train_0/reward_-0.0_frac,train_0/mu_loss,train_1/fw_loss,test_1/subgoal_succ_rate,test/success_rate,train_0/avg_q,train_1/q_grads,train_0/fw_bonus,policy/steps,train_0/target_q,train_0/reward,epoch,train_1/mu_loss,test_0/avg_q,train_1/q_loss,train_1/mu_grads_std,train_1/target_q,test_1/n_subgoals,train_0/reward_-1.0_frac
0.17005958408117294,-14.311208266771782,2660.0,15.0,0.15876646973192693,0.0,-4.605841009559763,0.03162650624290109,0.015475822077132762,-0.9952658787369728,-11.229425715568043,100.0,0.0109375,-4.032715178337013,0.19227388314902782,0.0,0.060526315789473685,0.5320617440225217,-2.595496156994341,-4.8388027778257365,0.02,0.00030606089494540357,-0.013503947760909796,-13.556606457239605,0.0,4.6158724624606755,0.0016764363535912707,0.7853277209861695,0.0,-2.4194429543622267,0.02367886984720826,-0.9989638537168503,79559.0,-4.7714580869787655,-0.648288328668059,0,14.242824589593805,-1.0985210433098107,27.897280299265766,0.18965463116765022,-13.461612625974254,1663.0,0.001611328125
0.21036581620573996,-12.7265109138682,2525.0,30.0,0.17146282829344273,0.0,-3.3583022972579863,0.024870348116382956,0.015015460457652808,-0.9958636879920959,-12.91391655985455,200.0,0.01279296875,-15.53308287998902,0.2599483266472816,0.0,0.10138613861386139,0.571710406455592,-2.563785261176963,-3.5764221060511145,0.19,0.0003739662752195727,-0.031226758426055313,-12.482585884258189,0.0,3.3726041226607464,0.0015233631449518726,0.01937046004842615,0.0,-5.953428280466778,0.01861434322781861,-0.9987307623028755,153715.0,-3.6658008465523793,-0.6824524649866361,1,12.664216963598632,-2.0587311050443695,16.665840266746123,0.24356072284281255,-12.485569182937033,413.0,0.0007568359375
0.2409977838397026,-13.39386198590949,2516.0,45.0,0.18648662380874156,0.0,-3.051139175688954,0.02366808238439262,0.011440288298763335,-0.9957330256700516,-16.52901137066707,300.0,0.0145751953125,-11.553323150954848,0.3013449087738991,0.0,0.07511923688394277,1.2395654668525498,-2.505012357564192,-3.1216572916424377,0.13,0.0003759486171475146,-0.027459408901631833,-12.99333701787998,0.0,2.94816836599974,0.0015568243834422901,0.0078125,0.06666666666666667,-5.24995565002107,0.01301676540169865,-0.9987239584326744,228540.0,-3.326780150444802,-0.699314777363179,2,13.394988039580664,-0.03252671756402111,11.48893043697061,0.2688354030251503,-13.011784952677909,384.0,0.00146484375
0.2614386975765228,-13.275322704287655,2340.0,60.0,0.1939646080136299,0.0,-5.44561032794447,0.02161574992351234,0.00805155977141112,-0.995477420091629,-14.808442591454172,400.0,0.0132568359375,-8.7623442112062,0.3253319889307022,0.0,0.10897435897435898,0.9766320102340529,-2.567332490620538,-5.703051519261908,0.25,0.0003918351234460715,-0.03180779349058867,-13.20105009866542,0.0,5.580827452479993,0.0016222699487116188,0.007352941176470588,0.0,-3.90863808782091,0.0051336161326617,-0.9986694172024727,298301.0,-5.509461016444494,-0.7183624230034183,3,13.158733861351783,-1.5915203140120342,10.806187640994853,0.2938450276851654,-13.177428898890378,408.0,0.0020263671875
0.2802825443446636,-12.879424561663251,2117.0,75.0,0.2079260554164648,0.0,-4.782056998736154,0.0201299506239593,0.005618043150752783,-0.9954560115933418,-14.32048934814037,500.0,0.01328125,-12.501280225837586,0.3445793740451336,0.0,0.14359943316013227,0.39001009188512403,-2.4815422230007242,-5.143276989479482,0.43,0.000399649963947013,-0.045996323134750126,-12.776410976923398,0.0,4.8781747996779945,0.0016277561895549296,0.8137724550898203,0.3333333333333333,-6.672841262318243,0.00201770206913352,-0.9986425921320915,359865.0,-5.105749767756959,-0.7182092317612842,4,12.934555693780794,-1.3204609683291597,10.468826762314086,0.3225977450609207,-12.887869120575107,1670.0,0.0012451171875
0.29564302414655685,-12.9557177310484,2106.0,90.0,0.22958575896918773,0.0,-4.9076519680391755,0.02387653198093176,0.002599095011828467,-0.9952895611524581,-14.921093144832358,600.0,0.0128173828125,-11.836298245905896,0.36029975637793543,0.0,0.24074074074074073,0.4100022005081164,-2.4685916780763364,-5.2747909237703166,0.52,0.00039901107738842255,-0.05203361762687564,-12.786049262466335,0.0,5.052632517405251,0.0016703726083505898,0.07090464547677261,0.3333333333333333,-7.548370105046231,-0.0015067106753122062,-0.9986447796225548,417889.0,-5.203538507005683,-0.7195281394950144,5,13.05587623088204,-1.7288011299314274,10.312461976601918,0.33995175287127494,-12.865810138868094,409.0,0.002392578125
0.3162715554237366,-13.648265066676203,1907.0,105.0,0.24679227285087108,0.0,-4.784658575262869,0.02744590612128377,0.0009682204225100576,-0.9954313889145852,-14.399675358337968,700.0,0.0130615234375,-15.848272353185367,0.37395571991801263,0.0,0.2548505506030414,0.5755658179239754,-2.421770444311915,-5.145855548731091,0.55,0.0004145395716477651,-0.05921857329085469,-13.549853465052138,0.0,4.927285930232522,0.001634057064075023,0.9619831036016007,0.06666666666666667,-9.269660360657628,-0.004295601963531226,-0.9985914781689644,471193.0,-5.0665607123526355,-0.7305743833479937,6,13.742857667688218,-1.009576730387438,7.303060198052559,0.3540854282677174,-13.593616831262853,4498.0,0.000439453125
0.32942472845315934,-13.113917652645153,2149.0,120.0,0.2516395427286625,0.0,-3.976281374736547,0.028191658761352302,-0.0006591465316887479,-0.994668324291706,-15.3423506829043,800.0,0.012548828125,-12.120667946203561,0.3855800710618496,0.0,0.2275476966030712,0.6069507442857235,-2.393747644796895,-4.297430756705848,0.39,0.00037844738981220873,-0.06526543237268925,-13.202716792739707,0.0,4.1230172364783115,0.0018294449080713093,0.02072538860103627,0.06666666666666667,-6.58836496814791,-0.0063034475315362215,-0.9987153634428978,530587.0,-4.288513205061564,-0.7363731796522188,7,13.169003688769982,-4.2599292824809805,7.884830805295768,0.36620382145047187,-13.197710198053196,386.0,0.00234375
0.3424082241952419,-13.102381186206022,2060.0,135.0,0.25886101722717286,0.0,-5.50699154870013,0.028557698475196958,-0.0030573858006391675,-0.9951235845685005,-14.99334742848422,900.0,0.0125732421875,-16.36518584068209,0.40066518560051917,0.0,0.170873786407767,0.7865257228629697,-2.365992810825992,-5.831476477274013,0.46,0.00034529002296039834,-0.07186917513608933,-13.112965907955743,0.0,5.624050488727034,0.0017128721141489224,0.899645390070922,0.06666666666666667,-8.431710354647436,-0.007322277571074664,-0.9988291904330253,589996.0,-5.800898492907274,-0.7461245356334985,8,13.325572039693203,-1.5347205450579984,7.397122298045856,0.3808997988700867,-13.19342695888966,2820.0,0.0016845703125
0.3541269898414612,-12.473532595857773,1946.0,150.0,0.2671713769435883,0.0,-4.665822627645512,0.031013392237946392,-0.005052886588964611,-0.9951321333646774,-17.00019904828113,1000.0,0.012890625,-19.135064685693465,0.4122402749955654,0.0,0.3011305241521069,0.5128196570137724,-2.317050856309288,-5.005463092446273,0.51,0.00032694533583708105,-0.07457805331796408,-12.591629849730857,0.0,4.792453897075378,0.0017106817307649181,0.03571428571428571,0.0,-8.75479494893317,-0.009797876747325063,-0.9988921701908111,642981.0,-5.041658889798827,-0.7468727008923451,9,12.642286905989874,-2.7794615422901248,6.8721279248393525,0.3933943763375282,-12.657783420796592,420.0,0.01171875
0.3645834229886532,-7.049684249741523,2110.0,165.0,0.27352763786911966,0.0,-5.328919303790714,0.03157608127221465,-0.009122075675986708,-0.9952401936054229,-14.396376709233097,1100.0,0.01259765625,-4.360998094353628,0.4186821885406971,0.0,0.15829383886255924,0.9505498620182425,-2.2326845571868033,-5.5933854081043455,0.45,0.00030297352132038215,-0.07961697578430176,-8.0523725495581,0.0,5.475136694550272,0.0016830160340759904,0.0,0.0,-9.776138929541633,-0.014987696753814816,-0.9989744648337364,704358.0,-5.50481128238725,-0.7417296991949115,10,7.145068029339585,-2.4418030792354406,17.275487230694466,0.4008582323789597,-8.271930391514084,405.0,0.02744140625
0.37743974179029466,-11.779461127502753,2160.0,180.0,0.28237292543053627,0.0,-5.628035145074085,0.03107540854252875,-0.006559098511934281,-0.995446401834488,-9.970262485645819,1200.0,0.0134765625,-13.714229504130522,0.4238648608326912,0.0,0.14629629629629629,1.0217732975294063,-2.3004668233443226,-5.897530912975291,0.42,0.0002865334230591543,-0.08155974950641394,-12.000466724158715,0.0,5.800467505660937,0.0016302144154906272,0.0,0.0,-9.201076151336409,-0.012656599259935319,-0.9990308955311775,767318.0,-5.766439320580984,-0.7386859466183523,11,11.96841338378189,-1.4485008112466151,11.558493411835084,0.4086753182113171,-12.065088184021857,405.0,0.0400146484375
0.3888404548168182,-9.960444180462865,2172.0,195.0,0.2907233819365501,0.0,-5.327852138189579,0.0325032414868474,-0.01099934931844473,-0.9959273502230644,-13.746649337464046,1300.0,0.013330078125,-6.092122529819039,0.42930313274264337,0.0,0.20349907918968693,0.6051636532985227,-2.300202541710314,-5.676073530049593,0.39,0.0002574707177700475,-0.08362685721367598,-10.679394959792424,0.0,5.499201192223874,0.0015070644236402585,0.01937046004842615,0.0,-9.788128883553567,-0.01957778581418097,-0.9991306573152542,828138.0,-5.621617547828575,-0.7452843743114499,12,10.016826246832057,-2.5522500964210533,13.748331739647437,0.415033882111311,-10.679294749403082,413.0,0.0292724609375
0.3987702988088131,-12.825740709016525,2056.0,210.0,0.3019416190683842,0.0,-5.9529105597491085,0.03388320170342922,-0.011228210642002523,-0.996331338584423,-12.81735795937655,1400.0,0.013427734375,-18.333252018381216,0.4391939453780651,0.0,0.24319066147859922,0.45920362501516426,-2.304514964259215,-6.319367639801183,0.43,0.00024050305073615165,-0.08794136326760053,-12.783904625039483,0.0,6.117088745469434,0.0014036226988537238,0.7607687210072896,0.0,-13.17979843638487,-0.021711438428610563,-0.9991888985037803,885750.0,-6.272722228242122,-0.7467637797082716,13,12.897778252061556,-1.393059659041537,7.9414884387012465,0.4189863264560699,-12.948466233909347,1509.0,0.03466796875
0.40999119728803635,-12.827484127500815,1935.0,225.0,0.3111912116408348,0.0,-5.129475607963849,0.03420194536447525,-0.012189644644968212,-0.9962642788887024,-17.61821136056458,1500.0,0.0153076171875,-19.8620367782964,0.4499999903142452,0.0,0.24289405684754523,0.5375930705108903,-2.273113918602758,-5.47267664788473,0.57,0.00024196654194383883,-0.09281678255647421,-12.773883286407031,0.0,5.2868347692877204,0.0014207964995875955,0.0,0.0,-14.087672519656905,-0.022542715538293123,-0.9991838902235031,939948.0,-5.439366513947705,-0.7474033926460834,14,12.994114834107393,-1.297355953800021,9.012051762937716,0.4243030473589897,-12.931046071775194,405.0,0.0471435546875
0.4209619462490082,-14.184307753668293,1976.0,240.0,0.31738647967576983,0.0,-4.642436946591555,0.034676180128008126,-0.012372330832295119,-0.9965977981686592,-18.805459162155014,1600.0,0.0146728515625,-17.014810825878605,0.4626179449260235,0.0,0.21002024291497975,0.5420466853361445,-2.2672463738221267,-4.952932401609819,0.51,0.00023234736327140126,-0.09151586294174194,-13.92029783931415,0.0,4.731300070342143,0.0013353959511732683,0.31497418244406195,0.0,-13.402357714819228,-0.023055755300447345,-0.9992169082164765,996234.0,-4.998585779007643,-0.7486018335112021,15,14.364342800704467,-1.0935737246715174,5.0168239103479095,0.42912323772907257,-13.983364675566875,581.0,0.0603759765625
0.42985900267958643,-13.288115936933519,2021.0,255.0,0.32410339266061783,0.0,-4.273039450813619,0.03514450341463089,-0.01375098554417491,-0.9969614565372467,-18.048906709170115,1700.0,0.0141845703125,-16.749868557102076,0.47228505164384843,0.0,0.24641266699653636,0.6075261719099138,-2.2465548168260283,-4.583322236124329,0.52,0.00024315634109370877,-0.09427360016852618,-13.283089193152914,0.0,4.398076216892699,0.0012422804487869144,0.0,0.0,-9.690068361727088,-0.022333470173180103,-0.9991798043251038,1052355.0,-4.656002405183477,-0.7435205358022359,16,13.389249520644658,-2.1747589113217214,4.742914385837508,0.4361412562429905,-13.327290578792525,405.0,0.0671142578125
0.438671662658453,-13.709314430239479,1931.0,270.0,0.33000459149479866,0.0,-5.6358930215707925,0.036113906744867565,-0.014296711282804608,-0.9967606320977211,-16.810355437856064,1800.0,0.01474609375,-20.06690671740371,0.4873161122202873,0.0,0.17089590885551528,0.5946532462318119,-2.2679462599138787,-5.994799767200847,0.59,0.00023613107696291992,-0.09646081905812025,-13.577062108444025,0.0,5.755602003743706,0.0012937027990119533,0.0,0.0,-9.070338582165181,-0.0208227735478431,-0.9992039129137993,1108694.0,-5.95619319351947,-0.7425194848274259,17,13.877518300025681,-0.4512243944643288,5.107305231992685,0.4426759734749794,-13.65801771482764,405.0,0.044189453125
0.4500443324446678,-11.503112241589786,2123.0,285.0,0.33035229817032813,0.0,-4.728351120075317,0.036142841540277006,-0.014846727531403304,-0.9965553849935531,-15.225747659709663,1900.0,0.0143798828125,-20.76757893408841,0.49638683572411535,0.0,0.10504003768252473,0.6617311761634111,-2.249675957954969,-5.082204778162598,0.37,0.00024587195075582714,-0.09377030190080404,-11.69077393893457,0.0,4.880851637357339,0.0013462535425787792,0.0,0.06666666666666667,-5.924121002533787,-0.021576285501942037,-0.9991704806685447,1172475.0,-4.958691458366881,-0.7355348067947489,18,11.662159038717451,-1.4580553870810913,4.44463506172235,0.4494482293725014,-11.803991132052513,401.0,0.055810546875
0.45835758522152903,-8.856011146882716,1975.0,300.0,0.33580435886979104,0.0,-4.564577324360505,0.037006942369043824,-0.014579929830506443,-0.99672582000494,-18.242265502694227,2000.0,0.013525390625,-20.075492013267546,0.5044097021222115,0.0,0.26987341772151896,0.9959008965502137,-2.2416802333002126,-4.722025862392995,0.56,0.0002367580211284803,-0.09537750575691462,-9.33077176756493,0.0,4.737403829192902,0.001302614068845287,0.0,0.0,-8.72472570101054,-0.023393900785595178,-0.9992017582058906,1226462.0,-4.694853831235617,-0.7365863295530289,19,9.082321870643455,-2.7138217335786807,4.466621359219522,0.45427813529968264,-9.458021736848956,405.0,0.0640380859375
0.466308318823576,-12.921361288077032,2058.0,315.0,0.3387842282652855,0.0,-5.187762061796301,0.036968587804585694,-0.014320956310257316,-0.997198922932148,-17.222939037948013,2100.0,0.01484375,-19.72140320603756,0.5155938401818275,0.0,0.14334305150631682,0.520571822053539,-2.2594315651582293,-5.532601323150212,0.54,0.00022449624921137002,-0.0995276089757681,-12.956969935564004,0.0,5.3494897927385034,0.0011814761615823953,0.45582047685834504,0.0,-10.192519218204573,-0.023488114448264243,-0.9992438524961471,1287361.0,-5.483456374953836,-0.7354799091906898,20,13.037947855831556,-1.6495196221555686,6.957179167304764,0.45990772917866707,-12.951794977973043,713.0,0.08349609375
0.4733821481466293,-12.186775333071509,1693.0,330.0,0.3403797931969166,0.0,-4.729261183830234,0.036367806140333414,-0.016148874629288913,-0.9971939295530319,-17.719735532825066,2200.0,0.0146240234375,-13.687900479637758,0.5295165836811065,0.0,0.25575900767867693,0.590656042123225,-2.2751407634365024,-5.064116374110892,0.66,0.00023916598875075578,-0.10293554048985243,-12.331395241354834,0.0,4.895024337291673,0.0011827572277979925,0.5261875761266748,0.0,-10.777114519199872,-0.02437516888603568,-0.9991934925317765,1335623.0,-4.991184628035149,-0.7366025735162112,21,12.338438664379305,-1.4031473933168133,4.669334153811076,0.466297323256731,-12.378293886032159,821.0,0.0599609375
0.4795536510646343,-12.636768096579557,1537.0,345.0,0.34158015474677084,0.0,-4.83898108515555,0.03618283625692129,-0.01684571783989668,-0.997391727566719,-17.277937034446193,2300.0,0.01630859375,-14.745557796762984,0.5457629084587097,0.0,0.25894599869876384,0.6596811354060528,-2.2418650215829983,-5.12249164703576,0.73,0.00023699967096035834,-0.10630135536193848,-12.57497733226342,0.0,5.037089611049356,0.0011321075246087276,0.7425670775924583,0.2,-10.065475514429384,-0.02476525972597301,-0.9992009356617928,1380002.0,-5.111397796446755,-0.7320634171002893,22,12.741146463643762,-2.136457401956946,6.434660671600353,0.467857126891613,-12.670839577757505,1379.0,0.0562744140625
0.48610289990901945,-12.534423569905828,1286.0,360.0,0.34338816329836847,0.0,-5.41745940381602,0.03591563701629639,-0.01647688583470881,-0.9974575400352478,-16.810487888693242,2400.0,0.016748046875,-17.89094615135463,0.5625671654939651,0.0,0.2931570762052877,0.5610609042343209,-2.2642020308980135,-5.774696656369628,0.87,0.00024135847634170203,-0.10862441398203374,-12.418672991795926,0.0,5.553289302653672,0.0011152567953104154,0.0125,0.06666666666666667,-10.806107082970325,-0.026981158927083016,-0.9991859674453736,1417941.0,-5.682470805084579,-0.7326456140035589,23,12.716641957965086,-1.49136883523315,6.3811625639409515,0.4709684938192368,-12.54237683444116,400.0,0.0665771484375
0.4931259214878082,-11.752568710201237,1553.0,375.0,0.34567030146718025,0.0,-4.749175505970493,0.03505346868187189,-0.017340794065967204,-0.9972670495510101,-17.3898982460125,2500.0,0.01484375,-20.536920550862003,0.5760295271873475,0.0,0.30006439150032194,0.5650946300794993,-2.218542837041241,-5.0352987140478564,0.8,0.000251577923700097,-0.11412005629390479,-11.751675691734926,0.0,4.930961035171828,0.0011640323733445256,0.0,0.0,-10.828456672765807,-0.02943803295493126,-0.9991508930921554,1461730.0,-5.051097781162838,-0.7312269314825244,24,11.903275305459752,-3.1551655525992772,6.971643944516396,0.47613702788949014,-11.807232764290493,405.0,0.0612060546875
0.5011710301041603,-12.175216115628814,1768.0,390.0,0.3501253746449947,0.0,-5.772515925133117,0.03430901039391756,-0.01922061378136277,-0.9968934908509255,-18.049063029325033,2600.0,0.0136962890625,-20.27341041704451,0.5855509325861931,0.0,0.24434389140271492,0.6534671341896253,-2.1780746933953194,-6.1104946945527345,0.65,0.00023777682836225721,-0.11498734485358,-12.076168351635157,0.0,5.917519774143529,0.0012596801825566217,0.610655737704918,0.13333333333333333,-10.943643838551765,-0.029715660586953165,-0.9991982579231262,1512207.0,-5.976449790216156,-0.7333078672640113,25,12.39632868620842,-1.1579656172049788,5.052587809660731,0.47838232666254044,-12.168986218346646,976.0,0.08857421875
0.5111156851053238,-11.94009338545454,1869.0,405.0,0.3543253667652607,0.0,-5.44200549129869,0.033997421804815534,-0.019193801423534752,-0.997358325123787,-17.420975203838836,2700.0,0.0154052734375,-20.639266207870346,0.5969527557492256,0.0,0.24665596575708934,0.6821145700852865,-2.142430402204991,-5.686634249029374,0.59,0.00024499435858160723,-0.11786464080214501,-11.972063597286093,0.0,5.580751518734308,0.0011406603298382834,0.8596938775510204,0.0,-11.14511606492557,-0.03170314459130168,-0.9991734892129898,1564551.0,-5.64196968039015,-0.7317818978113791,26,12.243662894493673,-1.2273188735744722,4.922831280665865,0.48134487569332124,-12.063883782357365,2352.0,0.04677734375
0.5227740466594696,-12.342599100415594,1918.0,420.0,0.35779488533735276,0.0,-5.529792834955517,0.03364376872777939,-0.019360588025301696,-0.997233709692955,-18.548155645219936,2800.0,0.01474609375,-21.621137394554616,0.6066362917423248,0.0,0.24191866527632952,0.5725052360698133,-2.1287029560524386,-5.848568255043795,0.54,0.00024269795903819613,-0.12083660867065191,-12.294113268383454,0.0,5.6603214172711915,0.0011725704098353162,0.014598540145985401,0.0,-10.962838650875467,-0.030967775080353022,-0.9991813659667969,1618162.0,-5.791798761851806,-0.7346220034669386,27,12.587904124042666,-1.451421079067473,4.02066487167114,0.4864337719976902,-12.419850353929217,411.0,0.051318359375
0.5296639934182167,-12.161955028470446,1806.0,435.0,0.36132290214300156,0.0,-5.274918629420323,0.033786069694906475,-0.020463837031275033,-0.9971817463636399,-17.811148052890633,2900.0,0.013916015625,-21.071862571713243,0.6126566722989082,0.0,0.2646733111849391,0.5422285854762573,-2.1561924085282955,-5.638160350268552,0.63,0.0002405917282885639,-0.12272499259561301,-12.109599989227082,0.0,5.4397962919005325,0.001185874137445353,0.8781047000382117,0.0,-10.913494587290698,-0.030860806303098797,-0.9991886138916015,1669207.0,-5.5453386709953465,-0.7366379711700575,28,12.45696387195619,-1.366575920613348,4.523751253441085,0.4935441642999649,-12.208638462773061,2617.0,0.054833984375
0.5341774702072144,-12.595963707008513,1937.0,450.0,0.3665584474802017,0.0,-5.198365720721371,0.034072289057075975,-0.020472039375454186,-0.9975141108036041,-18.169945838580205,3000.0,0.0148681640625,-20.203807705035302,0.6177944272756577,0.0,0.2710376871450697,0.5868553874817062,-2.134870469650559,-5.527809083635031,0.56,0.0002173206659790594,-0.11993905492126941,-12.38196337536689,0.0,5.348259266253362,0.0011007711684214883,0.9630947920569501,0.13333333333333333,-10.532911794901455,-0.03064769241027534,-0.9992684960365296,1722528.0,-5.460442429819943,-0.7403200518303492,29,12.888924421193792,-1.3650805408558129,3.8514069699447675,0.49995988458395,-12.49176528151376,5338.0,0.055029296875
0.5389314070343971,-11.471041607525539,1898.0,465.0,0.3735503025352955,0.0,-5.655483337324815,0.03537684362381697,-0.020728250639513134,-0.9972482830286026,-17.86582123476574,3100.0,0.01572265625,-17.584639587619783,0.6235743463039398,0.0,0.2528977871443625,0.6159389672987479,-2.119954161363421,-5.968072017051176,0.6,0.00020414918326423505,-0.11909419689327479,-11.562148632237943,0.0,5.8013949903117235,0.0011688366023008712,0.47331460674157305,0.13333333333333333,-9.892470120939144,-0.03206945275887847,-0.9993137031793594,1775027.0,-5.899518640368067,-0.7383171951853,30,11.755511668205141,-1.3255899825948882,5.34146914295403,0.5078249990940094,-11.648239639948686,712.0,0.1218017578125
0.5459146037697792,-12.225817771718273,1887.0,480.0,0.3763638541102409,0.0,-5.69836358576715,0.03512223307043314,-0.021478342171758414,-0.9972255498170852,-16.172557080125344,3200.0,0.0155517578125,-20.910677371104953,0.6299325942993164,0.0,0.3052464228934817,0.6269493644831498,-2.0962729400249374,-6.032438072424415,0.55,0.00020220962614985182,-0.11980978045612574,-12.30592660410558,0.0,5.863922009399822,0.0011746575648430735,0.7562904385334291,0.06666666666666667,-10.320846193194225,-0.03246081303805113,-0.9993203625082969,1826290.0,-5.968488745362624,-0.7452951780545846,31,12.481037976743831,-1.6375627014643976,4.452890863385075,0.5147315010428428,-12.377220430853207,1391.0,0.113037109375
0.5515009358525276,-9.391656816645161,1873.0,495.0,0.3786663725972176,0.0,-5.771492723357747,0.035276923701167105,-0.02327741663902998,-0.9974437251687049,-17.364038669026076,3300.0,0.0151611328125,-10.69023068560486,0.6351699590682983,0.0,0.29257875066737854,0.7757620887972069,-2.137782561017957,-6.088684839541904,0.65,0.0001953689512447454,-0.12122865989804268,-9.743230086648344,0.0,5.920229091306618,0.0011187942989636212,0.9017605633802817,0.0,-11.235225927780029,-0.03425712306052446,-0.9993438392877578,1878045.0,-5.967705172047263,-0.7529182362435677,32,9.629455210200735,-1.5841490461895933,6.204841523194537,0.5196453481912613,-9.86961361599611,2840.0,0.099658203125
0.555114072561264,-10.711767858070655,1906.0,510.0,0.38086883798241616,0.0,-4.497787575823477,0.03485381016507745,-0.02431769813410938,-0.9972413256764412,-15.646292903048286,3400.0,0.0162841796875,-3.839231897390377,0.6443156152963638,0.0,0.36621196222455404,0.6701214702626224,-2.037701445669518,-4.868603731402575,0.65,0.0001850701308285352,-0.12009416371583939,-11.03985692035883,0.0,4.636564376407892,0.001170617903699167,0.821353065539112,0.0,-10.039984258290273,-0.03389971889555454,-0.9993792071938514,1927384.0,-4.8140432254319,-0.7600681878666364,33,10.866683507696797,-1.4564759491174426,6.356647227025521,0.5251293987035751,-11.083159956312269,1892.0,0.1103271484375
0.5612363219261169,-11.216757618844978,1963.0,525.0,0.3864032723009586,0.0,-4.795053914152879,0.03451059833168983,-0.02321722833439708,-0.9968903809785843,-14.558302885492875,3500.0,0.016162109375,-16.361005668851632,0.6528169602155686,0.0,0.2913907284768212,0.5803215544241093,-2.065427427839313,-5.1199447184859395,0.5,0.00018141016407753342,-0.12266956865787507,-11.462682969591606,0.0,4.951078931462985,0.0012604806339368223,0.6700507614213198,0.3333333333333333,-9.205068078778204,-0.035481659974902865,-0.9993917614221572,1979271.0,-5.14157545511967,-0.7597234285985905,34,11.470965915839535,-1.2205143178865019,5.057578122372251,0.5317878112196922,-11.556255862738315,985.0,0.1248046875
0.5656404003500939,-11.54851924387105,1697.0,540.0,0.388493524491787,0.0,-5.10761130554318,0.03463221695274114,-0.02448495673015714,-0.9970059096813202,-15.803717743352564,3600.0,0.0171630859375,-19.311682811674505,0.6595279470086097,0.0,0.2498526812021214,0.602181384624229,-2.0642295058631133,-5.434138004302025,0.67,0.00017602386324142572,-0.12427438162267208,-11.75455061193819,0.0,5.2518695310477455,0.0012308969016885385,0.01699029126213592,0.0,-10.4614336452323,-0.036454565823078156,-0.9994102597236634,2028078.0,-5.409513082221816,-0.7609914786902664,35,11.773841226843235,-1.2942969306639611,4.189987568877354,0.537820503115654,-11.840924807229488,412.0,0.1398193359375
0.5724416300654411,-11.36546299847227,1861.0,555.0,0.39315278753638266,0.0,-5.231318108899022,0.03583679171279073,-0.025658115278929472,-0.9967714935541153,-17.99793987710906,3700.0,0.015283203125,-19.655292485210826,0.6665529131889343,0.0,0.1826974744760881,0.6189743193909514,-2.074260013584717,-5.583921977012628,0.59,0.00017545046503073536,-0.11711245253682137,-11.587849376590132,0.0,5.379229639569002,0.001290917315054685,0.9236016371077762,0.0,-8.908846022482438,-0.038103175535798076,-0.9994122162461281,2082483.0,-5.510909790810016,-0.7598017852200428,36,11.610623875458078,-1.3576870933318488,4.893049712050722,0.5462224677205085,-11.679644037884097,3665.0,0.119921875
0.5761341139674186,-6.773917814925251,1447.0,570.0,0.39616227298974993,0.0,-5.447694915388677,0.03642156021669507,-0.026505589392036198,-0.9970454797148705,-15.921358438007713,3800.0,0.0153564453125,-19.598375242637953,0.6742425248026848,0.0,0.36281962681409813,0.6477066083049718,-2.1115904710470206,-5.792643729109019,0.88,0.00019719021001947113,-0.11704651024192572,-7.382376870122991,0.0,5.616318956432464,0.0012207663647131994,0.9590818363273453,0.06666666666666667,-9.184691913025027,-0.040369321778416636,-0.9993375897407532,2121846.0,-5.7014489585281805,-0.7572379621968139,37,7.036286050669721,-1.5517941061818306,4.169855174382336,0.5546435818076134,-7.5689362116789,5010.0,0.088916015625
0.5802616670727729,-11.222651984673622,1240.0,585.0,0.40145034715533257,0.0,-5.447027148836425,0.037246950808912514,-0.029137745825573803,-0.9973708763718605,-16.73160809241857,3900.0,0.016064453125,-16.864767763176992,0.6825315564870834,0.0,0.36693548387096775,0.620838771822169,-2.0170246045210662,-5.800425302248245,0.92,0.0002054860186035512,-0.11875687334686517,-11.3395915446385,0.0,5.590998196173096,0.0011374467678251677,0.38317757009345793,0.0,-9.98361376181749,-0.03998582186177373,-0.9993091136217117,2156873.0,-5.723849544191865,-0.7607098466982279,38,11.5176699750488,-1.406423112693257,4.496288391392566,0.5595376089215278,-11.44581908861436,642.0,0.1001953125
0.5842639282345772,-10.955188494525705,1173.0,600.0,0.4059750892221928,0.0,-5.439619436249937,0.03843189431354403,-0.030237951362505556,-0.9973599210381507,-15.661293414679568,4000.0,0.0148193359375,-18.826410982685967,0.6908610194921494,0.0,0.38192668371696503,0.6613896679452028,-2.0116751857338384,-5.7659923895812355,0.94,0.00020206941335345618,-0.12178519424051046,-11.097766959489656,0.0,5.579276838691024,0.0011402518764953129,0.9059122695486331,0.0,-9.21863805584516,-0.04023727662861347,-0.9993208408355713,2190707.0,-5.706901331420198,-0.7584605815933173,39,11.319093943336958,-1.5849324161177578,4.434688354720737,0.565511517226696,-11.189969729358408,3146.0,0.1428955078125
0.590684960782528,-9.487628751863326,1347.0,615.0,0.41141979545354845,0.0,-5.580853575921436,0.038882833626121285,-0.031241601891815664,-0.9973168119788169,-15.48855884827203,4100.0,0.016796875,-17.584277203350375,0.6998746812343597,0.0,0.40089086859688194,0.6527300440151432,-1.9878606918562582,-5.925531135929999,0.9,0.00021045237590442412,-0.125215382874012,-9.742844583911461,0.0,5.742827021882731,0.0011512941549881362,0.79700977573318,0.0,-9.62695479118004,-0.04008519286289811,-0.9992920652031898,2227431.0,-5.856045320680681,-0.7620239440169826,40,9.801111064779409,-1.511022416151157,6.920895580683509,0.5701338320970535,-9.922435130396634,1739.0,0.109814453125
0.5962462529540062,-5.813982878670167,1431.0,630.0,0.4163158908486366,0.0,-5.47277376172246,0.03907440500333905,-0.029107661312446,-0.9970129385590554,-15.089009449574199,4200.0,0.0160400390625,-20.249666065507117,0.7061346039175987,0.0,0.38714185883997204,0.7149444606265574,-2.009665831974053,-5.807296665087473,0.84,0.00022270224035310094,-0.1294953290373087,-6.48537687557558,0.0,5.63480608182478,0.0012290976621443406,0.9668602664844551,0.0,-10.002892251906909,-0.04366519898176193,-0.9992500022053719,2266305.0,-5.757321800516129,-0.7569597202691511,41,6.219693423923699,-1.5034123289112937,3.9773293282145543,0.5752978071570396,-6.711685673708277,5854.0,0.11552734375
0.6010535418987274,-10.26012618942298,1982.0,645.0,0.42049726098775864,0.0,-5.549729366788274,0.039122072979807854,-0.03086395082063973,-0.9969365537166596,-17.247603075189176,4300.0,0.0154296875,-19.577971932645596,0.71290063560009,0.0,0.34611503531786075,0.6920135236110768,-1.995565925036135,-5.903532805244258,0.58,0.00020766213165188674,-0.1326713476330042,-10.436103100716924,0.0,5.718809572794261,0.0012486564752180128,0.8978349120433018,0.06666666666666667,-11.110992740073979,-0.04296533232554793,-0.9993016362190247,2317824.0,-5.805177192399244,-0.7559289266107954,42,10.644416079279537,-1.4180636265248538,5.099091148551638,0.5776571422815323,-10.515775776590049,2956.0,0.1206298828125
0.6038240164518356,-5.738069200327807,1730.0,660.0,0.4249413512647152,0.0,-5.3413027058088565,0.03929140605032444,-0.03283330388367176,-0.9973977670073509,-16.13220275068176,4400.0,0.01572265625,-20.33842124796181,0.7183203771710396,0.0,0.3739884393063584,0.6157360309419981,-1.9435511027288157,-5.6939508642308585,0.67,0.00020925764547428117,-0.1317530743777752,-6.4130183386131545,0.0,5.513597452787456,0.0011305599997285753,0.980893470790378,0.0,-10.190868820438052,-0.04477628841996193,-0.9992961719632149,2363694.0,-5.6375444754480615,-0.757923406874761,43,6.175428948556427,-1.418355757305233,4.691652901900728,0.5817766502499581,-6.6590817654287005,7275.0,0.1276611328125
0.6120237514376641,-10.007275100640763,2115.0,675.0,0.4301451168954372,0.0,-4.6614624977731856,0.04031022172421217,-0.03570572221651673,-0.9972124695777893,-15.707053257379606,4500.0,0.01591796875,-19.771103791714065,0.7201139315962791,0.0,0.366903073286052,0.571126879228522,-1.897563611989608,-5.000660044644412,0.53,0.00020822820406465325,-0.1370839424431324,-10.268356269841686,0.0,4.824481006793365,0.001178009220166132,0.8952737164229854,0.0,-10.301241336449063,-0.046013740729540585,-0.9992997035384178,2417226.0,-5.010465137363895,-0.7572834213344322,44,10.374415328858149,-1.205705328480117,5.165469012289465,0.5827415183186531,-10.36602685418581,2941.0,0.1330810546875
0.615174874663353,-10.377270614952185,1742.0,690.0,0.4347297020256519,0.0,-5.360955440071047,0.041390274185687304,-0.03702027527615428,-0.9977030113339425,-15.461933413933458,4600.0,0.0162353515625,-20.65796988433966,0.7262805238366127,0.0,0.3668197474167623,0.6608225375180542,-1.874138887839581,-5.696283783464709,0.73,0.00021265669347485526,-0.13623488694429398,-10.575610122765404,0.0,5.517488709131598,0.0010524029887164943,0.9767335766423357,0.13333333333333333,-10.845278062601372,-0.045451572723686696,-0.9992844864726067,2463513.0,-5.633561501745153,-0.7573711734996322,45,10.807175784481888,-1.502733875809088,4.844902447613315,0.5876550793647766,-10.686220226982108,6576.0,0.110888671875
0.6202160120010376,-10.084391792125547,1948.0,705.0,0.4391030497848988,0.0,-5.469995353824774,0.04154064022004604,-0.03713870607316494,-0.9977481901645661,-16.387297824121887,4700.0,0.016748046875,-15.023975873076665,0.7333093956112862,0.0,0.3475359342915811,0.6646914610810704,-1.8563340215067001,-5.819022468680474,0.59,0.00021693334201700054,-0.13794461637735367,-10.2946180495634,0.0,5.637810243272118,0.00104083287587855,0.9925600270544471,0.06666666666666667,-11.449949932094642,-0.04521855777129531,-0.9992698296904564,2514612.0,-5.753710408536457,-0.763648020693654,46,10.384150420434796,-1.4104448330565194,5.717475557539322,0.5930207163095474,-10.429758138087843,8871.0,0.1203125
0.6256759509444236,-11.371144328766238,1972.0,720.0,0.4420701563358307,0.0,-5.53734445549693,0.04096359945833683,-0.03917615246027708,-0.9976639688014984,-15.517121383395926,4800.0,0.01728515625,-14.600237825751881,0.7420717939734459,0.0,0.3407707910750507,0.641635902391577,-1.9178730252056995,-5.901550088667913,0.57,0.0002181590472901007,-0.13773312084376813,-11.419990185650164,0.0,5.699179204222635,0.001062398630892858,0.6301369863013698,0.0,-10.567772332812723,-0.04551276676356793,-0.9992656111717224,2566502.0,-5.829942487964452,-0.7672175255476759,47,11.65326790604483,-1.5020298970208015,4.862976898256388,0.5994698658585549,-11.53865706242552,1022.0,0.10546875
0.6300473004579544,-12.093580347037197,1975.0,735.0,0.44621395468711855,0.0,-5.557170173226213,0.041822667606174944,-0.039921235851943494,-0.9974697709083558,-15.431528231897476,4900.0,0.0163330078125,-20.597425975195186,0.7481873407959938,0.0,0.3367088607594937,0.676932629186702,-1.9402548947349714,-5.909662122791856,0.63,0.00019278542677056976,-0.1419420775026083,-12.10887295134565,0.0,5.7245435379043546,0.001112122758058831,0.8252826310380267,0.06666666666666667,-10.264309395219486,-0.04602460041642189,-0.9993527084589005,2618258.0,-5.846634233531445,-0.7726409124854399,48,12.394823052037516,-1.3102395595105607,4.4246070740113606,0.6055643126368523,-12.237585555522573,1946.0,0.1373291015625
0.6314284324645996,-12.19759030811504,2026.0,750.0,0.44985884577035906,0.0,-4.9475038731554495,0.042237617447972296,-0.041266877111047505,-0.9976858720183372,-16.034372147032762,5000.0,0.0162841796875,-18.66689783055329,0.7533573895692826,0.0,0.3139190523198421,0.6408711640180584,-1.9894178042861312,-5.35878369347549,0.56,0.00018890930114139336,-0.1442372977733612,-12.241877323394798,0.0,5.138832408995872,0.0010567914679995738,0.9813381255183854,0.06666666666666667,-10.612430533808448,-0.046137324161827566,-0.9993660122156143,2672667.0,-5.266905088312944,-0.7720766118931351,49,12.443819507350687,-1.2733370540350337,4.1183561398299515,0.611776314675808,-12.339137042554025,7234.0,0.1774658203125
0.6353892609477043,-9.417298286296225,1943.0,765.0,0.4540230087935925,0.0,-5.590054657305343,0.042612106446176766,-0.04199491543695331,-0.9977760866284371,-15.694914055505723,5100.0,0.017236328125,-19.946433501685682,0.7587085455656052,0.0,0.34276891405043747,0.5638464444353642,-1.9461908482302532,-5.986772433806236,0.63,0.00018073508726956788,-0.14503743313252926,-9.727209200588424,0.0,5.771074909943527,0.0010336911800550297,0.9289297658862876,0.06666666666666667,-10.064958277108648,-0.04807249316945672,-0.9993940681219101,2723863.0,-5.936771836914034,-0.7719005216509686,50,9.636024558053135,-1.176058849301102,7.38648466862337,0.6174473077058792,-9.886390641287951,3588.0,0.1767333984375
0.6399855345487595,-9.036527983031757,1924.0,780.0,0.45641903281211854,0.0,-5.359993713472456,0.043099846318364145,-0.043332624901086095,-0.997766287624836,-16.67727365793815,5200.0,0.017626953125,-19.353144217181246,0.7647672325372696,0.0,0.28586278586278585,0.6266750254322873,-2.0440948919676885,-5.745998996033469,0.58,0.00018691777404455934,-0.14544456489384175,-9.372603884205903,0.0,5.545923010976232,0.001036200547241606,0.014669926650366748,0.06666666666666667,-11.12854372359032,-0.04962113033980131,-0.9993728592991828,2777174.0,-5.681313026130753,-0.7747333502324182,51,9.28565578764412,-1.5882990494650724,6.618864131856964,0.6213358998298645,-9.558264384529803,409.0,0.1578857421875
0.6448380351066589,-12.423535200766135,1974.0,795.0,0.4596091255545616,0.0,-5.389773173438295,0.04337598206475377,-0.044530789647251365,-0.997412295639515,-16.75268980460274,5300.0,0.01640625,-21.547497076282042,0.7703769490122795,0.0,0.29533941236068895,0.649268181693038,-2.047027635869381,-5.777429038611177,0.62,0.00019216331529605667,-0.1471815899014473,-12.411396168798493,0.0,5.602029615295669,0.0011268397240201012,0.9324956165984805,0.26666666666666666,-10.672871944328234,-0.05085571566596627,-0.9993548527359962,2830212.0,-5.703525536376615,-0.7716892978336546,52,12.699747090855826,-1.7052461542311026,5.156106792694578,0.6237195566296577,-12.52346854097763,3422.0,0.10654296875
0.6479496836662293,-12.174870367901118,1853.0,810.0,0.4608237691223621,0.0,-5.367952993667243,0.04404416540637612,-0.04452185295522213,-0.9978902041912079,-17.43287637033527,5400.0,0.0168701171875,-20.774198767043867,0.7743651926517486,0.0,0.33675121424716675,0.9875280819144997,-2.0102879809735894,-5.666167190855577,0.62,0.00018623421783559024,-0.1497029647231102,-12.185933840725392,0.0,5.574399775918618,0.0010044706068583764,0.2514395393474088,0.06666666666666667,-11.55298550854057,-0.05129480855539441,-0.9993752121925354,2879570.0,-5.640032495505525,-0.7737634779889049,53,12.457304980674095,-0.8878142593490611,4.141172752728546,0.6268526643514634,-12.307001534593589,521.0,0.1199951171875
0.6552841514348984,-13.016586627143775,2197.0,825.0,0.4617303073406219,0.0,-4.817965349423742,0.04468053681775928,-0.045171009935438634,-0.9971824690699578,-17.228374253335303,5500.0,0.0163818359375,-18.11074317911267,0.7799056991934776,0.0,0.10605370960400547,0.6925063307919437,-2.138394742041419,-5.203422438136936,0.39,0.000184385980173829,-0.14601553678512574,-13.05664888742486,0.0,4.988196651724765,0.0011856857177917845,0.6367476240760296,0.2,-8.672417648013472,-0.05140755409374833,-0.9993815407156944,2944786.0,-5.10223682249662,-0.7725016364591284,54,13.222137739883925,-1.6533616015378014,5.258846223672303,0.6280267745256424,-13.155272813871738,947.0,0.1483154296875
0.6584314316511154,-11.938791055316855,1709.0,840.0,0.4654999203979969,0.0,-4.742273100100823,0.04621546324342489,-0.04625765047967434,-0.9973247915506362,-15.897432845202,5600.0,0.016552734375,-19.50467702525618,0.7855494886636734,0.0,0.3604447045055588,0.5634606375265314,-2.119094380752722,-5.142473599163437,0.77,0.0001747556871123379,-0.1466110061854124,-12.11359697509437,0.0,4.928980554893772,0.001149247062858194,0.9526078234704113,0.26666666666666666,-9.157329200160108,-0.05263055097311735,-0.9994146034121514,2989779.0,-5.086226533394219,-0.7728944224279986,55,12.157307616477258,-2.0302564456242482,4.111675116523903,0.6313555091619492,-12.212729595607538,3988.0,0.1774658203125
0.6621031120419503,-11.886575718020147,1798.0,855.0,0.4684614770114422,0.0,-5.37636725283132,0.04645592104643583,-0.046607468836009504,-0.9979397028684616,-16.564572403373145,5700.0,0.0173828125,-18.899332382801358,0.7940830871462822,0.0,0.3476084538375973,0.5938273782785733,-2.0902991323288007,-5.7636850421018275,0.72,0.00018025612116616684,-0.1503132101148367,-12.087004085190774,0.0,5.537130047602104,0.0009918000214383937,0.9543212524126099,0.26666666666666666,-10.678920890972682,-0.05188026381656528,-0.9993957251310348,3037300.0,-5.69062162177414,-0.7723586961550609,56,12.146306908769896,-1.3611726893520275,4.858198254267893,0.6373500049114227,-12.178814153625815,4663.0,0.1156982421875
0.6663625597953796,-11.611767145772022,1705.0,870.0,0.4721156507730484,0.0,-5.367507591023382,0.04685962395742536,-0.04793628873303533,-0.9976450443267822,-17.360778151153752,5800.0,0.0166259765625,-19.946807636617166,0.8027634993195534,0.0,0.33841642228739005,0.5837011338106167,-2.056662238552235,-5.740341492538954,0.71,0.00020234353723935783,-0.1525208830833435,-11.775981460127223,0.0,5.527321939597058,0.0010672446092939935,0.948475740661228,0.0,-10.359469684479453,-0.05033298432826996,-0.9993199050426483,3083477.0,-5.710961363208736,-0.7734933053132409,57,11.899302579875496,-1.2515026284247137,4.666861852855751,0.6432323455810547,-11.91007340999685,4658.0,0.11533203125
0.6701552927494049,-12.239843309786247,1719.0,885.0,0.4748614728450775,0.0,-5.3569225037769215,0.04732323484495282,-0.04953695749863982,-0.9979287102818489,-17.84864308744014,5900.0,0.01748046875,-20.5620411493259,0.8105126276612282,0.0,0.29086678301337987,0.5357346228950306,-2.069074463387369,-5.750300690233802,0.71,0.0002011319280427415,-0.15431151315569877,-12.329939599216734,0.0,5.532913269018744,0.0009946120262611657,0.9258620689655173,0.13333333333333333,-10.934852097717842,-0.04973527900874615,-0.9993240669369697,3131602.0,-5.707999886207942,-0.7707111420855653,58,12.552494744426886,-1.1507364105903388,3.9095515212825687,0.6482695937156677,-12.450789116705632,3480.0,0.0968994140625
0.6717080682516098,-12.299182512070566,1671.0,900.0,0.4784227356314659,0.0,-5.389073357976673,0.047829652484506366,-0.0493376768194139,-0.9978244170546532,-17.7069678780801,6000.0,0.016259765625,-20.50091327608808,0.8192116901278496,0.0,0.2848593656493118,0.578210415691547,-2.102282033666415,-5.7584840977987595,0.71,0.00018238690499856603,-0.15681032836437225,-12.385208100583881,0.0,5.539110718861304,0.0010213144356384873,0.9038525963149079,0.2,-10.759813597966891,-0.050668466836214066,-0.9993884116411209,3177555.0,-5.701815300511308,-0.7642819163578679,59,12.597827265537868,-1.1985075430010825,3.99520363571213,0.6528261601924896,-12.508252945576725,2985.0,0.1552734375
0.6786980390548706,-11.886644798912531,1469.0,915.0,0.47963726669549944,0.0,-5.5632814316509425,0.047798688616603614,-0.048680564388632774,-0.9979362472891807,-17.218143912842063,6100.0,0.0164306640625,-17.228537997197275,0.8262571528553962,0.0,0.36759700476514634,0.5648970365931574,-2.076986504458546,-5.932377221495176,0.83,0.00019779631657002028,-0.16120091564953326,-11.917981154738934,0.0,5.73970588480819,0.0009926805840223096,0.9900291828793775,0.13333333333333333,-10.45206834674599,-0.050243549328297374,-0.9993355095386505,3216340.0,-5.877003359791617,-0.7639757232871489,60,12.180501136735675,-1.4580695232945364,4.137068874954222,0.6569157242774963,-12.034606346629564,8224.0,0.1213623046875
0.6831853047013283,-12.231111568496086,1787.0,930.0,0.47883762791752815,0.0,-4.627406822044614,0.04751156736165285,-0.04849103232845664,-0.997672238945961,-16.49512070125175,6200.0,0.0156982421875,-19.405424341767816,0.8330177962779999,0.0,0.37604924454392835,0.5825499751566384,-2.041471280548649,-5.021400958347269,0.69,0.0001961741942068329,-0.1634863954037428,-12.231193185054057,0.0,4.792127501362709,0.0010602824899251574,0.9402985074626866,0.2,-10.720537074403525,-0.049908841773867604,-0.9993410795927048,3261808.0,-4.947111918378829,-0.7615418129189493,61,12.543108047945728,-1.5532524704823358,4.642052740415137,0.6602206841111183,-12.337498317419122,3953.0,0.11318359375
0.6878871411085129,-12.368364835158062,2046.0,945.0,0.47809687852859495,0.0,-4.630339692914783,0.04728457136079669,-0.04806942343711853,-0.997852548956871,-16.92890058250018,6300.0,0.0153564453125,-17.747465553696156,0.8391494125127792,0.0,0.3734115347018573,0.5956823537780108,-2.0050966793554834,-5.024436191674302,0.53,0.00018579641364340204,-0.16495198160409927,-12.266102260124153,0.0,4.800540087738205,0.001014113865676336,0.9604151580979966,0.0,-8.22326801444747,-0.04987217579036951,-0.9993767082691193,3313672.0,-4.95233764295087,-0.7630888047431654,62,12.673091571919763,-1.5040467689993,4.324473082777749,0.6661542385816575,-12.36256525809508,4143.0,0.1576416015625
0.6928158372640609,-12.17364019799619,2030.0,960.0,0.47790390700101854,0.0,-4.766806615661307,0.04699898529797793,-0.04896019976586104,-0.9977154716849327,-15.221363587306454,6400.0,0.016162109375,-19.470388768401815,0.843397057056427,0.0,0.4605911330049261,0.6352489459869576,-1.970107579805699,-5.16063392450269,0.57,0.00018829071923391892,-0.16674453429877759,-12.064625795353487,0.0,4.94055103537413,0.001049210611381568,0.9359710057384476,0.06666666666666667,-8.43269575919302,-0.049311870615929364,-0.9993681401014328,3361795.0,-5.072120944005612,-0.7649726507148443,63,12.461962062526377,-1.4339054463117418,4.058453810603514,0.6714092642068863,-12.192654783933154,3311.0,0.09384765625
0.6976603254675865,-10.806940702797784,1978.0,975.0,0.4788018099963665,0.0,-4.772578668936054,0.04660266526043415,-0.04863985190168023,-0.9978651657700539,-15.283408493955044,6500.0,0.0163818359375,-14.037521886395329,0.8520911306142807,0.0,0.43073811931243683,0.6696608146566244,-1.9509372388871271,-5.168392468489631,0.57,0.00019240397014073097,-0.16882564947009088,-11.087568931452626,0.0,4.96164859079128,0.0010108827249496245,0.9720992880507985,0.13333333333333333,-8.769140312575527,-0.049970269482582805,-0.999354013800621,3410221.0,-5.082922226948627,-0.7694918254859658,64,11.136490702632745,-1.4286688644305932,5.40090081021783,0.6775436535477638,-11.158550265804276,5197.0,0.12763671875
0.7017820194363594,-11.922555389442861,2084.0,990.0,0.48039177134633065,0.0,-4.7951661975158,0.04651056723669171,-0.05001006731763482,-0.9977682039141655,-16.334187830664256,6600.0,0.0171630859375,-14.764662730731143,0.8582504019141197,0.0,0.3675623800383877,0.6481948740512172,-1.923831701942254,-5.198601114137544,0.5,0.0001789362468116451,-0.171388241648674,-11.978983904131507,0.0,4.997457509005043,0.0010357077466323973,0.98325007346459,0.06666666666666667,-9.215976183016389,-0.05073573514819145,-0.9994002506136894,3462318.0,-5.120193630575402,-0.7742458151693427,65,12.190741464184605,-1.3457100047901522,4.808995901785524,0.680127988755703,-12.102151005490985,6806.0,0.20068359375
0.7055959701538086,-6.064661792941867,1876.0,1005.0,0.48271531611680984,0.0,-4.610942409097871,0.04650108925998211,-0.049976268969476226,-0.9980176761746407,-14.272547295164228,6700.0,0.017822265625,-10.639117484368011,0.8627282381057739,0.0,0.44616204690831557,0.682126774765015,-1.8446460226521595,-5.004524798050818,0.65,0.00017192859122587832,-0.1723458357155323,-6.923448650024656,0.0,4.781256477547264,0.0009718306042486802,0.9829372333942717,0.2,-9.149268883678172,-0.05205623544752598,-0.9994243204593658,3508074.0,-4.925739589818718,-0.7737208233567798,66,6.4104493299318035,-1.4597408782204229,4.435720404806199,0.6824829757213593,-6.983277498413173,6564.0,0.1544677734375
0.7097765907645226,-12.044301276219631,1943.0,1020.0,0.48410686999559405,0.0,-5.054663824241601,0.04638731945306063,-0.050695480592548844,-0.9979037940502167,-13.93814964173202,6800.0,0.017822265625,-15.728358181951096,0.8673224195837974,0.0,0.46320123520329387,0.6548597331495302,-1.794574824964002,-5.4615886872834185,0.54,0.0001781151986506302,-0.16972545608878137,-12.096403806953159,0.0,5.247974406048151,0.0010009924371843226,0.9479203075847605,0.4,-8.836971820918556,-0.05139016387984156,-0.9994030728936195,3551706.0,-5.375939978128538,-0.7756198108218086,67,12.303705238009318,-1.543262013913533,5.242462214386229,0.6832943797111511,-12.198945045951099,2861.0,0.1565673828125
0.7133250594139099,-11.520916544184379,2124.0,1035.0,0.4852735251188278,0.0,-5.260857890497212,0.046588456444442275,-0.05222578290849924,-0.998034942150116,-15.039113921759888,6900.0,0.0174560546875,-15.65014824570477,0.8725635156035423,0.0,0.4665725047080979,0.6729595621084643,-1.7874848079896766,-5.684080533076593,0.42,0.0001656191161600873,-0.16981223672628404,-11.662358577808453,0.0,5.455211313114629,0.0009674124637967906,0.9776484996938151,0.0,-8.70395528732375,-0.050945203937590125,-0.9994459852576256,3601593.0,-5.586724372054377,-0.785646404066938,68,11.692018864089514,-1.5106721437335278,4.681625290704375,0.6858531087636948,-11.789649984476828,6532.0,0.1727783203125
0.7171518176794052,-11.584012644029658,2171.0,1050.0,0.4872298873960972,0.0,-5.3461485210601145,0.04685220355167985,-0.05321662146598101,-0.997917652130127,-14.670492386938085,7000.0,0.01708984375,-10.693424974969302,0.8773679107427597,0.0,0.43528327959465685,0.6578105986337787,-1.8016278496856102,-5.7688402236723535,0.43,0.00015695517395215576,-0.17108644917607307,-11.775558689995204,0.0,5.567389775770155,0.0009974435844924301,0.9615459312487862,0.13333333333333333,-8.528646224076734,-0.05091769527643919,-0.9994757190346718,3653694.0,-5.66846159569077,-0.7869172671071283,69,11.80289313209327,-1.3217923383475945,4.5971272212779954,0.6848694443702698,-11.899430137278852,5149.0,0.2176513671875
0.722625681757927,-10.663165502334715,2043.0,1065.0,0.4877405270934105,0.0,-4.3547967938028815,0.04690512809902429,-0.053164273407310246,-0.9980128675699234,-13.405554227834186,7100.0,0.0188232421875,-12.170377383134317,0.8840550124645233,0.0,0.4302496328928047,0.6795256486658827,-1.810953413045354,-4.7894784988789105,0.56,0.00014607973371312256,-0.17215731143951415,-10.932055645968926,0.0,4.54767257136689,0.0009730618054163642,0.6022964509394572,0.0,-7.958454175115776,-0.0514674074947834,-0.9995130345225334,3703664.0,-4.693666739132285,-0.7933169812913548,70,10.760673235118537,-1.6704836661800544,5.4235439558962915,0.6872602865099907,-11.050743262949318,958.0,0.22451171875
0.72733955681324,-11.95711540003823,2104.0,1080.0,0.48963207602500913,0.0,-5.736134418610069,0.04770010048523545,-0.05364193161949515,-0.9974707901477814,-11.624157975889178,7200.0,0.017529296875,-10.138827363916898,0.8891725659370422,0.0,0.19629277566539924,0.7158039554554259,-1.887447530404461,-6.101827656871378,0.5,0.00017000434854708146,-0.16912312544882296,-12.071134299901178,0.0,5.920951277744986,0.0011118638067273423,0.09192825112107623,0.0,-6.653002197004561,-0.05088204918429255,-0.9994309097528458,3763704.0,-6.034476735400083,-0.7860454727706383,71,12.118803577476463,-2.0249616221171625,6.45075544417544,0.6881125569343567,-12.134459550013124,446.0,0.230322265625
0.729717007279396,-5.34539514785351,1731.0,1095.0,0.4920414790511131,0.0,-5.564895836675623,0.04747525909915566,-0.05704270992428064,-0.9968541994690895,-14.591092789713713,7300.0,0.0182373046875,-9.836827505920603,0.8939587995409966,0.0,0.3362218370883882,0.7048897336000387,-1.8809213136035396,-5.9099367552094595,0.65,0.0001697538358712336,-0.17097288258373738,-5.932900060790575,0.0,5.696489946407427,0.0012697417463641615,0.8166948674562888,0.0,-11.05686657756317,-0.052499229367822406,-0.9994317680597306,3810003.0,-5.8841755843670525,-0.7828779631054203,72,5.460479772035342,-0.8509786159045701,5.2425825665361945,0.6885342404246331,-6.333523222298856,1773.0,0.2247314453125
0.7332297369837761,-11.626194760216475,2039.0,1110.0,0.4938814416527748,0.0,-5.773987771477893,0.047389529552310704,-0.05777184562757611,-0.9965097978711128,-14.144849810361245,7400.0,0.015771484375,-15.78145727201873,0.9010276064276695,0.0,0.2545365375183914,0.7314814565196064,-1.9423220313288767,-6.130049908950601,0.47,0.00017594961864233482,-0.17394981607794763,-11.79336380667834,0.0,5.943740157856465,0.0013579264137661084,0.7473831123517097,0.0,-7.504953820374657,-0.05388949979096651,-0.9994105041027069,3865728.0,-6.037635114183253,-0.7740652728040004,73,11.74088486644624,-1.3781238655445274,4.711965238719318,0.688234481215477,-11.880708183910794,1433.0,0.2011962890625
0.7370214268565178,-12.706396584505224,2252.0,1125.0,0.4980572804808617,0.0,-5.4318933579918385,0.04765252880752087,-0.058995590265840295,-0.9969807386398315,-16.637658706377536,7500.0,0.0162353515625,-16.680694537281376,0.9079984158277512,0.0,0.13543516873889877,0.5854645132139833,-2.079292795407673,-5.786350998166024,0.38,0.00019297326871310362,-0.17133888974785805,-12.774761326519187,0.0,5.593290847715456,0.0012373392964946106,0.900405131667792,0.06666666666666667,-9.120411598477421,-0.0546918136999011,-0.9993520691990853,3931905.0,-5.733774060263808,-0.7689053996229631,74,12.870923945404794,-1.6469907579241525,4.565204102469811,0.6885934367775917,-12.85976537887997,2962.0,0.125927734375
0.7394459828734398,-12.499439325646058,1841.0,1140.0,0.5003965437412262,0.0,-5.281512716299735,0.04733609454706311,-0.059520363248884676,-0.9970763221383094,-17.04818180106633,7600.0,0.0171875,-18.30212578404407,0.9137232765555382,0.0,0.27648017381857687,0.6921932969426023,-2.104347204462101,-5.605265482677415,0.6,0.0001949150835571345,-0.1697063732892275,-12.484273082798925,0.0,5.425880534681997,0.001212868158472702,0.218,0.06666666666666667,-11.50008903361194,-0.055010767839849,-0.9993453994393349,3982295.0,-5.566062221858354,-0.7595653542077343,75,12.577839843628556,-1.0038513169766228,5.073624766156371,0.6900389611721038,-12.568066718008913,500.0,0.1615234375
0.7424733370542527,-12.883150913828405,1941.0,1155.0,0.500319904088974,0.0,-4.9809151812062655,0.04688127171248198,-0.059304076712578535,-0.9970174565911293,-17.791595930892385,7700.0,0.016259765625,-17.131482132470477,0.9194266065955162,0.0,0.3003606388459557,0.5798413611083613,-2.16594747954332,-5.370706531430498,0.58,0.00018425991365802474,-0.17088629826903343,-12.799152399266376,0.0,5.1446966920354615,0.0012279405695153401,0.9016106442577031,0.13333333333333333,-8.95687157571826,-0.05458071436733007,-0.9993819743394852,4033361.0,-5.26824650371671,-0.7551799672106426,76,13.0302735056102,-1.4556375454971147,4.794895630957704,0.6915442049503326,-12.902479933676437,2856.0,0.1287841796875
0.7441940113902092,-13.741014871181907,2143.0,1170.0,0.5020616456866265,0.0,-5.252543674247251,0.04714099131524563,-0.059339632373303176,-0.9970221295952797,-17.871750843531117,7800.0,0.016943359375,-18.63114078759485,0.9249205455183983,0.0,0.25711619225384974,0.5511167560253493,-2.2252381964503,-5.641257332683199,0.43,0.00017342788778478279,-0.17059062644839287,-13.482424222370312,0.0,5.4062737798058915,0.0012267463986063375,0.7592982456140351,0.13333333333333333,-9.445011763041713,-0.05491340421140194,-0.9994191572070121,4090523.0,-5.546180714760641,-0.7497327202301676,77,13.904840153701826,-1.0831031500249186,4.841313289399612,0.6952681675553322,-13.601878279230652,1425.0,0.1799072265625
0.7479322552680969,-13.305953112993802,2031.0,1185.0,0.5046088248491287,0.0,-5.21523899923846,0.04749030452221632,-0.06071000304073095,-0.997552578151226,-17.9534327619791,7900.0,0.0171142578125,-17.634537711796543,0.9296463415026665,0.0,0.3003446578040374,0.5649160811023026,-2.215538048088638,-5.60035754891373,0.45,0.00016855727808433584,-0.17149917371571063,-13.19495854470785,0.0,5.382215875504754,0.001090920146089047,0.6801125703564728,0.13333333333333333,-10.288489107007582,-0.0546801058575511,-0.9994358822703362,4143676.0,-5.5053928248087445,-0.7478875349068403,78,13.479138077865713,-1.3029276212560623,4.541997760847556,0.6970566436648369,-13.310007850075362,1066.0,0.185107421875
0.7493581116199494,-9.208075158160671,1942.0,1200.0,0.5081656590104103,0.0,-5.567064174076841,0.04794042548164725,-0.059650026727467775,-0.997663851082325,-17.802963697558805,8000.0,0.0156982421875,-18.163059866986547,0.9360285013914108,0.0,0.31462409886714726,0.5367674159363554,-2.1588581059666465,-5.943173391084551,0.52,0.00016599219343333972,-0.1726128336042166,-9.502657412502746,0.0,5.72218365916042,0.0010624267277307808,0.9683814732524355,0.13333333333333333,-10.566687546589934,-0.05687552131712437,-0.9994446858763695,4194974.0,-5.871361477071092,-0.750984218513986,79,9.35546066272864,-1.1399844612305075,5.757322482067107,0.6998108491301537,-9.770645969890225,5851.0,0.17646484375
0.7528661876916886,-11.226473871671068,2123.0,1215.0,0.5086997643113136,0.0,-5.295150640474523,0.047721393033862115,-0.060668588057160376,-0.9975671112537384,-17.974064630849373,8100.0,0.0159423828125,-18.183141449067882,0.941155856847763,0.0,0.33207724917569476,0.5107681979610966,-2.1367330876990307,-5.702139428921714,0.4,0.0001426823073416017,-0.17357269078493118,-11.405618289747071,0.0,5.447987038609123,0.0010871996142668649,0.9310793237971391,0.13333333333333333,-11.506785128895293,-0.05672618355602026,-0.9995246931910515,4250028.0,-5.641906614051274,-0.7640230217759381,80,11.339257301818261,-1.2219401196983597,4.245329671724637,0.7029301941394805,-11.555685212572609,3845.0,0.23818359375
0.7562557950615882,-11.957315488277406,1944.0,1230.0,0.5089093387126923,0.0,-5.569476032320513,0.047762702032923696,-0.0614742124453187,-0.9976619422435761,-17.615563766815374,8200.0,0.01669921875,-17.67432408312308,0.94369907528162,0.0,0.35802469135802467,0.5475769284723611,-2.1096205640220433,-5.961561585863596,0.58,0.00013584884582087397,-0.1731377098709345,-12.097028579767088,0.0,5.730630412858475,0.0010629180484102107,0.9238793346489992,0.13333333333333333,-11.194803734044111,-0.056530341133475305,-0.999548165500164,4299465.0,-5.879579784968535,-0.7593780073770177,81,12.072936929115972,-1.2254710409994132,4.306610391203791,0.7044062167406082,-12.218788442028956,3547.0,0.2630615234375
0.758937020599842,-12.27143388202291,1955.0,1245.0,0.5097273051738739,0.0,-6.0283558891704185,0.04788724584504962,-0.06116325790062547,-0.9978656664490699,-16.92150461263238,8300.0,0.0171875,-14.79444810282643,0.9457204058766365,0.0,0.3723785166240409,0.5988842854039877,-2.0735630994222447,-6.406662388816993,0.57,0.0001348062529359595,-0.17257425412535668,-12.405181628931238,0.0,6.190608375541987,0.0010107517227879725,0.967144936577251,0.4,-11.903380427795629,-0.05640296712517738,-0.999551747739315,4346967.0,-6.332158047288468,-0.764524165965122,82,12.449516999666582,-1.1974656569286417,3.694898549040983,0.7058454975485802,-12.52517710154064,4809.0,0.2511962890625
0.7588032230734825,-12.083651428823977,2118.0,1260.0,0.5117216050624848,0.0,-5.9291847308619605,0.048168185818940404,-0.0615009643137455,-0.997947347164154,-17.653142922856034,8400.0,0.0162353515625,-15.611787880817568,0.9499918594956398,0.0,0.35127478753541075,0.5733865015185329,-2.089879902213215,-6.336358373383987,0.5,0.00013591377228294732,-0.17179537564516068,-12.2754242597159,0.0,6.109467645653899,0.0009898395248455927,0.9976068747960405,0.2,-11.876519287722925,-0.05750421332195401,-0.999547928571701,4399710.0,-6.2620470040503955,-0.7717925024626311,83,12.222671591352185,-0.9741365571310066,3.4852162290342235,0.7097882270812989,-12.371373465348489,9193.0,0.1987060546875
0.7610119238495827,-5.981283689620222,2045.0,1275.0,0.5131829142570495,0.0,-5.833437699495889,0.04807042432948947,-0.06329722702503204,-0.9976794689893722,-16.349648986880084,8500.0,0.0174560546875,-15.738835164970654,0.954880565404892,0.0,0.3589242053789731,0.6905923672422372,-2.022155465060132,-6.206693565303619,0.51,0.00013221696663094916,-0.17284674532711505,-6.557226587621197,0.0,6.008452543906897,0.0010584288451354952,0.9643496954496596,0.06666666666666667,-11.264555581638723,-0.05795015841722488,-0.9995606273412705,4451191.0,-6.130866759648621,-0.7805481166211393,84,6.001092890285024,-1.345445671856003,5.645416892453727,0.717479008436203,-6.946927463922114,5582.0,0.2391845703125
0.7626504927873612,-11.345118777422403,1947.0,1290.0,0.5138154998421669,0.0,-5.858655959801011,0.04837264670059085,-0.06472035702317953,-0.9977322444319725,-14.681407645060673,8600.0,0.0162109375,-19.675387738897257,0.9624788343906403,0.0,0.35130970724191063,0.7146520438272442,-2.057819292086424,-6.227119802196796,0.58,0.000130569125758484,-0.17256326489150525,-11.55612744659423,0.0,6.015278934693374,0.0010449165871250442,0.9831184367938323,0.0,-10.841141285267774,-0.05699988640844822,-0.9995662823319436,4501806.0,-6.16465940126445,-0.7825270696292137,85,11.576955623929951,-1.2817111087210797,4.460758575930806,0.7193446576595306,-11.672122498440242,7523.0,0.2580322265625
0.765780571103096,-12.158438918417184,1775.0,1305.0,0.5148900002241135,0.0,-5.570959502033814,0.04860820053145289,-0.06584512759000063,-0.9979030847549438,-16.747171984487426,8700.0,0.017431640625,-16.23682905295351,0.9686822548508645,0.0,0.3442253521126761,0.647341265333592,-2.014539247103676,-5.944788178525444,0.67,0.00014422844196815277,-0.1736760124564171,-12.244163992961251,0.0,5.719996346241008,0.0010011732258135453,0.958516536035175,0.06666666666666667,-9.926746632076672,-0.056098897196352485,-0.9995194017887116,4548336.0,-5.882546064161028,-0.7753925446962967,86,12.367314075628121,-1.2211796210157886,4.562202752457037,0.7213209435343743,-12.362544994814442,5231.0,0.24228515625
0.7659227803349495,-10.725789049974274,1882.0,1320.0,0.5155034676194191,0.0,-5.4910921273376,0.04882076820358634,-0.06625984702259302,-0.9979547306895256,-17.25995027640071,8800.0,0.017529296875,-13.838428616094614,0.9742018565535545,0.0,0.27948990435706694,0.669192519751998,-2.0185987910157563,-5.846750140721509,0.59,0.000155459138295555,-0.1751391038298607,-10.967327490535643,0.0,5.654299342445624,0.0009879480581730603,0.8933717579250721,0.13333333333333333,-9.996714500402383,-0.05663651209324598,-0.9994808435440063,4599931.0,-5.765681080469021,-0.7692854942426492,87,10.834477757789804,-1.4750362804685881,6.652435724308971,0.7231202304363251,-11.072898815732799,2776.0,0.2257568359375
0.7662796631455422,-12.741166118885753,1854.0,1335.0,0.5184570267796517,0.0,-5.990176882343237,0.049821638595312835,-0.06555459275841713,-0.9979468137025833,-16.142751219783168,8900.0,0.0169189453125,-16.39328643327039,0.9773250043392181,0.0,0.3182308522114347,0.7132407905151394,-2.0332269383558015,-6.340232609463614,0.63,0.00015528219155385158,-0.17711437083780765,-12.603748529640121,0.0,6.166995377223522,0.000989975685661193,0.9384515711046323,0.06666666666666667,-11.106323057373158,-0.05608275523409247,-0.9994814619421959,4650323.0,-6.274104565767581,-0.7691757829317794,88,12.937069700805313,-3.0643896737206457,4.784474246370734,0.724551048874855,-12.69540727513708,3087.0,0.201123046875
0.7680320709943771,-9.969169485564999,1906.0,1350.0,0.5201739743351936,0.0,-5.277715560118802,0.05007372498512268,-0.06442834977060556,-0.9980975747108459,-17.522035616920785,9000.0,0.016796875,-18.556522769340702,0.984818448126316,0.0,0.30272822665267574,0.6577423739330569,-1.977930153761554,-5.636316610727066,0.56,0.00016466198721900582,-0.17877645529806613,-10.180593479406028,0.0,5.4541499988819195,0.0009513745520962402,0.8882099209202013,0.0,-11.368430011904788,-0.057370289228856564,-0.9994492545723915,4702034.0,-5.5506478338312295,-0.7603603603496595,89,10.21860477910115,-1.4701828076446786,6.331753010414365,0.7238218694925308,-10.304520306787966,2782.0,0.1880859375
0.7712174534797669,-13.050042791103943,2093.0,1365.0,0.5221311450004578,0.0,-4.667676659518036,0.05034844717010856,-0.06412012502551079,-0.9972962722182274,-15.793293233274461,9100.0,0.0177490234375,-14.924905942332144,0.9929467976093292,0.0,0.22790253225035834,0.8507381947407154,-2.0448746083846343,-4.957117480928368,0.43,0.0001705297785520088,-0.17868284359574318,-12.796596844239387,0.0,4.778315705507821,0.0011565469700144603,0.7793278376664553,0.0,-9.283438422857824,-0.0584748730994761,-0.9994291141629219,4761222.0,-4.871890373955745,-0.7510901878489676,90,13.285978952623475,-1.3418347388619887,4.68586750762815,0.7259803235530853,-12.883967272895472,1577.0,0.163330078125
0.7727443650364876,-13.89460773236068,2479.0,1380.0,0.5235121339559555,0.0,-5.510022964274304,0.05054556764662266,-0.06409429963678122,-0.9968066349625587,-15.513826782627365,9200.0,0.0169677734375,-20.557596443222607,0.9985938847064972,0.0,0.1218233158531666,0.6616908194079661,-2.1694287108355637,-5.814758149580603,0.15,0.00018121669818356169,-0.17451504282653332,-13.440121649386048,0.0,5.6355925267907825,0.0012819213938200847,0.6877104377104377,0.0,-7.366224741842925,-0.05836885357275605,-0.9993924260139465,4834212.0,-5.7578011102253575,-0.746851279988914,91,14.076034482885495,-1.8371659792114334,5.4507322936509,0.7264159426093102,-13.567735334488257,1188.0,0.144677734375
0.7734755292534828,-14.000787952362696,2430.0,1395.0,0.5244509741663933,0.0,-5.075058178750058,0.050621030014008285,-0.06460881028324365,-0.9968834742903709,-18.94647343749602,9300.0,0.0152587890625,-19.725859025781716,1.0046176880598068,0.0,0.11275720164609053,0.7196391942004071,-2.2251302924509218,-5.360244604568571,0.25,0.00016644626812194473,-0.174964589625597,-13.643468679503144,0.0,5.101552155422509,0.0012622483336599544,0.3275563258232236,0.06666666666666667,-8.599048227035144,-0.058136447332799435,-0.9994431212544441,4905356.0,-5.320344307295158,-0.7346142000915279,92,14.136121531954654,-0.9128938749166806,4.802608939773422,0.7255896463990211,-13.74895792987483,577.0,0.1623046875
0.7756801322102547,-6.69719290125686,2165.0,1410.0,0.5269797936081886,0.0,-5.0018280855051085,0.050626001227647065,-0.06384435128420592,-0.9970239788293839,-17.46132719578628,9400.0,0.0164306640625,-16.500648639566467,1.0079213947057724,0.0,0.274364896073903,0.6257985440286159,-2.231519181319527,-5.317368819520697,0.42,0.00015599268353980734,-0.17524920217692852,-7.190776663974378,0.0,5.128625991350807,0.0012262677366379649,0.8081504702194358,0.06666666666666667,-8.864073757950276,-0.05823148498311639,-0.9994790136814118,4963626.0,-5.272752453789309,-0.7357034935910634,93,6.780582807012567,-1.0487333680268478,3.888791552082388,0.7275201797485351,-7.560398375100857,1595.0,0.1895751953125
0.7777728274464607,-15.620213105730784,2057.0,1425.0,0.5304623246192932,0.0,-4.901262686279315,0.05074788574129343,-0.06502972822636366,-0.9970978200435638,-17.054808407926874,9500.0,0.0162109375,-13.859284802901428,1.0121694833040238,0.0,0.26737967914438504,0.596116594690295,-2.3397895952188263,-5.25151707183206,0.5,0.00014886128719808766,-0.1763141393661499,-15.040519866528916,0.0,5.066137019032975,0.0012073608202626928,0.4125560538116592,0.0,-7.3739653472344004,-0.05760203935205936,-0.9995034888386727,5020527.0,-5.164394545009405,-0.7427591739866329,94,15.657215669917548,-1.347670408987098,4.179865951218316,0.7287236765027046,-15.146129606764072,669.0,0.196484375
0.778956800699234,-15.841325468026952,2258.0,1440.0,0.5350510165095329,0.0,-4.7300265705429005,0.05053936000913382,-0.06542337518185377,-0.9968542575836181,-17.958712399101493,9600.0,0.0159912109375,-16.70845966542885,1.0179548501968383,0.0,0.2732506643046944,0.584791868437099,-2.3368722585906654,-5.08296654599117,0.32,0.00013285179829836125,-0.17859437726438046,-15.336639590597297,0.0,4.874395003626947,0.001269725285237655,0.9563679245283019,0.0,-9.456455401533123,-0.05779489986598492,-0.9995584517717362,5080419.0,-5.018078195663466,-0.7511591440321354,95,15.872610123634132,-1.3718104683151124,3.3428098700413345,0.7323500022292138,-15.457225929232186,5088.0,0.2279541015625
0.7779988884925843,-15.803429172410892,2204.0,1455.0,0.5374154195189476,0.0,-5.036604838601896,0.050425772275775674,-0.06517437417060137,-0.9974242672324181,-18.075414891259097,9700.0,0.0167724609375,-17.62445242318847,1.021662950515747,0.0,0.382486388384755,0.6289214867531824,-2.1852203254256892,-5.407862153913695,0.41,0.00012539150284283097,-0.18036912865936755,-15.333487793855216,0.0,5.20289393183141,0.001123774664301891,0.9731819677525502,0.0,-7.9928544428262445,-0.05702625159174204,-0.9995840534567833,5134596.0,-5.310366430896723,-0.756200946577519,96,15.82701894628579,-1.168762209397024,3.2401956144770265,0.734373864531517,-15.48651469344583,6078.0,0.236376953125
0.7778369978070259,-14.755649765271272,2193.0,1470.0,0.5367104902863502,0.0,-4.97019900694606,0.050356654170900586,-0.06585730873048305,-0.9975327104330063,-17.720084315280772,9800.0,0.0166748046875,-17.761534831390637,1.0248279720544815,0.0,0.35248518011855906,0.7205166752643738,-2.162322630505514,-5.33454091851643,0.36,0.00011841752893815283,-0.18012931942939758,-14.574252624178452,0.0,5.147539783807952,0.0010960086103295908,0.9500871839581517,0.06666666666666667,-8.625554676510395,-0.05562255112454295,-0.9996079862117767,5189596.0,-5.24178186939077,-0.7653988263908105,97,14.839783384352035,-1.4986319280817808,3.1315614952642656,0.7360674127936363,-14.685689872802703,4588.0,0.2937744140625
0.7782268941402435,-12.497338315970856,1808.0,1485.0,0.5380284562706947,0.0,-4.9459179831881865,0.05013263588771224,-0.06622596699744462,-0.997628228366375,-16.331584139812662,9900.0,0.0170166015625,-17.350122711180756,1.0283143877983094,0.0,0.3368362831858407,0.6616213187131783,-2.077550371068355,-5.331435117561455,0.68,0.00011955661993852118,-0.1815791144967079,-12.682236810888039,0.0,5.119777397586752,0.0010715473516029305,0.8179812465526751,0.13333333333333333,-8.896362633675693,-0.05663202730938792,-0.9996040850877762,5237028.0,-5.2570054613619295,-0.7737291476420068,98,12.708627249597281,-1.356671102506216,4.773207173518405,0.7403417691588402,-12.824811086116664,1813.0,0.278466796875
0.7800715759396553,-12.122952078119043,2290.0,1500.0,0.5421033009886742,0.0,-4.637904099627702,0.05023633176460862,-0.06492688581347465,-0.9977005958557129,-18.169952474512062,10000.0,0.01591796875,-18.98978689551613,1.0341711044311523,0.0,0.30305676855895197,0.6898208881893664,-2.0441700232011497,-5.025494578263904,0.34,0.0001239731893292628,-0.18314696215093135,-12.3588527436005,0.0,4.7826297256687065,0.0010530212821322493,0.9085827030582045,0.06666666666666667,-8.5640863284227,-0.05583705008029938,-0.9995889365673065,5296346.0,-4.9693752771402115,-0.7732126619066548,99,12.34100041257867,-1.306818235983009,3.9829150008089855,0.7457269087433815,-12.492433454000444,3041.0,0.2959228515625
