ReemS3/reg_curious_hac/data/d4a6886/CausalDependenciesMujocoEnv-o1-v0/alg:chac|eta:0.75|fw:1|fwhidsiz:256,256,256|nlev:2|reg:False|rolbatsiz:1|timsca:27,27|100/progress.csv
train_0/q_loss,test_1/avg_q,train_1/next_q,train_1/mu_grads_std,train_1/reward_-0.0_frac,train_1/current_q,train_1/avg_q,train_0/q_grads_std,train_0/reward_-0.0_frac,train_0/reward,train_0/mu_grads,train_1/fw_loss,policy/steps,train_1/n_subgoals,train_0/current_q,train_1/reward,train_0/reward_-1.0_frac,train_1/fw_bonus,train_0/next_q,train_1/reward_-1.0_frac,test_0/avg_q,train_1/q_loss,test_1/subgoal_succ_rate,train_1/mu_loss,train/success_rate,train_1/target_q,test/success_rate,test_1/n_subgoals,train_1/subgoal_succ_rate,epoch,train_0/q_grads,train_0/mu_grads_std,test/episodes,train_0/fw_bonus,train_0/target_q,train_1/q_grads,train_1/q_grads_std,train/episodes,train_0/fw_loss,train_1/mu_grads,train_0/mu_loss,train_1/reward_-27.0_frac,train_0/avg_q
0.5840359392232786,-23.24435156454898,-19.336854850732557,0.08567300904542208,0.0,-16.687199139092527,-12.998934473421068,0.16014103218913078,0.0,-0.6316074118374673,-0.009634867683053017,0.001493729540379718,87410.0,2693.0,-4.40830764560457,-2.580153321029866,0.0031982421875,-0.9965898498892785,-4.237785868478276,0.0083740234375,-2.6095696642108406,33.31233742662232,0.1118421052631579,19.445929909887866,0.02,-16.608386275309424,0.0,760.0,0.06424062383958411,0,0.022606802638620138,0.1609560340642929,25.0,-0.9988905861973763,-4.292760183177353,0.03475518748164177,0.21979712955653669,100.0,0.0002645187207235722,0.02315344549715519,4.253335574799206,0.0,-2.082502559049464
0.7592421113537665,-21.10223116917638,-22.890636851171145,0.08594654630869628,0.0,-20.03970341490363,-21.7853975432931,0.18033842854201793,0.0,-0.6599142154118454,-0.014662552787922323,0.0018133674224372954,170468.0,2631.0,-2.5584928837220318,-2.5295989592767,0.000439453125,-0.9954221978783607,-2.386920564846362,0.0099853515625,-0.4184369532884558,19.55753372930635,0.0,22.91291353185084,0.05,-20.01015733205636,0.0,675.0,0.12276700874192323,1,0.015667193406261503,0.19874024540185928,50.0,-0.9985191702842713,-2.6525966786270745,0.036275957245379686,0.3186645656824112,200.0,0.00035106130453641524,0.023379935743287207,2.401210903605862,0.0,-4.901575849030056
0.5928914823914431,-21.780590932114947,-22.092963297439336,0.08595093507319689,0.0,-19.524554075336813,-21.65957806360159,0.19535115100443362,0.0,-0.6738619585517881,-0.019320433121174575,0.0018619317270349711,249247.0,2559.0,-4.044113597208074,-2.4597548029316387,0.001123046875,-0.9952448010444641,-3.8171070522512993,0.010498046875,-2.7020016302234153,11.96143123375234,0.0791268758526603,22.10830799695093,0.12,-19.503093044924086,0.0,733.0,0.170379054318093,2,0.01368282234761864,0.22434405907988547,75.0,-0.9984263360500336,-4.008952247850667,0.03439523568376899,0.3564204253256321,300.0,0.0003726880626345519,0.023383719753473996,3.887531230693191,0.0,-4.623806614580094
8.528370222770027,-20.289208376346288,-22.535771457742594,0.08595131356269121,0.0,-19.391314146672016,-21.561858223786345,0.23017630875110626,0.0,-0.6759521375421172,-0.011037676455453038,0.0017797539097955451,335305.0,2620.0,-14.445625359352722,-2.490170427654084,0.00283203125,-0.9955449968576431,-16.39215851487338,0.010546875,-26.999999999061657,10.56623260431716,0.0,22.533510448775093,0.07,-19.35989220796774,0.0,675.0,0.0583969465648855,3,0.01921332096680999,0.253000458329916,100.0,-0.9985839337110519,-14.467296673910102,0.0341548478230834,0.37814152166247367,400.0,0.0003359682857990265,0.023384020570665597,16.609684239731774,0.0,-9.59562460762794
0.5739977784777384,-21.92108141202362,-22.96341395899964,0.08595215491950511,0.0,-18.78819657948238,-21.473718346408795,0.2343999519944191,0.0,-0.6592507604975253,-0.01680912636220455,0.0017058461991837249,425052.0,2700.0,-7.58273795819093e-06,-2.483975718961665,0.0008056640625,-0.9958149790763855,-4.966110947945962e-06,0.010546875,-2.4139840373311782e-11,12.56237270705147,0.09879839786381843,22.94391766206501,0.0,-18.83455130038825,0.0,749.0,0.022962962962962963,4,0.018632409768179058,0.2646693289279938,125.0,-0.9987950250506401,-0.6592556272831341,0.03222836665809155,0.3960905224084854,500.0,0.00028678257658611985,0.023384769447147846,4.036552967459374e-06,0.0,-18.52382621521538
0.5672230068194704,-22.01849058223322,-23.283244697750515,0.08594898767769336,0.0,-18.672380064022267,-21.406981521169495,0.23439640924334526,0.0,-0.6538230158777878,-0.01680912636220455,0.0017704800091451034,512526.0,2700.0,-2.4118323114480554e-07,-2.448797062344602,0.0033447265625,-0.9955788865685463,-1.1043235380621836e-07,0.0109619140625,-3.761208828783023e-11,9.92101804180298,0.07280219780219781,23.2953780156832,0.0,-18.788379072742195,0.0,728.0,0.06222222222222222,5,0.018640683451667427,0.2646693289279938,150.0,-0.9989102140069008,-0.6538231240962377,0.030688156746327876,0.40739592984318734,600.0,0.00025994196148531045,0.023380897659808397,1.0422203550409018e-07,0.0,-3.216582753752559e-11
0.565419083508895,-22.176194401753285,-23.407076009589588,0.08594843745231628,0.0,-18.137409717175558,-21.39008146802145,0.23442638888955117,0.0,-0.6523692907168879,-0.01680912636220455,0.0016936077357968316,599867.0,2700.0,-1.480855901924071e-07,-2.4729273234272116,0.00498046875,-0.9958596915006638,-1.8112354189128022e-08,0.00859375,-6.374466497380443e-11,9.425524076565072,0.07660738714090287,23.422775824003764,0.0,-18.248947653078396,0.0,731.0,0.06555555555555556,6,0.01864006952382624,0.2646693289279938,175.0,-0.9991011783480644,-0.6523693084611029,0.029956719977781175,0.41603686287999153,700.0,0.00021544737028307283,0.023380154743790627,1.983971141238617e-08,0.0,-2.989388673526952e-11
0.5503975139893634,-20.698765104240856,-24.128218891045343,0.08594843745231628,0.0,-18.053302551547546,-21.2761868562267,0.2344164326786995,0.0,-0.6403399176688254,-0.01680912636220455,0.0015970671840477735,687092.0,2700.0,-1.7536558893184005e-08,-2.4789297967774475,0.010009765625,-0.9962123617529869,-6.598772610067443e-09,0.0088134765625,-4.347183466952558e-11,10.43957876500733,0.08906882591093117,24.13130042483319,0.0,-18.1943921930293,0.0,741.0,0.06444444444444444,7,0.01863813498057425,0.2646693289279938,200.0,-0.9993235394358635,-0.6403399241278188,0.02666654996573925,0.4189930781722069,800.0,0.00016363826107408387,0.023380154743790627,4.650820065340221e-09,0.0,-2.244286974093232e-11
0.533036304386935,-20.696318798120668,-24.342134756309374,0.08594843745231628,0.0,-17.817841380312036,-20.70255184417985,0.23434500396251678,0.0,-0.6264362152614922,-0.01680912636220455,0.0013804929243633524,773809.0,2700.0,-4.443137561479953e-13,-2.4904435048894813,0.0350830078125,-0.9970035061240197,-5.378620969340748e-13,0.009228515625,-1.8111732915937727e-12,9.54950631610911,0.0778688524590164,24.336330284059493,0.0,-17.995903207504284,0.0,732.0,0.07481481481481482,8,0.018667686730623245,0.2646693289279938,225.0,-0.9995925024151802,-0.6264362152618324,0.02450341284275055,0.42393445745110514,900.0,0.00010096461974171689,0.023380154743790627,5.362392097160296e-13,0.0,-1.4484196794043137e-11
0.5527421551179218,-20.97395936602128,-24.207735792494123,0.08594843745231628,0.0,-18.239288846162072,-20.921897038614325,0.23434500396251678,0.0,-0.6422010651112942,-0.01680912636220455,0.0012442479288438334,860936.0,2700.0,-5.571357028875221e-13,-2.5399148535154383,0.037353515625,-0.9975012198090554,-6.684814698974909e-13,0.00947265625,-1.1175541031532959e-12,9.532332702067801,0.08536585365853659,24.224329215754512,0.0,-18.426045575538236,0.0,738.0,0.0674074074074074,9,0.018667686730623245,0.2646693289279938,250.0,-0.9995903983712197,-0.6422010651117187,0.024535702960565686,0.4352221354842186,1000.0,0.0001014594237858546,0.023380154743790627,6.676092249639025e-13,0.0,-9.624763064393582e-13
0.5449108300748771,-21.018638752526574,-24.252699864786102,0.08594843745231628,0.0,-18.24049966769029,-20.887138653491533,0.23434500396251678,0.0,-0.6359334905853757,-0.01680912636220455,0.001127428625477478,948382.0,2700.0,-5.914343277970033e-13,-2.5280830639105263,0.0450439453125,-0.9979279473423958,-7.178025992901624e-13,0.0104248046875,-1.5640963941237468e-12,5.137144573055376,0.08412483039348712,24.27036808115684,0.0,-18.423505965297494,0.0,737.0,0.06259259259259259,10,0.018667686730623245,0.2646693289279938,275.0,-0.9996421605348587,-0.635933490585812,0.024448474310338496,0.44616334363818166,1100.0,8.939624294725945e-05,0.023380154743790627,7.165925549236487e-13,0.0,-1.2574285223848166e-12
0.539769871937825,-21.088871209410435,-24.266697664388474,0.08594843745231628,0.0,-18.184312866810455,-20.968254918460726,0.23434500396251678,0.0,-0.6318222983969463,-0.01680912636220455,0.0010231538573862054,1035326.0,2700.0,-5.173093429021573e-13,-2.507157786090829,0.07216796875,-0.998308876156807,-6.208766978345209e-13,0.0096435546875,-7.917310458034972e-13,4.745392340907498,0.08906882591093117,24.28585647208398,0.0,-18.360724725404317,0.0,741.0,0.07037037037037037,11,0.018667686730623245,0.2646693289279938,300.0,-0.9996768906712532,-0.6318222983973335,0.023390836222097276,0.45566204711794855,1200.0,8.130542119033635e-05,0.023380154743790627,6.205173376550757e-13,0.0,-5.771699134594019e-13
0.5466428889536816,-20.441014001845552,-24.253626163429185,0.08594843745231628,0.0,-18.1228549425207,-20.801422773964216,0.23434500396251678,0.0,-0.6373206986649166,-0.01680912636220455,0.0009404274474945851,1122181.0,2700.0,-5.267945958479359e-13,-2.4668036506926,0.093359375,-0.9986110702157021,-6.299598877379332e-13,0.0095947265625,-1.4249907635993037e-12,4.236316844261521,0.09029649595687332,24.273590964118636,0.0,-18.29949012541939,0.0,742.0,0.07148148148148148,12,0.018667686730623245,0.2646693289279938,325.0,-0.9996978312730789,-0.6373206986652986,0.02301434352993965,0.46394956707954405,1300.0,7.642516011401313e-05,0.023380154743790627,6.328174577989994e-13,0.0,-9.307996245967065e-13
0.5478786918779905,-20.8201774100071,-24.341676665713926,0.08594843745231628,0.0,-18.25110677576668,-20.856116945902787,0.23434500396251678,0.0,-0.6383103214189759,-0.01680912636220455,0.0008999896017485298,1209730.0,2700.0,-5.718992448436018e-13,-2.564417482855788,0.1097900390625,-0.9987588107585907,-6.805246136038661e-13,0.00947265625,-1.257964282090017e-12,4.580209669102641,0.08783783783783784,24.348912668310668,0.0,-18.409470313253426,0.0,740.0,0.061481481481481484,13,0.018667686730623245,0.2646693289279938,350.0,-0.9997012376785278,-0.6383103214194055,0.02146165566518903,0.47153095006942747,1400.0,7.562999062429298e-05,0.023380154743790627,6.814895523180521e-13,0.0,-1.0653984897987963e-12
0.5472619353710833,-20.799513121745825,-24.314720505717144,0.08594843745231628,0.0,-17.98377996271043,-20.892050954912467,0.23434500396251678,0.0,-0.6378165028367221,-0.01680912636220455,0.0008624297784990631,1296919.0,2700.0,-5.433845414985791e-13,-2.537114137725439,0.1297119140625,-0.9988960012793541,-6.572184805522895e-13,0.009619140625,-1.9857721690864034e-12,3.544382330389804,0.08288043478260869,24.32676699155793,0.0,-18.17521750196242,0.0,736.0,0.06592592592592593,14,0.01866767555475235,0.2646693289279938,375.0,-0.9997035145759583,-0.6378165028371313,0.019867649720981716,0.47664774730801585,1500.0,7.510233272114419e-05,0.023380154743790627,6.56230814119675e-13,0.0,-9.058775416136373e-13
0.5441802850116664,-20.891845352537143,-24.216140498501723,0.08594843745231628,0.0,-17.990876727487244,-20.85286709015445,0.23434500396251678,0.0,-0.6353485954918142,-0.01680912636220455,0.0007996056490810588,1383405.0,2700.0,-5.039838323464319e-13,-2.498334842375698,0.12822265625,-0.9991255074739456,-6.075143776453441e-13,0.00927734375,-1.4273526306701705e-12,4.933852102927217,0.07024793388429752,24.236140365074096,0.0,-18.175993322227207,0.0,726.0,0.07740740740740741,15,0.018667645752429962,0.2646693289279938,400.0,-0.9997195824980736,-0.635348595492194,0.0192105817142874,0.4800927512347698,1600.0,7.135876285246923e-05,0.023380154743790627,6.071550084217271e-13,0.0,-6.714028893977181e-13
0.544435270293566,-20.363219734438506,-24.28274512814769,0.08594843745231628,0.0,-18.07953319291672,-20.885204421327217,0.2343449890613556,0.0,-0.6355534009311669,-0.016809122636914253,0.0007711131023825146,1470833.0,2700.0,-4.67223309356187e-13,-2.5148586664243338,0.1394287109375,-0.9992295861244201,-5.596389324717288e-13,0.009375,-9.54025956411709e-13,3.8748969244894496,0.09029649595687332,24.29863236583403,0.0,-18.25533949761371,0.0,742.0,0.06222222222222222,16,0.018667525425553323,0.2646693289279938,425.0,-0.9997331306338311,-0.6355534009315146,0.01823143460787833,0.4860342226922512,1700.0,6.819978680141502e-05,0.023380154743790627,5.612402660907928e-13,0.0,-6.650856578688529e-13
0.5440019749843212,-26.99978661592908,-26.816049202962905,0.08594843745231628,0.0,-20.457989997187198,-23.25922207396872,0.23434401340782643,0.0,-0.6352056852731038,-0.016809115186333656,0.0007190826116129756,1557653.0,2700.0,-4.821187021707057e-13,-2.4929152163047545,0.112255859375,-0.9994196623563767,-5.798123300873525e-13,0.0078369140625,-3.2109315014291007e-12,11.234748136489761,0.08163265306122448,26.8111190589255,0.0,-20.072718344789468,0.0,735.0,0.07074074074074074,17,0.01866688933223486,0.2646693289279938,450.0,-0.9997338682413102,-0.6352056852734657,0.019970760541036726,0.49172016605734825,1800.0,6.802768957641092e-05,0.023380154743790627,5.7890406467094e-13,0.0,-9.671209773347647e-13
0.5424500753817741,-20.61442675895965,-24.324876526318103,0.08594843745231628,0.0,-18.28852408633979,-24.19365560759519,0.23434148095548152,0.0,-0.6339647151253303,-0.01680910773575306,0.0006797552137868479,1644510.0,2700.0,-4.860693261555682e-13,-2.496027306319229,0.176171875,-0.9995633125305176,-5.859443941998816e-13,0.0092041015625,-1.2737697214265717e-12,4.319172009550263,0.09395973154362416,24.337673199606392,0.0,-18.46522462477259,0.0,745.0,0.07222222222222222,18,0.01866549435071647,0.2646693289279938,475.0,-0.9997504577040672,-0.6339647151256935,0.016557770548388362,0.4976042494177818,1900.0,6.416250535039581e-05,0.023380154743790627,5.836846996504324e-13,0.0,-7.63427763220462e-13
0.5426083909495674,-21.025214013042717,-24.290329897626812,0.08594843745231628,0.0,-18.343746198549365,-20.667644883178088,0.23433641903102398,0.0,-0.6340921377624908,-0.016809098422527313,0.0006912971279234625,1731507.0,2700.0,-5.300654618443618e-13,-2.5013451338854793,0.149365234375,-0.9995211571455002,-6.369283173159008e-13,0.0093505859375,-2.9173519050346192e-12,3.239501846161331,0.08163265306122448,24.313657158817065,0.0,-18.52750427618283,0.0,735.0,0.06925925925925926,19,0.018663095217198132,0.2646693289279938,500.0,-0.999747459590435,-0.6340921377628848,0.01564678722061217,0.50230463296175,2000.0,6.486264783234219e-05,0.023380154743790627,6.377494683724032e-13,0.0,-7.44083412723536e-13
0.5475982555333945,-20.58125476520377,-24.344277969577888,0.08594843745231628,0.0,-18.35401935590226,-20.884781180413583,0.23432877659797668,0.0,-0.6380837549990247,-0.01680908352136612,0.0006385263128322549,1818464.0,2700.0,-6.547402790202903e-13,-2.4685075850731666,0.1408447265625,-0.9997139185667038,-7.857575072383199e-13,0.008984375,-1.5264079011705912e-12,3.1894235525804273,0.08163265306122448,24.36168457762905,0.0,-18.541607467093925,0.0,735.0,0.07,20,0.018659807415679096,0.26466935873031616,525.0,-0.9997471287846565,-0.6380837549995105,0.015487693133763969,0.5072889566421509,2100.0,6.493902337751933e-05,0.023380154743790627,7.82758060372101e-13,0.0,-1.0140823844602135e-12
0.5411282019618426,-26.99995004742712,-26.910581099201217,0.08594843745231628,0.0,-20.901556003608356,-24.053739317296298,0.2343174185603857,0.0,-0.6329063081113417,-0.01680907467380166,0.000654066055722069,1905757.0,2700.0,-9.40245381668618e-13,-2.507238509169838,0.152734375,-0.9996571585536003,-1.128226942296138e-12,0.0097900390625,-3.458987768610432e-12,9.066644104377124,0.08288043478260869,26.900718200629353,0.0,-20.621729434943678,0.0,736.0,0.06407407407407407,21,0.018655179394409062,0.26466935873031616,550.0,-0.999764883518219,-0.6329063081120289,0.01714086807332933,0.5125147223472595,2200.0,6.0802739335485966e-05,0.023380154743790627,1.126074300190537e-12,0.0,-1.4457180626738318e-12
0.5453394654463842,-26.99987636752741,-26.92685881159713,0.08594843745231628,0.0,-20.78132273328635,-26.989883681250337,0.23430029302835464,0.0,-0.6362754791276529,-0.016809046268463135,0.0005950716658844613,1992858.0,2700.0,-1.5399725039466275e-12,-2.56123525897965,0.180029296875,-0.9998726651072503,-1.8345907359274628e-12,0.0088134765625,-3.679599120783581e-12,8.093680222209136,0.09152086137281291,26.924318614233687,0.0,-20.479242026201376,0.0,743.0,0.06666666666666667,22,0.01864828784018755,0.26466935873031616,575.0,-0.9997649908065795,-0.6362754791287901,0.0173736497759819,0.5172209501266479,2300.0,6.077451926103095e-05,0.023380154743790627,1.8302110700463747e-12,0.0,-2.2245856276372035e-12
0.5435099428642387,-26.985097595326913,-26.97431223529237,0.08594843745231628,0.0,-20.749542438726408,-26.744153602635112,0.2342661004513502,0.0,-0.6348121988950879,-0.01680898847989738,0.0005666990895406343,2079577.0,2700.0,-4.1578276260291804e-12,-2.5167116087293833,0.1794189453125,-0.9999763250350953,-4.908490435331745e-12,0.0086669921875,-9.211875868897104e-12,6.758583673637827,0.08906882591093117,26.968194982594355,0.0,-20.502547159691296,0.0,741.0,0.07296296296296297,23,0.018634508829563856,0.26466938853263855,600.0,-0.9997712358832359,-0.6348121988981619,0.019977183500304817,0.5216269135475159,2400.0,5.9317380055290415e-05,0.023380154743790627,4.911438173923348e-12,0.0,-3.0236439930183704e-12
0.29012513776583104,-26.575524562334188,-26.939563485931256,0.08594843745231628,0.0,-20.973642176359025,-26.976684842739356,0.23455227054655553,0.0,-0.6363620376436302,-0.016238006157800557,0.0006838077650172635,2167142.0,2700.0,-0.37165418935298594,-2.519534346774526,0.145849609375,-0.9995485141873359,-0.01320581248421882,0.008154296875,-0.022051375540659578,8.906635342894248,0.0,26.92804370575497,0.0,-20.703460424952343,0.0,675.0,0.058888888888888886,24,0.01875160080380738,0.26457498744130137,625.0,-0.9997450277209282,-0.6449167464185938,0.01996170128695667,0.5238395571708679,2500.0,6.542941537190927e-05,0.023380154743790627,0.014431017043178613,0.0,-0.0003334995646941336
0.5316710073539875,-26.99999999688488,-26.905697522520455,0.08594843745231628,0.0,-20.351260450383382,-26.9221094348891,0.2481340479105711,0.0,-0.6253673362221889,-0.023241201275959612,0.0006568271899595856,2257458.0,2700.0,-1.913298736620463e-05,-2.547885402938482,0.1800537109375,-0.9996470794081688,-1.7806116681299888e-06,0.0080322265625,-8.952236414559257e-06,8.560260096775488,0.08288043478260869,26.899775344330227,0.0,-20.03876235491833,0.0,736.0,0.013703703703703704,25,0.02016940447501838,0.26951941251754763,650.0,-0.9997847750782967,-0.62536901513792,0.0199280530679971,0.5264601916074753,2600.0,5.616754815491731e-05,0.023380154743790627,1.8443812686043515e-06,0.0,-3.3556216646754278
0.5383399371976586,-26.512990210786985,-26.9238703997784,0.08594843745231628,0.0,-20.447320006884162,-26.981461818708215,0.24832752645015715,0.0,-0.6306753754121018,-0.025509481318295002,0.0006740336291841231,2346624.0,2700.0,-1.2784420529647485e-06,-2.5683958107794753,0.1377197265625,-0.999584223330021,-2.489896138806428e-06,0.0072998046875,-6.038010779705347e-07,9.168039249763435,0.0,26.91524232218835,0.0,-20.15203745737292,0.0,675.0,0.0337037037037037,26,0.020244342926889657,0.26952523812651635,675.0,-0.9997034549713135,-0.6306777954422331,0.01914711412973702,0.5297013744711876,2700.0,7.511549138143892e-05,0.023380154743790627,1.979211341203316e-06,0.0,-0.007943865573861173
0.5114207639232513,-26.999999999999073,-26.92880291390021,0.08594843745231628,0.0,-20.113765356156314,-26.846996014576472,0.24825887717306613,0.0,-0.6091569192900351,-0.02541883019730449,0.0007432833124767057,2437749.0,2700.0,-3.799659262790756e-05,-2.547293749337405,0.148974609375,-0.9993312537670136,-2.6114832978419476e-06,0.0068115234375,-6.299968084022051e-08,9.17611024835039,0.0,26.921272906470193,0.0,-19.825814933166505,0.0,675.0,0.0,27,0.020232555316761137,0.2697702653706074,700.0,-0.9996159687638283,-0.6091594662568426,0.01997622912749648,0.5344381734728814,2800.0,9.550265112920898e-05,0.023380154743790627,9.254381592160038e-06,0.0,-5.715905421656282e-07
0.49666237026849347,-26.999996716259712,-26.958886714112417,0.08594843745231628,0.0,-19.876203237007076,-26.935649413282675,0.2483356673270464,0.0,-0.5973299106895865,-0.02511275131255388,0.0009759893102454953,2528231.0,2700.0,-5.575755743279734e-07,-2.5200182424236117,0.09423828125,-0.9984811767935753,-1.4940793180117612e-07,0.0075927734375,-7.017930856920881e-07,7.536294652695675,0.09152086137281291,26.94867458217426,0.0,-19.638033067875902,0.0,743.0,0.011851851851851851,28,0.02022231570445001,0.2707548327744007,725.0,-0.9995491236448288,-0.5973300436849321,0.02136386148631573,0.5389067754149437,2900.0,0.00011107286263722926,0.023380154743790627,1.4671173465344556e-07,0.0,-1.2552173918896245e-07
0.49195043392894106,-26.889346133492424,-26.977409605464185,0.08594843745231628,0.0,-19.76517079958135,-26.96999660592906,0.24859203808009625,0.0,-0.5935608552623307,-0.025164335360750557,0.0009141120841377415,2616720.0,2700.0,-1.963779109582891e-09,-2.4973696735036355,0.1334716796875,-0.998707203567028,-1.7444000796019016e-09,0.007763671875,-1.925339549859853e-08,7.190001567845343,0.0778688524590164,26.968585918214522,0.0,-19.526301183922705,0.0,732.0,0.04555555555555556,29,0.02034037238918245,0.27080279141664504,750.0,-0.9996340230107308,-0.5935608567750548,0.021743150847032666,0.5432011872529984,3000.0,9.128818255703664e-05,0.023380154743790627,1.7342249478418644e-09,0.0,-2.4374394015710326e-07
0.49863289545220013,-26.999999998506038,-26.975980459274513,0.08594843745231628,0.0,-20.17992201708905,-26.95549524185372,0.24860327802598475,0.0,-0.5989081602550869,-0.02519272151403129,0.000875601040024776,2704552.0,2700.0,-2.458366229674823e-09,-2.531938535356312,0.1224609375,-0.9988479003310203,-2.0630019356618686e-09,0.0087890625,-7.189800419044476e-09,6.862606790848313,0.08906882591093117,26.965624861239245,0.0,-19.94002069351353,0.0,741.0,0.05592592592592593,30,0.02033747094683349,0.270706594735384,775.0,-0.9996365427970886,-0.598908162060023,0.021201446885243058,0.5461625188589097,3100.0,9.070535088540055e-05,0.023380154743790627,2.0813248030957093e-09,0.0,-9.25812441772011e-09
0.4880688897814293,-27.0,-26.969803566879495,0.08594843745231628,0.0,-20.14055912827055,-26.990308831413415,0.24863545447587967,0.0,-0.5904574861004221,-0.02522558574564755,0.000792051806638483,2792110.0,2700.0,-2.3974461454625457e-09,-2.4816059025481083,0.1530517578125,-0.9991530895233154,-1.941031859821209e-09,0.008642578125,-2.770560838483525e-09,6.698208261395939,0.08536585365853659,26.954317014684694,0.0,-19.92104072065144,0.0,738.0,0.06074074074074074,31,0.02032906552776694,0.27061898559331893,800.0,-0.9996717289090157,-0.5904574877956312,0.018857157416641714,0.5514412984251976,3200.0,8.250493565356009e-05,0.023380154743790627,1.9386396167579795e-09,0.0,-7.627763787252597e-09
0.5095295478853026,-26.999966640505274,-26.962339897711956,0.08594843745231628,0.0,-20.388876290842138,-26.98888854415378,0.24871492199599743,0.0,-0.607627226403929,-0.025246959598734974,0.0006853995233541355,2879102.0,2700.0,-2.828656936418427e-09,-2.504225276989382,0.1537841796875,-0.9995427027344703,-2.1716179136629055e-09,0.00771484375,-1.4663171296496781e-08,6.754558410426336,0.09274193548387097,26.95996743094212,0.0,-20.14176516720267,0.0,744.0,0.07,32,0.02030945597216487,0.27055912762880324,825.0,-0.9997227758169174,-0.607627228355493,0.018875260930508377,0.5567002117633819,3300.0,7.061423712002579e-05,0.023380154743790627,2.1746366761787642e-09,0.0,-7.808046518313466e-09
0.5212008849408145,-26.999999999514785,-26.94701856157686,0.08594843745231628,0.0,-20.61825544907054,-26.979546810811442,0.24884820356965065,0.0,-0.6169663331020274,-0.025260007195174693,0.0005817274286528118,2966188.0,2700.0,-4.178321316847994e-09,-2.4840684899882035,0.2096923828125,-0.999921427667141,-3.201276433531623e-09,0.0076416015625,-3.49029072075538e-08,6.914001618308852,0.0791268758526603,26.941142422154122,0.0,-20.369968596345494,0.0,733.0,0.07037037037037037,33,0.020275128120556474,0.27051106095314026,850.0,-0.9997989207506179,-0.6169663360353239,0.019650323037058114,0.5635758712887764,3400.0,5.2870172476104925e-05,0.023380154743790627,3.196847537540986e-09,0.0,-1.1547203551090444e-08
0.5184233542998696,-26.96005590413666,-26.96250471610054,0.08594843745231628,0.0,-20.66356937855156,-26.969964039240235,0.2490328498184681,0.0,-0.6147435760165536,-0.02527344864793122,0.0005592469235125464,3054229.0,2700.0,-2.021410656271606e-08,-2.5222115788674273,0.1638916015625,-1.0000035390257835,-1.5496898618322518e-08,0.00751953125,-8.286130486321434e-09,8.711661720257855,0.007352941176470588,26.959210806387272,0.0,-20.403758730069995,0.0,680.0,0.05592592592592593,34,0.020170690258964896,0.27044086158275604,875.0,-0.9997701987624168,-0.6147435902707514,0.01996226250194013,0.5700092434883117,3500.0,5.956300283287419e-05,0.023380154743790627,1.5481834401192705e-08,0.0,-1.2548150338905182e-08
4.268922137404455,-27.0,-26.957896333304596,0.08594843745231628,0.0,-20.172182168939905,-26.99978403070059,0.2714002728462219,0.0,-0.607927128875599,-0.02796850842423737,0.000593765708617866,3143904.0,2700.0,-11.346902334635018,-2.5186461204179067,0.1575439453125,-0.9998774603009224,-13.493495926235628,0.0071044921875,-26.697136164506684,7.280322000375773,0.08536585365853659,26.9541858128864,0.0,-19.914367898735414,0.0,738.0,0.025925925925925925,35,0.02268122029490769,0.2726627975702286,900.0,-0.999750503897667,-11.584993803222213,0.019442265620455146,0.5759390771389008,3600.0,6.415187672246248e-05,0.023380154743790627,13.626139984697181,0.0,-14.865611205906825
4.0578425794689394,-27.0,-26.943657963192628,0.08594843745231628,0.0,-19.43748052719519,-26.999529362099302,0.27974448427557946,0.0,-0.6036118016469117,-0.027796159964054823,0.0005696208754670806,3233269.0,2700.0,-11.186485789749181,-2.5348730042966054,0.1453369140625,-0.9999656289815902,-12.898359287734774,0.0070068359375,-26.69210030188636,7.905863783219063,0.09029649595687332,26.939193391232674,0.0,-19.14570776347001,0.0,742.0,0.03037037037037037,36,0.022874112240970135,0.2727749146521091,925.0,-0.9997743532061577,-11.449137001056418,0.019285047566518186,0.5802859604358673,3700.0,5.8595427708496574e-05,0.023380154743790627,13.002124887000369,0.0,-26.804899323341935
0.7013662979806238,-26.974009584979935,-26.965852864711245,0.08594843745231628,0.0,-18.962623016269113,-26.922329049099332,0.2869052790105343,0.0,-0.597091724225902,-0.026249757036566734,0.0006199756739079021,3323490.0,2700.0,-5.156714211202504,-2.5327029928314007,0.1511962890625,-0.9997817009687424,-5.147004447278291,0.0060302734375,-5.119442101105858e-15,6.947959995395694,0.0,26.95197628478631,0.0,-18.690244316310864,0.0,675.0,0.015555555555555555,37,0.023503012536093593,0.27644413709640503,950.0,-0.9997682616114616,-5.6411560811641985,0.019762929528951645,0.5852222084999085,3800.0,6.0014642622263635e-05,0.023380154743790627,5.142962532126637,0.0,-22.416018718304457
0.4860505622617623,-25.929792355754977,-26.952582946463906,0.08594843745231628,0.0,-18.241650572611555,-26.506270502526885,0.28605517745018005,0.0,-0.5888457211091008,-0.026249757036566734,0.0007134540093829856,3414615.0,2700.0,-5.2891120094529555e-24,-2.4903385714569595,0.151416015625,-0.9994402214884758,-1.1188127163580357e-22,0.005517578125,-3.095985511923024e-33,7.492624856001586,0.0,26.93477421264538,0.0,-17.958730068554438,0.0,675.0,0.0,38,0.022839678451418877,0.27644413709640503,975.0,-0.999816469848156,-0.5888457211091008,0.021735845413058997,0.5900917321443557,3900.0,4.878043700955459e-05,0.023380154743790627,1.2607128386052412e-22,0.0,-2.293996615859039e-15
0.47778385290230085,-26.99999241035982,-26.960967070992343,0.08594843745231628,0.0,-17.436544201845287,-26.875265824234457,0.28605517745018005,0.0,-0.582230982924375,-0.026249757036566734,0.0008750084860366769,3505740.0,2700.0,-2.965471653115418e-24,-2.52673888186182,0.193115234375,-0.9988500580191613,-8.924718871193825e-23,0.0046142578125,-5.821885365548062e-33,7.483303409847508,0.0,26.951998710665684,0.0,-17.13557253021446,0.0,675.0,0.0,39,0.022839678451418877,0.27644413709640503,1000.0,-0.9998711839318275,-0.582230982924375,0.023107304237782955,0.5959551215171814,4000.0,3.603057948566857e-05,0.023380154743790627,8.353025583840687e-23,0.0,-1.1661730192873928e-32
0.47262165363050546,-26.881120817081946,-26.962809816769482,0.08594843745231628,0.0,-16.70190701930847,-26.86516290279212,0.28605517745018005,0.0,-0.5781008656249469,-0.026249757036566734,0.0009634103262214921,3596865.0,2700.0,-3.357952624472798e-24,-2.461307805740944,0.216748046875,-0.9985271185636521,-7.406085746944939e-23,0.00458984375,-6.443279351645317e-33,7.628594026218903,0.0,26.96105896017096,0.0,-16.414259928107736,0.0,675.0,0.0,40,0.022839678451418877,0.27644413709640503,1025.0,-0.9999034628272057,-0.5781008656249469,0.023077165987342597,0.6028736561536789,4100.0,2.8512675044112257e-05,0.023380154743790627,8.674099941042538e-23,0.0,-9.111107981958586e-33
0.4609129215322573,-26.960203381340133,-26.990026599820254,0.08594843745231628,0.0,-16.560333275351297,-26.941387139733937,0.28605517745018005,0.0,-0.5687337567749637,-0.026249757036566734,0.0010585590411210434,3687990.0,2700.0,-5.923816824403513e-24,-2.4871669557935094,0.2758544921875,-0.9981795325875282,-5.073446279393719e-23,0.0049072265625,-7.073752166445748e-33,8.201080900452222,0.0,26.984288403286996,0.0,-16.294048835666764,0.0,675.0,0.0,41,0.022839678451418877,0.27644413709640503,1050.0,-0.9999350219964981,-0.5687337567749637,0.022763382783159612,0.6073374509811401,4200.0,2.1157866285648197e-05,0.023380154743790627,5.165242167484543e-23,0.0,-4.673685133688614e-33
0.4576015178153048,-26.99999005275008,-26.9999985621564,0.08594843745231628,0.0,-16.276033867116134,-26.965419763496133,0.28605517745018005,0.0,-0.5660834017045999,-0.026249757036566734,0.001107289172068704,3779115.0,2700.0,-1.035802119075872e-26,-2.5001229401299496,0.3017578125,-0.998001529276371,-1.5931375804715547e-26,0.004931640625,-3.6671489986616434e-33,7.581393481034354,0.0,26.997776942569836,0.0,-15.989165964637333,0.0,675.0,0.0,42,0.022839678451418877,0.27644413709640503,1075.0,-0.9999537244439125,-0.5660834017045999,0.022983498638495803,0.6104029685258865,4300.0,1.6801403955923887e-05,0.023380154743790627,1.4240495643694896e-26,0.0,-1.0331151218410631e-32
0.45762866923843204,-26.99999998139619,-26.999999998616175,0.08594843745231628,0.0,-16.359018268328896,-26.988877308932263,0.28605517745018005,0.0,-0.5661049939437361,-0.026249757036566734,0.0009916622831951827,3870240.0,2700.0,-8.109040118408675e-27,-2.5293972381856293,0.3487060546875,-0.9984239175915718,-1.1756779828532117e-26,0.00400390625,-2.7100008163354786e-33,8.33751054363383,0.0,26.998152567923217,0.0,-16.070767354082044,0.0,675.0,0.0,43,0.022839678451418877,0.27644413709640503,1100.0,-0.999966847896576,-0.5661049939437361,0.02248556767590344,0.6117942988872528,4400.0,1.3742701480623509e-05,0.023380154743790627,1.0872840597391789e-26,0.0,-1.7554128697970182e-32
0.45824402248061313,-26.999999999826255,-26.999990884649304,0.08594843745231628,0.0,-16.387319655702726,-26.99999599432278,0.28605517745018005,0.0,-0.5665984402719915,-0.026249757036566734,0.0009508927250863053,3961365.0,2700.0,-8.871165544594478e-27,-2.4797762691159733,0.3647705078125,-0.9985728427767754,-1.1561743414432267e-26,0.005224609375,-1.2811982868797387e-33,7.2362693352071545,0.0,26.995554349593487,0.0,-16.118036867560242,0.0,675.0,0.0,44,0.022839678451418877,0.27644413709640503,1125.0,-0.9999631002545357,-0.5665984402719915,0.021832078648731112,0.6140547260642052,4500.0,1.4617346300838107e-05,0.023380154743790627,1.1971763656456507e-26,0.0,-1.0145077493478966e-32
0.4540608134939806,-26.9999793345738,-26.999999999477563,0.08594843745231628,0.0,-16.332762800881703,-26.999833906373016,0.28605517745018005,0.0,-0.5632506499077863,-0.026249757036566734,0.0008697607525391504,4052490.0,2700.0,-7.693072275441127e-27,-2.460624290641499,0.3706298828125,-0.9988692224025726,-1.1105517792768889e-26,0.0041015625,-8.866824286336665e-33,7.121449687437481,0.0,26.997935226337813,0.0,-16.065948020598306,0.0,675.0,0.0,45,0.022839678451418877,0.27644413709640503,1150.0,-0.9999752476811409,-0.5632506499077863,0.02152156997472048,0.6159895479679107,4600.0,1.1784355660893197e-05,0.023380154743790627,1.0292637463606761e-26,0.0,-1.2841167626408035e-32
0.4552946283363009,-26.999999999999773,-26.999999654543494,0.08594843745231628,0.0,-16.29940198523584,-26.989860090305452,0.28605517745018005,0.0,-0.5642387014817359,-0.026249757036566734,0.0008164423750713467,4143615.0,2700.0,-7.101929963239235e-27,-2.484275277940833,0.3674072265625,-0.9990640103816986,-1.020359675069847e-26,0.0043701171875,-1.6399867407670174e-33,7.159826984286343,0.0,26.999224274394628,0.0,-16.032751013681377,0.0,675.0,0.0,46,0.022839678451418877,0.27644413709640503,1175.0,-0.9999723896384239,-0.5642387014817359,0.02069138824008405,0.6188659518957138,4700.0,1.245324065166642e-05,0.023380154743790627,1.0567032027830614e-26,0.0,-4.7793531860830793e-33
0.4549766843442734,-26.99966536564781,-26.99999999975264,0.08594843745231628,0.0,-16.27405951596838,-26.99934326536621,0.28605517745018005,0.0,-0.5639835406953353,-0.026249757036566734,0.000801386208331678,4234740.0,2700.0,-1.191590128843823e-26,-2.461089564966096,0.3756103515625,-0.9991190060973167,-1.578874665889131e-26,0.0042724609375,-2.997115651935949e-33,7.0466597724585185,0.0,26.997761829814742,0.0,-16.01085763112995,0.0,675.0,0.0,47,0.022839678451418877,0.27644413709640503,1200.0,-0.9999771267175674,-0.5639835406953353,0.021003290265798568,0.6208877265453339,4800.0,1.1347300073794031e-05,0.023380154743790627,1.5800674355531476e-26,0.0,-3.8257549873232483e-32
0.45307136783088986,-26.99999982531856,-26.99999999932902,0.08594843745231628,0.0,-16.288705343227626,-26.98104826109292,0.28605517745018005,0.0,-0.5624609349975799,-0.026249757036566734,0.0008135406300425529,4325865.0,2700.0,-9.527396257890323e-27,-2.466040622032233,0.3790283203125,-0.9990746006369591,-1.3122427998892648e-26,0.005029296875,-4.6085988460103095e-33,7.536917719578431,0.0,26.999407802496478,0.0,-16.016454683874855,0.0,675.0,0.0,48,0.022839678451418877,0.27644413709640503,1225.0,-0.9999658033251763,-0.5624609349975799,0.021488398127257825,0.6260010108351708,4900.0,1.3985143743866501e-05,0.023380154743790627,1.2803709647124345e-26,0.0,-7.677541500982641e-33
