ReemS3/reg_curious_hac/data/d4a6886/CausalDependenciesMujocoEnv-o1-v0/alg:chac|eta:0.75|fw:1|fwhidsiz:256,256,256|nlev:2|reg:False|rolbatsiz:1|timsca:27,27|105/progress.csv
train_0/fw_bonus,test_1/avg_q,train_1/reward_-0.0_frac,train_1/reward_-27.0_frac,train_0/fw_loss,train_0/mu_grads_std,test/episodes,train_1/q_grads_std,train_1/current_q,train_1/fw_loss,test_1/subgoal_succ_rate,train_1/q_loss,train/episodes,train_1/mu_grads_std,train_0/mu_loss,train_0/q_loss,train_1/reward_-1.0_frac,train_0/reward_-1.0_frac,test_0/avg_q,train/success_rate,train_0/q_grads,epoch,train_0/avg_q,train_1/reward,train_1/target_q,train_1/mu_loss,train_1/mu_grads,train_1/avg_q,train_0/next_q,train_1/q_grads,train_0/target_q,train_0/current_q,train_1/subgoal_succ_rate,train_0/mu_grads,test/success_rate,train_1/n_subgoals,train_1/fw_bonus,policy/steps,train_0/reward_-0.0_frac,train_0/q_grads_std,train_0/reward,test_1/n_subgoals,train_1/next_q
-0.998837299644947,-19.666165729345725,0.0,0.0,0.0003143712710880209,0.1516219113022089,25.0,0.20655900985002518,-12.007209644377372,0.001462070908746682,0.01171303074670571,18.053811714294092,100.0,0.15995850823819638,1.647255520098982,0.47690396416450653,0.004443359375,0.0009765625,-0.3606307142114593,0.03,0.022922914242371917,0,-1.9228908601826307,-2.6628579792082747,-11.987486481072741,12.440860889015244,0.014960606908425688,-9.629509251660041,-1.6639410055157182,0.016189347254112363,-2.1107610279593656,-1.7772952576204113,0.06629001883239172,-0.013548454130068421,0.0,2655.0,-0.997672164440155,86213.0,0.0,0.1281667347997427,-0.6545005860225501,683.0,-12.4703243781661
-0.9986169651150704,-11.000770486905768,0.0,0.0,0.00037299877512850796,0.19784256257116795,50.0,0.24668190330266954,-12.021342769498792,0.0016662647860357538,0.0,12.683696674830712,200.0,0.20789674967527388,4.348039241213604,0.590472040792673,0.004931640625,0.0007568359375,-2.073105625186831,0.03,0.02491242722608149,1,-5.023501116496849,-2.6162943450082823,-12.100462915062014,12.495448591899969,0.014300839533098042,-18.099620726524677,-4.293174996787288,0.012831989955157042,-4.45982100564208,-4.5518736946949945,0.044511505092417955,-0.01866160295903683,0.0,2651.0,-0.9967936009168625,173744.0,0.0,0.1594510342925787,-0.6692587348734378,675.0,-12.500748684372514
-0.9982869058847428,-15.644036099278654,0.0,0.0,0.00046082667686278,0.21921799406409265,75.0,0.28173142224550246,-12.075813917591821,0.0018026546575129032,0.8023529411764706,9.40792621621783,300.0,0.2338482316583395,2.963805627625445,0.4699251888711897,0.0059326171875,0.0003662109375,-1.1200869491986591,0.41,0.023541080951690673,2,-6.632864502598865,-2.567203544347649,-12.19571842486177,12.436295579763149,0.013782530324533582,-16.682592838292905,-2.8290660573170636,0.007895965117495508,-3.2416445123298177,-3.0185137784621023,0.17630726515502082,-0.023217628011479974,0.0,2161.0,-0.9962067529559135,242818.0,0.0,0.16489666439592837,-0.6846669388625741,2975.0,-12.4131876875705
-0.9983441770076752,-12.042561662797464,0.0,0.0,0.0004455830981896725,0.239157148078084,100.0,0.30949323028326037,-12.858584021882052,0.001889957772800699,0.6526011560693642,9.54887873336722,400.0,0.2539670877158642,4.779161447615654,0.4878131576317058,0.00634765625,0.00126953125,-1.583439957934861,0.4,0.023977128928527235,3,-7.093518165862971,-2.478047137129397,-12.937721702032656,13.364360027171333,0.010901204426772892,-16.671388395447494,-4.694769540245771,0.00470390081172809,-4.909810266143474,-5.010393573969566,0.2222222222222222,-0.028410640452057122,0.08,2241.0,-0.9958311259746552,311615.0,0.0,0.17267600260674953,-0.695777452344555,1730.0,-13.30478619585666
-0.9982573688030243,-10.401591225940052,0.0,0.0,0.00046868395147612316,0.25011244118213655,125.0,0.32948962450027464,-12.5211656953358,0.001763345961808227,0.9360520469692161,10.734666872747647,500.0,0.27741539999842646,4.928406132355116,0.281972178179345,0.006103515625,0.000244140625,-1.0229060663262783,0.58,0.025379515159875153,4,-7.0985525128532,-2.373428687901833,-12.602017779650629,12.860891725283679,0.007549346296582371,-15.450760350254688,-4.793882529876005,0.0015883216896327213,-5.137233910058856,-5.2124730734460005,0.3686274509803922,-0.02900946610607207,0.04,2040.0,-0.996375884115696,370159.0,0.0,0.18135982006788254,-0.7018348495181271,6302.0,-12.836106822097275
-0.9984050005674362,-11.271934170842087,0.0,0.0,0.0004293988255085424,0.26593582779169084,150.0,0.3552885837852955,-13.29096800259731,0.001863342267461121,0.7906386066763426,8.977419265543542,600.0,0.28974617198109626,4.793256677732647,0.5058009037163727,0.00673828125,0.00048828125,-1.0857472691600307,0.52,0.02627790397964418,5,-8.628371260559994,-2.3266109211454022,-13.348627477653702,13.744190422154295,0.005005027400329709,-14.280844933717937,-4.612531694127277,0.00029927357209089676,-4.9112948685073965,-4.877384716571937,0.3421309872922776,-0.034505173470824956,0.04,2046.0,-0.9959456458687782,430161.0,0.0,0.19631904028356076,-0.7078959297155961,2756.0,-13.731733242822083
-0.9984415784478188,-14.679609788715878,0.0,0.0,0.00041966924036387356,0.28156750053167345,175.0,0.3739285208284855,-13.25518069558172,0.0019688550441060216,0.9766683143845774,6.5919650556577665,700.0,0.30355735048651694,5.670996358687553,0.29237589807412856,0.006396484375,0.0009033203125,-1.3020859684373935,0.5,0.026428043050691484,6,-9.219205051037616,-2.300880972064988,-13.29749655205913,13.591590693854425,-0.0009302715741796419,-15.391157319055027,-5.513269942420343,-0.003937286749714985,-5.894368518320879,-5.92571475805482,0.3309178743961353,-0.041330930404365064,0.04,2070.0,-0.9954916536808014,491432.0,0.0,0.20931039452552797,-0.7170054129397613,10115.0,-13.512794583112921
-0.9984641671180725,-16.328312975417727,0.0,0.0,0.00041365585857420226,0.2944451034069061,200.0,0.38796250596642495,-12.205328947694555,0.0020660714770201595,0.822174226061915,6.614806769220332,800.0,0.31403534710407255,4.604502130596144,0.5240024782357724,0.0071044921875,0.001025390625,-0.34804012435759746,0.58,0.0247155059594661,7,-10.586861290335918,-2.2203564802628533,-12.236319361682519,12.26821417743425,-0.0035782629624009133,-15.24912690361813,-4.522624289278118,-0.006563412258401513,-4.917048759666269,-4.871742194077004,0.3427860696517413,-0.04576813718304038,0.12,2010.0,-0.9950733795762062,549872.0,0.0,0.2199176326394081,-0.7279424593561998,2778.0,-12.138828053859491
-0.9985280930995941,-14.570334391613592,0.0,0.0,0.000396645424189046,0.31309539899230004,225.0,0.3975195653736591,-11.808613983721715,0.002029554671025835,0.9578221754877906,6.558556712917449,900.0,0.3235893823206425,5.6959703636032435,0.24236487238874654,0.00625,0.0020751953125,-0.8930184398888222,0.59,0.025150424893945457,8,-8.33460367486132,-2.1293007881096857,-11.806722515889843,11.71121184915317,-0.00491279085399583,-16.2709445122179,-5.547244539282639,-0.009532510372810065,-5.990403314998644,-6.010355080620995,0.32044760935910477,-0.051902530062943694,0.0,1966.0,-0.9952304989099503,609645.0,0.0,0.23387277126312256,-0.7348065861224313,8559.0,-11.539066688091921
-0.9985619276762009,-14.639999827216537,0.0,0.0,0.00038764231649111023,0.3297228701412678,250.0,0.4083789087831974,-12.49249985274172,0.001872708901646547,0.0188953488372093,6.006530612656325,1000.0,0.33595241904258727,5.372342606002282,0.3756573168270938,0.0070068359375,0.00283203125,-0.7525356262148983,0.53,0.023310278449207543,9,-10.149105323235023,-2.1265764326242786,-12.5257114774819,12.497961607817864,-0.006973247020505368,-15.717086185983137,-5.20731358858396,-0.01114028780721128,-5.616741741070529,-5.660575827700646,0.2537917087967644,-0.05756311397999525,0.0,1978.0,-0.9959053337574005,672403.0,0.0,0.24062741212546826,-0.7438421445363929,688.0,-12.358916577799329
-0.9986872568726539,-8.461763648139206,0.0,0.0,0.00035429622657829897,0.34518384337425234,275.0,0.42015518322587014,-11.934693504137826,0.0018112372985342518,0.0651872399445215,6.100473226547099,1100.0,0.3531807713210583,5.026521496775508,0.36679140624974743,0.007666015625,0.0046142578125,-0.5655457364585703,0.62,0.023602012265473604,10,-9.273496543241018,-2.131201880066874,-11.935101278636974,11.71485767130142,-0.010423975554294885,-16.299694460939595,-4.921651187916636,-0.01346944395918399,-5.33210796289246,-5.354742964104758,0.24843423799582465,-0.06087735388427973,0.0,1916.0,-0.9961698383092881,733935.0,0.0,0.24974247738718985,-0.7381422736438253,721.0,-11.65069650935072
-0.9987782940268517,-14.205049911395422,0.0,0.0,0.00033007494785124435,0.3613386869430542,300.0,0.4291258752346039,-7.157665085761105,0.0018217110016848892,0.19973190348525469,4.2433724470264345,1200.0,0.36416357904672625,4.468721463538641,0.8078056081095625,0.0073974609375,0.0160888671875,-0.9633985627827724,0.48,0.02468637186102569,11,-6.95336107844472,-2.163820009398478,-7.362890571671817,6.555439788177722,-0.011770044034346939,-13.32598467293682,-4.316645482957884,-0.02166834962554276,-4.59333076788329,-4.629784302752877,0.19280442804428044,-0.06737266033887863,0.12,2168.0,-0.9961247652769089,801655.0,0.0,0.25707644000649454,-0.7430356361612211,746.0,-6.455904741470692
-0.9987865820527076,-13.927743338103593,0.0,0.0,0.0003278687683632597,0.3740641064941883,325.0,0.43683034628629686,-11.656015480965342,0.0016716896730940788,0.011816838995568686,7.417304099320603,1300.0,0.37706971615552903,5.917446604233801,0.40017147090373595,0.00732421875,0.0185302734375,-1.7886429941422368,0.74,0.025184379937127233,12,-9.874920126164648,-2.191904965224603,-11.721684262288719,11.53863311558411,-0.015352790872566403,-15.306975701624939,-5.717221753962167,-0.024651106726378203,-6.0767289144981405,-6.123786119133618,0.23532898636633076,-0.07166194580495358,0.08,1687.0,-0.9967702507972718,857809.0,0.0,0.2683047793805599,-0.7400347795417475,677.0,-11.345374989894768
-0.9988020792603493,-18.47806471495788,0.0,0.0,0.00032374669463024474,0.39268123507499697,350.0,0.438948679715395,-11.955041025368203,0.0017444436904042958,0.03668261562998405,5.605879175856282,1400.0,0.3888215012848377,4.140679296775081,0.48565562224286385,0.0070068359375,0.0113037109375,-0.5722529331857439,0.51,0.024066254124045373,13,-10.3861015278882,-2.191259080134478,-12.005433399396038,11.946097522529232,-0.017387397540733217,-16.47232081578617,-4.042500813073197,-0.026486084749922156,-4.496112019732879,-4.400393346610168,0.21321029626032054,-0.0755196800455451,0.16,2059.0,-0.9964572176337242,922116.0,0.0,0.27804185897111894,-0.7421626756695332,627.0,-11.75708276797707
-0.9988444909453392,-17.387739287034563,0.0,0.0,0.00031245678874256553,0.40674441754817964,375.0,0.44871280416846276,-11.930687860660587,0.0017752426356310025,0.0,5.614632245742018,1500.0,0.3971354529261589,3.464199642743394,0.43767524412136416,0.0075439453125,0.019580078125,-0.638436350496076,0.43,0.024865916557610036,14,-6.798916848304611,-2.2350613994716695,-12.01607681144074,11.989051010873983,-0.019182297959923746,-16.864202574153484,-3.318883653400543,-0.02809163713827729,-3.77215810641176,-3.722116013174668,0.14064697609001406,-0.07655658908188342,0.0,2133.0,-0.9963247060775757,992708.0,0.0,0.2841894321143627,-0.7360392499344016,675.0,-11.792044020464825
-0.9988994479179383,-14.262202784626002,0.0,0.0,0.0002978337524837116,0.42056881338357927,400.0,0.45776784867048265,-12.697858674608034,0.0017782986484235152,0.00881057268722467,5.511954738394888,1600.0,0.410126268863678,4.713916235155726,0.4739045984939413,0.0075439453125,0.028466796875,-1.238048675235628,0.58,0.02710800589993596,15,-7.770072206719855,-2.291344733198275,-12.731697178952317,12.749624295968406,-0.021164359431713818,-16.96788186421008,-4.542171820801224,-0.02834267681464553,-4.899574442492567,-4.917653563072931,0.15349075975359344,-0.07974143736064435,0.0,1948.0,-0.9963115483522416,1057773.0,0.0,0.292263999581337,-0.7377009383657424,681.0,-12.575659271647703
-0.9988675162196159,-15.83469092786707,0.0,0.0,0.00030633313726866616,0.43276364356279373,425.0,0.471105045825243,-13.003503027031348,0.0016649319790303708,0.9524401064773735,5.5312251670200245,1700.0,0.4204513534903526,5.445723675774602,0.3662140503262342,0.007470703125,0.0255615234375,-1.9219907650960535,0.62,0.028305363934487106,16,-11.028532635664826,-2.3115716575757688,-13.103826068207102,13.182975023968709,-0.02430381756275892,-16.7197241741493,-5.2712406078804355,-0.03139919014647603,-5.632181692661442,-5.673429417418494,0.27627800114876505,-0.08215261530131102,0.12,1741.0,-0.9967993274331093,1113164.0,0.0,0.30311196148395536,-0.7387732749266434,5635.0,-13.075562595094613
-0.9989171847701073,-18.071945315624824,0.0,0.0,0.0002931183400505688,0.4453945726156235,450.0,0.4838686116039753,-12.742081432543396,0.0017560234089614823,0.5060763888888888,6.0524447123094145,1800.0,0.42851041853427885,5.079555545127528,0.4790866329278261,0.007470703125,0.0362548828125,-1.0814357411106856,0.67,0.028066412033513188,17,-11.802672266250475,-2.248412149612341,-12.772501489463234,12.8511241581126,-0.027307241270318628,-16.296717186430758,-4.959657989840445,-0.0321971096098423,-5.329090986628498,-5.323325892610839,0.399893219434063,-0.08886001855134965,0.12,1873.0,-0.996407388150692,1167186.0,0.0,0.31153549030423167,-0.7432717749052244,1152.0,-12.720910233497252
-0.9988895609974862,-15.736996669793797,0.0,0.0,0.00030046448737266476,0.456646878272295,475.0,0.4909796372056007,-12.384410662872204,0.0017147007718449458,0.9016064257028112,5.803248042144995,1900.0,0.43654054775834084,5.1662021678123295,0.45984575640349706,0.0076171875,0.0413818359375,-1.4077785699757372,0.54,0.030085285613313317,18,-12.318236071080834,-2.2984810130899858,-12.435363149908515,12.400700551814282,-0.029009412229061126,-16.540798603922998,-5.017454852296323,-0.03393400767818093,-5.395700501564235,-5.373015174547166,0.3164179104477612,-0.09236223492771387,0.16,2010.0,-0.9965851873159408,1226783.0,0.0,0.3199994668364525,-0.7403168748427561,4482.0,-12.27365072458351
-0.9988685503602028,-15.651569393729922,0.0,0.0,0.00030606038453697695,0.46703421548008917,500.0,0.4982982836663723,-11.766259638487265,0.0016261225624475627,0.8943342776203966,5.415651324543835,2000.0,0.4431817792356014,5.540301217904356,0.4598315787668265,0.006689453125,0.0384765625,-1.1033114416105356,0.53,0.030955473706126214,19,-13.78525485058068,-2.2499068589822855,-11.818787145811157,11.76055666060976,-0.02966161952354014,-15.246193676590352,-5.416342611883265,-0.03499149959534407,-5.749759397545018,-5.796232054570072,0.4334487877288471,-0.09422506149858237,0.2,2021.0,-0.9969662949442863,1280214.0,0.0,0.32719545513391496,-0.7468118612840045,3530.0,-11.602475859807592
-0.9989170029759407,-15.725365894456678,0.0,0.0,0.0002931641323812073,0.4791359156370163,525.0,0.5121105879545211,-11.908991666241361,0.001700013704248704,0.8445086705202313,5.847676227124284,2100.0,0.453384718298912,6.270050418482592,0.39273403449174243,0.00771484375,0.0421142578125,-1.7012731320807326,0.57,0.031652787886559966,20,-12.63437032004629,-2.1201703951250237,-11.983591750297455,12.008692486958216,-0.03256960567086935,-15.404923393223145,-6.104776729335297,-0.036018391326069835,-6.4506355608011345,-6.493660339892145,0.44683026584867075,-0.09612769298255444,0.48,1956.0,-0.9966483905911445,1327141.0,0.0,0.3375467650592327,-0.7509438510602194,1730.0,-11.856759636083073
-0.998929412662983,-16.354054096684862,0.0,0.0,0.00028986024190089663,0.48901706337928774,550.0,0.526654577255249,-11.533242670197364,0.001534447236917913,0.990409764603313,5.313433197423279,2200.0,0.46260870397090914,6.403397111303818,0.5130318927503142,0.0076904296875,0.0451171875,-1.1806894942880877,0.76,0.03230342892929912,21,-14.696470569169621,-2.05787290143453,-11.587079668663709,11.559474373618057,-0.034079066943377256,-14.486430127759604,-6.230389030891203,-0.03637876929715276,-6.526280191535328,-6.591161439374636,0.4598587026332691,-0.09806895796209573,0.32,1557.0,-0.9973607495427131,1367979.0,0.0,0.34644423574209215,-0.7533822577741376,8029.0,-11.438874641333953
-0.9989099979400635,-11.959743241847345,0.0,0.0,0.0002950309881271096,0.49910300597548485,575.0,0.5423092007637024,-11.233761486964521,0.0016464108426589518,0.26498422712933756,4.930525601558327,2300.0,0.4699620954692364,4.601333662003535,0.7286372406304918,0.0074951171875,0.04453125,-1.144658064138819,0.57,0.033685298170894384,22,-10.38944285184305,-1.986524441110305,-11.304098317859246,11.228086040504916,-0.03466215431690216,-14.285931525661988,-4.48324949647452,-0.03638294460251927,-4.864003282091976,-4.776254552134652,0.3486735246345425,-0.09923591259866953,0.32,1847.0,-0.9968790069222451,1418727.0,0.0,0.3542126268148422,-0.7589621163944684,634.0,-11.160550995959166
-0.9988955557346344,-9.62158554604178,0.0,0.0,0.00029887441669416146,0.5069031268358231,600.0,0.5558637052774429,-11.185326491094163,0.0015690915344748646,0.9585838343353373,4.9520655662226805,2400.0,0.4761858269572258,5.95577580004194,0.526139311056968,0.0077392578125,0.0439208984375,-1.2800480500900868,0.78,0.03512497367337346,23,-10.821557319194486,-1.9845018955278646,-11.273210243536536,11.119583331016923,-0.03578835129737854,-14.037293252935433,-5.800109484002388,-0.036265643499791625,-6.141566310042874,-6.166539060322431,0.34028683181225555,-0.10236134454607963,0.4,1534.0,-0.9972116902470589,1462120.0,0.0,0.36426248773932457,-0.7597824799911905,4491.0,-11.052280207384635
-0.9989160731434822,-9.46425770618846,0.0,0.0,0.0002934127678599907,0.5145112589001656,625.0,0.5679317027330398,-10.731791285823125,0.0016583563323365525,0.4983127109111361,4.872411898691277,2500.0,0.4848338283598423,5.479252835661667,0.6329331447661348,0.007421875,0.04091796875,-1.8239125003679637,0.83,0.0346797869540751,24,-11.786860531167926,-1.9082340033950458,-10.817550821163554,10.652476824074842,-0.03779756501317024,-11.72837500097648,-5.319308655754465,-0.038314147386699915,-5.631145369632515,-5.65694902626595,0.47216196673897326,-0.10522018261253833,0.36,1383.0,-0.9968276128172875,1500040.0,0.0,0.37128067910671236,-0.7611975235166029,889.0,-10.59372597782441
-0.9989031195640564,-8.099632565327575,0.0,0.0,0.0002968562333990121,0.5221437618136406,650.0,0.5793141946196556,-10.748946014910716,0.0015726851561339572,0.9900105152471083,4.972078502579537,2600.0,0.4906232960522175,6.163142355352725,0.5863445221008765,0.0077880859375,0.0491455078125,-1.2326384139233981,0.76,0.03700228668749332,25,-10.600773199756095,-1.8918832835784998,-10.822923181646313,10.636475995593477,-0.03919364251196385,-11.885683184961852,-6.003711861385382,-0.04057695800438523,-6.339104419422178,-6.384677459358375,0.39166666666666666,-0.10783749837428332,0.44,1440.0,-0.9971962302923203,1540951.0,0.0,0.3816773422062397,-0.7726017590463016,5706.0,-10.572564759133702
-0.9988823369145393,-10.756025523464789,0.0,0.0,0.00030239060943131334,0.5302075415849685,675.0,0.5933131411671638,-10.443671356373958,0.0017212710779858753,0.9911738746690203,5.063233637720823,2700.0,0.4942174591124058,6.604036512933615,0.4971212729696443,0.0080322265625,0.0529541015625,-0.9157709587300165,0.84,0.03742204047739506,26,-12.504538289698734,-1.8874570997435511,-10.534209344608731,10.26677648080863,-0.040757544338703156,-11.085066916689943,-6.4387627248337065,-0.04204742275178432,-6.799390917372236,-6.854134048516608,0.4953670705630791,-0.10943022128194571,0.64,1403.0,-0.9965569242835045,1574177.0,0.0,0.39252000749111177,-0.7748487564171228,3399.0,-10.225416083359779
-0.9988826006650925,-10.21285846018624,0.0,0.0,0.0003023162182216765,0.5373213738203049,700.0,0.6028191477060318,-9.504240011418933,0.0016396347840782256,0.9665490256252877,4.677828723500747,2800.0,0.49943997263908385,6.263832217765467,0.44271155621720465,0.008056640625,0.031787109375,-1.4984732477608966,0.74,0.03772060014307499,27,-12.20272799979421,-1.850520985960611,-9.542541253645021,9.238057548237418,-0.042295395582914355,-11.501324810874266,-6.059861367664108,-0.04279984766617417,-6.4406035676699105,-6.487542267339987,0.4847560975609756,-0.1124873636290431,0.28,1640.0,-0.9969081670045853,1617779.0,0.0,0.4012462720274925,-0.7751234843970451,6517.0,-9.160174533413246
-0.9989188268780709,-10.335400942010555,0.0,0.0,0.0002926834858953953,0.5454456254839897,725.0,0.6155313983559608,-9.917168469193673,0.0016659150714986026,0.9745564892623716,5.719767886728308,2900.0,0.5067536354064941,6.369598259075852,0.5494423159209468,0.007861328125,0.0385986328125,-2.24272039772379,0.84,0.038010317273437975,28,-12.704325313185203,-1.861295940976197,-10.014650613299317,9.751982092441569,-0.04314684346318245,-12.389853405469118,-6.144074014408758,-0.043523242231458426,-6.4781265754913235,-6.541273807900035,0.41002277904328016,-0.11631098538637161,0.56,1317.0,-0.996795092523098,1652315.0,0.0,0.4092647969722748,-0.7810468416817458,4284.0,-9.668296189119506
-0.9988954097032547,-9.902957091358289,0.0,0.0,0.00029891022204537877,0.5512357816100121,750.0,0.6289323851466179,-10.00827090573929,0.0016928130877204239,0.9590834697217676,5.992410079215523,3000.0,0.5122841596603394,6.334902226213776,0.42416070434244996,0.00771484375,0.0489990234375,-1.2515853859129757,0.75,0.03814373621717095,29,-11.442816082118968,-1.90184318137035,-10.090228854443804,9.78038109878155,-0.04435185715556145,-11.88562570087126,-6.098220438702266,-0.04529248913750052,-6.504782201735535,-6.574410559810121,0.42332474226804123,-0.1170465461909771,0.68,1552.0,-0.9966793462634087,1690364.0,0.0,0.4164727672934532,-0.7803268798594217,2444.0,-9.687440963232884
-0.9989089608192444,-11.844428263968378,0.0,0.0,0.00029530425745178946,0.5585101008415222,775.0,0.6393299505114556,-9.800347202712235,0.0015974630863638596,0.9535980148883375,5.205450673433911,3100.0,0.5211278140544892,5.503449038668924,0.5084748134057802,0.0075927734375,0.0475830078125,-1.2044352792954152,0.77,0.03826597826555371,30,-11.124874699390155,-1.8647387116245226,-9.885652858797595,9.572091681224116,-0.044260304793715476,-12.278903592744555,-5.350831936809635,-0.04688553921878338,-5.770225758446684,-5.74864307089667,0.42027114267269206,-0.12072575092315674,0.36,1549.0,-0.9970896169543266,1733274.0,0.0,0.4207915745675564,-0.7863178167135629,4030.0,-9.471018529617155
-0.9988477408885956,-10.088074099787253,0.0,0.0,0.0003115947765763849,0.5637453123927116,800.0,0.6520767346024513,-9.677671754282226,0.0016656252584652976,0.9790949335956715,5.35898119338094,3200.0,0.527857880294323,6.664708380559071,0.47936940102387693,0.0083251953125,0.0430908203125,-2.151099013294065,0.89,0.03817690378054976,31,-10.445499493662698,-1.886747912802457,-9.733548687334373,9.356056454846264,-0.04577108807861805,-11.060421433373731,-6.431418463003093,-0.04851110093295574,-6.800143457885821,-6.84342227570353,0.4779929577464789,-0.12087235171347857,0.64,1136.0,-0.9967963352799416,1762602.0,0.0,0.4261165648698807,-0.7856067102205998,4066.0,-9.281653817202326
-0.9988807559013366,-9.89154165576928,0.0,0.0,0.0003028077375347493,0.5703418463468551,825.0,0.6646128967404366,-9.306804034112236,0.0016234373644692824,0.9745273109243697,7.157683799377909,3300.0,0.5340699300169944,6.221748063830285,0.29828358147196454,0.007275390625,0.049609375,-1.4208625754122812,0.86,0.037819938454777005,32,-14.747949421354395,-1.83872810624016,-9.409654228923461,8.997618280789395,-0.0467616586945951,-11.898060477401804,-6.00197353564227,-0.0503047151491046,-6.474292204802775,-6.492091411466262,0.4437400950871632,-0.12225618176162242,0.6,1262.0,-0.9969778567552566,1794453.0,0.0,0.43177986741065977,-0.7859079349273088,3808.0,-8.926301603306433
-0.9988363012671471,-5.1610108110728214,0.0,0.0,0.0003146400162222562,0.5797012612223625,850.0,0.6764545187354087,-8.777778320802636,0.001732164787244983,0.9917945600972496,6.062714600071378,3400.0,0.539484791457653,6.328925263193729,0.41608031126062367,0.0076904296875,0.038134765625,-1.9389651077728363,0.84,0.038631259277462957,33,-10.392580482827535,-1.7783877659101563,-8.851985359317933,8.487990343144526,-0.04920765431597829,-11.638674914254194,-6.107147187233504,-0.05101145152002573,-6.506407006927451,-6.574530354145554,0.40215716486902925,-0.11854980122298002,0.44,1298.0,-0.9965100586414337,1830654.0,0.0,0.4367389865219593,-0.7884969154467398,6581.0,-8.430397884334932
-0.9989033147692681,-6.51586483543194,0.0,0.0,0.0002968086784676416,0.5869202181696892,875.0,0.6877256453037262,-9.00378975357886,0.0016498442069860174,0.9533858267716535,6.235227536826763,3500.0,0.5453457221388817,6.219332531795089,0.299258045108537,0.0080322265625,0.0642333984375,-1.3255964539727956,0.86,0.03890640577301383,34,-12.200068476168392,-1.8721896939438012,-9.081759538319583,8.641258917251378,-0.050884751696139575,-10.621042299805273,-5.981215965880739,-0.05232855742797256,-6.451937500995061,-6.494639813287543,0.4475580464371497,-0.12137857060879469,0.56,1249.0,-0.996864227950573,1863178.0,0.0,0.44193762317299845,-0.7886967744780122,3175.0,-8.563790547324698
-0.9988684520125389,-8.806403584485878,0.0,0.0,0.00030608178458351175,0.5938696041703224,900.0,0.6988412752747536,-8.971876315180388,0.0016220119985518977,0.821710127349909,6.099871631032186,3600.0,0.5530217930674552,6.409725408143198,0.2659916447452497,0.007861328125,0.04775390625,-1.1168534119710096,0.87,0.03908206019550562,35,-12.942273011076935,-1.8274686532487976,-9.030211969018406,8.652725403640943,-0.05354411918669939,-10.4213744459328,-6.188431240971357,-0.054282948933541776,-6.689734879245518,-6.7074832004774,0.4625,-0.1228481201454997,0.44,1200.0,-0.9969839960336685,1895484.0,0.0,0.44779644832015036,-0.792789624420766,1649.0,-8.59328409958042
-0.9989174053072929,-7.744029830757399,0.0,0.0,0.00029305583084351385,0.5991328820586205,925.0,0.7101442635059356,-8.892019263512221,0.0016249518608674406,0.9745928338762215,5.983607526786522,3700.0,0.5595338463783264,6.256196507484701,0.38876790788254845,0.008056640625,0.07158203125,-0.9299870336518147,0.84,0.03977638706564903,36,-11.457280394035433,-1.8405941540975619,-8.935503870703528,8.553312914755987,-0.05359362149611115,-10.618679014804318,-6.050681459216721,-0.05498739527538419,-6.546072406932599,-6.495189820356552,0.36606498194945847,-0.12306767329573631,0.48,1385.0,-0.9969713464379311,1934608.0,0.0,0.454653749614954,-0.7882791577583703,4605.0,-8.53827726073662
-0.9988881796598434,-6.740074202548661,0.0,0.0,0.000300834988229326,0.606156912446022,950.0,0.7230244234204293,-8.758811926859176,0.001512976348749362,0.9718698290126861,6.550558753386781,3800.0,0.565137180685997,6.488915234396634,0.27063440724496196,0.00888671875,0.06337890625,-1.9611921589829924,0.89,0.040145619120448825,37,-11.835359829022467,-1.8391398941428634,-8.79109209074311,8.411120823664945,-0.05439204666763544,-9.990941344065053,-6.251109403193166,-0.056166574265807866,-6.749255291454953,-6.761221375947164,0.46379170056956875,-0.12680164650082587,0.6,1229.0,-0.9974531412124634,1966560.0,0.0,0.4607217937707901,-0.7932156965118338,3626.0,-8.309515887920105
-0.9989059284329415,-6.708339130524234,0.0,0.0,0.0002961079964734381,0.6137561738491059,975.0,0.7360103920102119,-8.624869675445893,0.0015442797302966937,0.9599133261105092,6.6377614556560145,3900.0,0.5712786987423897,6.466417969043912,0.3029646135798854,0.007568359375,0.051171875,-1.2472905456153598,0.9,0.03968759449198842,38,-12.827163041040276,-1.7986399119319685,-8.71086453538509,8.322802080818335,-0.05630961675196886,-10.316060434175032,-6.2362163961188735,-0.05632080119103193,-6.729507142642538,-6.722301535525746,0.484775641025641,-0.1316910207271576,0.48,1248.0,-0.9973184496164322,1999761.0,0.0,0.46398849636316297,-0.7974315636456595,4615.0,-8.260657771103109
-0.9989091649651527,-4.804358564633797,0.0,0.0,0.00029525077043217606,0.6209589630365372,1000.0,0.7481251195073128,-8.730412462706218,0.001479036797536537,0.32122905027932963,6.295155991145156,4000.0,0.578460519015789,5.769484347254904,0.43746376213032095,0.0076171875,0.0888427734375,-0.8535544302922811,0.84,0.03906845878809691,39,-13.235176560185213,-1.7719217606969324,-8.778483300406801,8.34640579944202,-0.0564250685274601,-11.429777347569573,-5.5475473890856986,-0.05724336821585894,-6.007547594463544,-5.992893380505557,0.43829787234042555,-0.13448187261819838,0.68,1410.0,-0.9975991547107697,2033295.0,0.0,0.4675359144806862,-0.7964619099609991,358.0,-8.330208366950625
-0.9989133104681969,-6.507253358947523,0.0,0.0,0.0002941453509265557,0.6271097436547279,1025.0,0.7587181448936462,-8.952221087482366,0.001538314067875035,0.9296499656829101,6.23352052490311,4100.0,0.5854042679071426,6.72748966767804,0.23605385875766655,0.007958984375,0.087255859375,-1.9994341455823088,0.84,0.0390865471214056,40,-11.540047702046133,-1.7859571205557585,-9.026708880777472,8.697018361486176,-0.056844229158014056,-10.972202063021163,-6.489967697787935,-0.058443070575594905,-7.004869060268396,-7.012661250472116,0.3481717011128776,-0.1344643708318472,0.48,1258.0,-0.9973441138863564,2070822.0,0.0,0.4714532010257244,-0.7945403412421002,2914.0,-8.663001960116162
-0.998863622546196,-12.333207540179943,0.0,0.0,0.00030736908702237996,0.6298905313014984,1050.0,0.7657903507351875,-8.979549428010293,0.0018152836477383972,0.004424778761061947,6.472829984140226,4200.0,0.5923532277345658,5.498985778910011,0.5301680602877334,0.0082763671875,0.0727783203125,-0.8375997548719083,0.58,0.03814774071797729,41,-8.955982142297904,-1.8766809268345241,-9.058985536032424,8.708292959781039,-0.059342315513640644,-10.999079041991447,-5.319451883673655,-0.05866267178207636,-5.714633565236832,-5.734312548438049,0.21424533634821932,-0.1327838446944952,0.0,1769.0,-0.9961524173617363,2130150.0,0.0,0.4731602676212788,-0.7882473992303858,678.0,-8.685113102853284
-0.9988379523158073,-11.744982502296583,0.0,0.0,0.00031419920996995644,0.6348354533314705,1075.0,0.7708687037229538,-11.653205476957812,0.0021803885465487838,0.024566473988439308,7.943579484740811,4300.0,0.5966238781809807,1.960111375650967,0.7043790051217782,0.0080322265625,0.0654296875,-0.5273839535530909,0.03,0.03717450127005577,42,-7.29854189254853,-2.084460809560187,-11.745466725210811,11.72599971219274,-0.05987200811505318,-16.186559024860372,-1.8925699042267516,-0.06019400460645556,-2.3550125964245674,-2.1759671726051395,0.029901589704769114,-0.13083477094769477,0.0,2642.0,-0.9945815205574036,2218337.0,0.0,0.47903580591082573,-0.7677331694605527,692.0,-11.744593069155787
-0.9989251151680947,-15.407339216183487,0.0,0.0,0.00029100842657499016,0.635153952240944,1100.0,0.7754412591457367,-13.921961336242779,0.0021662899845978243,0.005891016200294551,8.607511716261378,4400.0,0.6017103508114815,2.755207158362235,0.882930048532019,0.0080810546875,0.0590576171875,-1.412360193067462,0.0,0.038284685276448724,43,-1.3235669015706926,-2.2265658174306737,-13.992865510203625,14.223296484872671,-0.060006798803806306,-14.810869293000724,-2.6754754227093147,-0.06197163118049502,-2.9277424563139625,-2.894379809359612,0.027777777777777776,-0.13085647597908973,0.0,2700.0,-0.9946421727538108,2307971.0,0.0,0.481185469776392,-0.7539488060465374,679.0,-14.294905370829474
-0.9989690482616425,-15.458490294140883,0.0,0.0,0.0002793175630358746,0.6352777481079102,1125.0,0.7832176312804222,-16.159854717775467,0.002104604308260605,0.010263929618768328,9.26546599286414,4500.0,0.6056249856948852,2.0525326131274277,1.2006328090319969,0.0069091796875,0.0478759765625,-1.580014267748715,0.0,0.0390847397968173,44,-2.0834628609735306,-2.4076136155530548,-16.252835221913053,16.937817927859918,-0.0603151997551322,-16.68359407887559,-2.0248404840048004,-0.06398664098232984,-2.180730541263373,-2.097353960693233,0.024444444444444446,-0.1309198573231697,0.0,2700.0,-0.9949075952172279,2397850.0,0.0,0.4787265807390213,-0.734257641727163,682.0,-17.087772729106277
-0.9990702867507935,-14.07385216971652,0.0,0.0,0.0002523802391806385,0.6385926768183708,1150.0,0.7916070088744164,-18.173652741259286,0.0022212811629287897,0.16839378238341968,6.254627187656417,4600.0,0.611448360979557,3.5981009791992293,0.5820044427305966,0.0062744140625,0.06513671875,-1.1165068372402902,0.06,0.03934634225443005,45,-5.048079851788658,-2.5527090598570794,-18.312030819502375,19.580687216990224,-0.059164207149297,-15.922735768034775,-3.558900942941199,-0.06650105472654104,-3.850070131954541,-3.8235711077000283,0.04854000758437618,-0.13196242563426494,0.04,2637.0,-0.9944055765867233,2484563.0,0.0,0.47731033638119696,-0.7174738687426725,772.0,-19.678823989076353
-0.999104055762291,-14.659587716428419,0.0,0.0,0.00024339103074453306,0.6407418072223663,1175.0,0.7995135203003884,-19.049912293919043,0.002051517754443921,0.004424778761061947,4.1666068105657965,4700.0,0.6138772234320641,4.146996257258377,0.4467219164782124,0.0072998046875,0.067578125,-0.9841371005972636,0.17,0.04018527679145336,46,-6.705323217518919,-2.5955918591891534,-19.20850376124445,20.760461240720332,-0.05970847168937325,-18.646696730000443,-4.055239064354374,-0.06772882789373398,-4.358641398752698,-4.387850453288515,0.050597609561752986,-0.13044313490390777,0.0,2510.0,-0.9951359897851944,2568361.0,0.0,0.47964415028691293,-0.7121905664422229,678.0,-20.787906566529113
-0.9991826996207237,-10.697584891978396,0.0,0.0,0.00022246796179388185,0.6422691628336906,1200.0,0.8041191801428795,-15.903689763339386,0.0017696129594696685,0.1441326530612245,5.550786545869437,4800.0,0.617809708416462,4.597686037549437,0.4039817603550434,0.0069580078125,0.0871337890625,-1.2642662409005816,0.39,0.0405690835788846,47,-7.3026500069854166,-2.566286939077327,-16.00004336953645,16.604259014978673,-0.061789702903479335,-18.168699584170632,-4.483583151131549,-0.06830965522676706,-4.786008593660841,-4.85246458432613,0.21122994652406418,-0.12796150408685208,0.0,2244.0,-0.9963489189743996,2638769.0,0.0,0.4793945044279099,-0.7229218947089976,784.0,-16.674156077928693
-0.9992240026593209,-12.798255274052426,0.0,0.0,0.00021147662700968795,0.6435863569378852,1225.0,0.8096856281161309,-17.466586135605063,0.0014992991666076705,0.0014792899408284023,5.325533164308712,4900.0,0.6215096563100815,4.544964405458179,0.366597099109368,0.0065185546875,0.086376953125,-1.0615705527076589,0.51,0.04035799112170935,48,-8.624027799939217,-2.5207464035749583,-17.62823650717125,18.733206105288872,-0.0631934493780136,-15.711702530831596,-4.4166083160746625,-0.06729823406785726,-4.751365313422895,-4.829643049382883,0.3311720698254364,-0.12924281433224677,0.0,2005.0,-0.9975119829177856,2699852.0,0.0,0.4799067974090576,-0.728095795797708,676.0,-18.743526377780114
-0.9992052733898162,-18.319378350080246,0.0,0.0,0.00021645921806339173,0.6446669146418571,1250.0,0.8183540120720864,-15.705798240441112,0.0014781102945562452,0.6423544465770953,4.660377820066628,5000.0,0.6260731130838394,4.934058548649201,0.38424122121315757,0.00693359375,0.10185546875,-0.974674907241984,0.69,0.04044349631294608,49,-9.042698576522143,-2.420024564852065,-15.845491224569491,16.692200770407702,-0.06431100592017173,-16.898421367946042,-4.812031220245657,-0.06660878043621779,-5.144626029612278,-5.203131218004678,0.33121754183496827,-0.13015912249684333,0.2,1733.0,-0.9976031392812729,2752799.0,0.0,0.4818460501730442,-0.7340969736556872,1563.0,-16.62361664043994
-0.9992891415953636,-13.65369137982887,0.0,0.0,0.000194145381465205,0.6461256504058838,1275.0,0.8262482285499573,-11.86692636039228,0.001413150114240125,0.9686565625322198,5.094057221386135,5100.0,0.6299804404377938,5.084596942025854,0.46008083903762576,0.007666015625,0.1166015625,-1.0500544275008366,0.55,0.040602415706962346,50,-9.2847565315989,-2.2764665110986244,-11.965200652882462,11.923174177487155,-0.06636138372123242,-17.560179471153912,-4.951841279508093,-0.06857333462685347,-5.2700894025382805,-5.3369378033631785,0.414387031408308,-0.132811027020216,0.0,1974.0,-0.9978826448321343,2810018.0,0.0,0.48384499177336693,-0.7395561711025949,9699.0,-11.912925878047155
-0.9992792174220085,-11.69831372505803,0.0,0.0,0.0001967883919860469,0.650389452278614,1300.0,0.8374455749988556,-13.99270004375919,0.0013701631047297268,0.9258464473056748,5.095071529009175,5200.0,0.6333859413862228,5.400354956524104,0.47761967094530666,0.0072998046875,0.1003173828125,-1.6735886514364342,0.59,0.04091497072950005,51,-9.632496189116127,-2.1888784715243674,-14.109007888257597,14.234105437066182,-0.06789896544069052,-15.615076799969339,-5.232431725901418,-0.06940981056541204,-5.563477399457791,-5.619733957202446,0.45831120552310145,-0.13447507619857788,0.36,1883.0,-0.9980675905942917,2857448.0,0.0,0.48662537932395933,-0.7494230727312242,4194.0,-14.20947152119353
-0.9992993280291558,-14.799613064730787,0.0,0.0,0.00019143530080327763,0.6561289340257644,1325.0,0.8441719934344292,-13.116884260989488,0.001252777167246677,0.3068062827225131,5.9984636341223325,5300.0,0.6351564198732376,5.7575968431921485,0.48171115396521974,0.00693359375,0.14326171875,-1.4998505221661989,0.58,0.041155589185655116,52,-10.410838323352312,-2.05537436607774,-13.153914593107407,13.260121567179747,-0.07036412097513675,-15.61634820440074,-5.592728578918218,-0.07203951440751552,-5.924053157351834,-5.9857570182704,0.4687819856704197,-0.13699113726615905,0.04,1954.0,-0.9985726654529572,2911866.0,0.0,0.489146264642477,-0.7581256119348836,955.0,-13.176595389327028
-0.9992912232875824,-15.585756222350934,0.0,0.0,0.00019359191319381352,0.6627073183655738,1350.0,0.8481631577014923,-12.765213312543416,0.00122679396008607,0.9128440366972477,3.6881416602804498,5400.0,0.6366173297166824,5.712878150506718,0.46949765378059494,0.0064208984375,0.126123046875,-1.4993994212288977,0.57,0.041452756896615026,53,-12.856341153277654,-1.9803473846684938,-12.85274767179664,13.003861721916461,-0.06911062560975552,-16.109365424996046,-5.547731077410186,-0.07382037471979856,-5.904097532101623,-5.943098714844191,0.3934760448521916,-0.13644994385540485,0.28,1962.0,-0.9986844509840012,2965058.0,0.0,0.492889541387558,-0.7641294451368594,4142.0,-12.832220267116758
-0.999318365752697,-16.87341843456165,0.0,0.0,0.00018636825152498204,0.6661071434617043,1375.0,0.8537502810359001,-12.216230235797346,0.0011146494318381884,0.9206745783885072,4.4800514085701035,5500.0,0.6398500978946686,5.873361833260394,0.5116165948208556,0.006787109375,0.1381591796875,-1.2629943420310568,0.63,0.041526241693645716,54,-12.420204423222321,-1.8539055119108525,-12.324248349859761,12.46006951623311,-0.06918595265597105,-15.15284789291654,-5.704590381482051,-0.07668808083981275,-6.04055388894424,-6.109398030769593,0.4320794148380355,-0.1370531652122736,0.2,1914.0,-0.9991669669747353,3017288.0,0.0,0.49842038974165914,-0.7660588395443483,4803.0,-12.26145195058005
-0.9993275359272957,-13.70377175501233,0.0,0.0,0.00018392830206721557,0.6689529165625572,1400.0,0.863786718249321,-10.86511978856332,0.0010631524768541568,0.9797702297702298,4.057374377473938,5600.0,0.6403830647468567,5.745970453223305,0.4885560901722788,0.006787109375,0.145458984375,-1.3174870406120902,0.61,0.04145189868286252,55,-12.855505987056302,-1.8720517252739228,-10.933916200338114,10.83172291183473,-0.07154629826545715,-15.3654909952129,-5.563103361533334,-0.08181465193629264,-5.924353080660643,-5.973021227143045,0.3311546840958606,-0.1390889972448349,0.24,1836.0,-0.999388524889946,3070286.0,0.0,0.5046820595860482,-0.7707120108705567,8008.0,-10.585804339852038
-0.9993091925978661,-9.401286442236348,0.0,0.0,0.00018881238320318517,0.6731202185153962,1425.0,0.8666238382458686,-11.161302512341692,0.0010999451740644872,0.9468325791855203,4.5933687957864775,5700.0,0.6423611685633659,5.565176546190188,0.5053161133820655,0.0065185546875,0.1414306640625,-1.1969984706920194,0.65,0.041478111408650875,56,-11.826892145342013,-1.8628385654745216,-11.216976766603398,11.143343056473,-0.07256754767149687,-15.285833873734315,-5.4156577282303955,-0.08217497374862433,-5.777958480326559,-5.820829530860869,0.3426410703897615,-0.14189721271395683,0.36,1719.0,-0.9992302343249321,3118275.0,0.0,0.511360077559948,-0.7635846192082681,4420.0,-10.984005164252537
-0.9992688685655594,-6.950062118580001,0.0,0.0,0.00019953806331614033,0.6752791255712509,1450.0,0.8724061936140061,-10.468781690419979,0.0011174377170391381,0.6188178528347407,6.063533892005795,5800.0,0.6465175747871399,5.455922472969993,0.5177350129728001,0.0069091796875,0.1231201171875,-0.9022251648319751,0.64,0.041266781836748125,57,-10.041514791270616,-1.8862023164703714,-10.522357198385643,10.261454059053603,-0.07342553343623877,-12.357313808833034,-5.284058383822826,-0.08293743133544922,-5.635746333394492,-5.697789488880859,0.35981062598632296,-0.14317769035696984,0.0,1901.0,-0.9991549700498581,3175546.0,0.0,0.5156629115343094,-0.7666507139489113,1658.0,-10.089614518431977
-0.9992449805140495,-14.144279382931147,0.0,0.0,0.00020589266241586302,0.6775752693414688,1475.0,0.8824311479926109,-10.782357311502924,0.0011646908038528635,0.7765820060266896,6.255725963888895,5900.0,0.6502267003059388,4.83931203570892,0.8068474957355736,0.00673828125,0.139453125,-1.5052886655992703,0.51,0.0408757708966732,58,-9.212324896884782,-1.9151737060561573,-10.874156852015142,10.774726552679851,-0.07574284598231315,-12.359750264948644,-4.626908588173378,-0.08406766280531883,-4.8995271369563085,-4.997457523235034,0.208104052026013,-0.14213626123964787,0.12,1999.0,-0.9989516630768775,3238090.0,0.0,0.5179974272847175,-0.7693913252765924,2323.0,-10.528483289585356
-0.9992062628269196,-9.105609082394945,0.0,0.0,0.00021619701146846637,0.6808682203292846,1500.0,0.888020695745945,-10.592587509807888,0.0011330857625580393,0.003076923076923077,8.360193347561196,6000.0,0.6550091594457627,5.368388951723283,0.5612229502606205,0.0072021484375,0.096533203125,-0.9267990163194127,0.68,0.0415594476275146,59,-9.315454884016837,-1.9405861204435495,-10.735602215435703,10.551662598061728,-0.07547896374017,-13.189708106064325,-5.217530842486473,-0.08475554045289754,-5.567899873362334,-5.6114252446197765,0.25787631271878647,-0.14375634640455245,0.04,1714.0,-0.9990876540541649,3294218.0,0.0,0.5225049123167992,-0.7709563509422879,650.0,-10.389622376048004
-0.999240729212761,-14.286607076052631,0.0,0.0,0.00020702555193565785,0.6842299252748489,1525.0,0.8953964546322822,-11.113848838722975,0.001190421829232946,0.3928944618599791,6.236510564024266,6100.0,0.6593656733632087,5.4000852630621905,0.6098615102059889,0.007763671875,0.1369873046875,-1.3239482764537374,0.63,0.04228977663442492,60,-9.102715723098077,-2.026803744142671,-11.233819627741749,11.298662875907828,-0.0759189309552312,-12.896469832172762,-5.247848199503936,-0.086830466799438,-5.589069055243233,-5.655693157527662,0.25920084121976866,-0.14607755690813065,0.12,1902.0,-0.9988409519195557,3353256.0,0.0,0.5256545260548592,-0.7720636008900328,957.0,-11.016782862129123
-0.9992594376206398,-14.393807322705955,0.0,0.0,0.00020204569154884665,0.6871730521321296,1550.0,0.9024537950754166,-11.922781658305363,0.00113134461134905,0.96,6.323156496174566,6200.0,0.6628826260566711,4.638197110312298,0.6116027266842579,0.0059326171875,0.134375,-1.0839634224929209,0.65,0.041996915079653266,61,-9.371703886493963,-2.0608699765391068,-12.022252301606919,12.148646629311683,-0.07815794683992863,-13.971827840587801,-4.514974114039033,-0.08882581163197756,-4.8615076256375005,-4.9197014614794625,0.27603305785123966,-0.14717420674860476,0.48,1815.0,-0.9990951433777809,3405121.0,0.0,0.5270680487155914,-0.7681132015917683,5325.0,-11.909641634733994
-0.999242103099823,-11.060986474903345,0.0,0.0,0.00020665909178205766,0.6898102313280106,1575.0,0.9079984322190284,-11.744911958803687,0.0010948681097943335,0.8615326251896813,6.204295639519242,6300.0,0.6666012898087501,4.202706908320721,0.5947333474593821,0.0068115234375,0.1322021484375,-1.3115836908542169,0.7,0.04189645266160369,62,-8.359428457498144,-2.0685447090778326,-11.847137533634974,11.895669250578013,-0.07962827477604151,-14.372077780877662,-4.0751993581774535,-0.08974501322954893,-4.410253069778567,-4.452363247898324,0.3098159509202454,-0.1446831241250038,0.32,1630.0,-0.9992520779371261,3452607.0,0.0,0.5254869848489762,-0.765710185367061,2636.0,-11.696023469124176
-0.9991975456476212,-13.286917151255025,0.0,0.0,0.00021851909841643646,0.6926039904356003,1600.0,0.91511490046978,-12.238605904056081,0.0011172952144988813,0.9214410808106079,5.920480460599966,6400.0,0.6721104785799981,4.699685422966262,0.5338927957305362,0.00654296875,0.049609375,-1.319102741408901,0.75,0.04204936735332012,63,-7.798705387298876,-2.0983850874428756,-12.338231800925858,12.589386338237684,-0.07994043137878179,-14.502962624674291,-4.562577546374239,-0.09019979368895292,-4.904625750877537,-4.9639283079269365,0.3389335281227173,-0.1430318418890238,0.32,1369.0,-0.9991555899381638,3494450.0,0.0,0.525267131626606,-0.7617622747791757,3997.0,-12.368509922888611
-0.9992337971925735,-10.882112551051312,0.0,0.0,0.00020887422469968443,0.698419214785099,1625.0,0.921772351861,-11.873340807253644,0.0011927177634788676,0.5547640249332146,6.1304391334429225,6500.0,0.676534178853035,4.691961358813872,0.6969321811942903,0.0064453125,0.1202392578125,-1.407400739781931,0.62,0.04228071048855782,64,-7.676166672099338,-2.122034428922416,-11.988496368563569,12.031701572793057,-0.08148058466613292,-16.19584189078735,-4.556788743274973,-0.09025542866438627,-4.839383483304096,-4.9167926409686835,0.27607025246981337,-0.14394135773181915,0.2,1822.0,-0.9988310724496842,3548990.0,0.0,0.5240950509905815,-0.7606360826124728,1123.0,-11.834932661141215
-0.9992854624986649,-18.194743753474103,0.0,0.0,0.00019512376093189232,0.7008754640817643,1650.0,0.9271888986229897,-11.866153875132934,0.0012608391902176664,0.9861553784860557,4.988738594599745,6600.0,0.681839756667614,5.0497329236600805,0.6618505652807178,0.0073974609375,0.1366943359375,-1.2768675511447882,0.65,0.04234007438644767,65,-7.981231286368995,-2.117017305007175,-11.984642960262914,12.09280202329455,-0.08208084739744663,-15.08452332000837,-4.922342254894342,-0.0904803778976202,-5.197400401813073,-5.281267599821062,0.3304647160068847,-0.14568463303148746,0.24,1743.0,-0.9985379666090012,3599798.0,0.0,0.5241911381483078,-0.7548994902241247,10040.0,-11.871616963861811
-0.9992332547903061,-13.53801122458352,0.0,0.0,0.0002090153833705699,0.7018079951405525,1675.0,0.9321359008550644,-11.567170617759226,0.0011862257932079956,0.9312107831745294,4.847596502584989,6700.0,0.6865947142243385,4.896800743903432,0.7185704741348499,0.0070068359375,0.1229248046875,-1.3566306860732544,0.72,0.041618299297988416,66,-10.098393228479194,-2.0535965863869934,-11.666433521964342,11.741802574823712,-0.08075410425662995,-16.328060347996495,-4.720386495441055,-0.09084727689623832,-4.96893117877128,-5.058326062384614,0.4242781378903948,-0.1468950942158699,0.32,1697.0,-0.9988590002059936,3645725.0,0.0,0.5236683771014213,-0.7558019655731186,4303.0,-11.550192845524485
-0.9992562249302864,-13.872960234823058,0.0,0.0,0.00020290363536332734,0.7002705112099648,1700.0,0.9368842765688896,-11.802656334233504,0.0011141697672428564,0.9662381692329425,5.097924629472706,6800.0,0.6900640979409218,4.6437926693917655,0.537562497983133,0.0058837890625,0.1416015625,-1.4183075260994762,0.77,0.04144501704722643,67,-8.608270525565088,-2.03554665263473,-11.89823072722194,12.109741258489473,-0.0796493288129568,-14.531888227792578,-4.512012008394077,-0.09219484366476535,-4.811076309058701,-4.905908888159014,0.36036036036036034,-0.1468117531388998,0.2,1443.0,-0.99916902333498,3690084.0,0.0,0.5234547629952431,-0.7565950616324699,7079.0,-11.893717951459395
-0.9992403030395508,-17.724737971247297,0.0,0.0,0.00020713690828415564,0.6996715530753136,1725.0,0.9416898295283318,-11.794656909908566,0.0011048691099858842,0.9769512195121951,5.135657365233679,6900.0,0.6920729264616966,4.590784989563498,0.5428163059041035,0.0055908203125,0.1351318359375,-1.56184442795615,0.79,0.04097978845238685,68,-8.876254400048612,-2.024387223658414,-11.910676652937042,12.241218775158497,-0.07971170097589493,-14.157665907680864,-4.434864264482011,-0.0927857244387269,-4.747403207852128,-4.827511176624526,0.3724722765818656,-0.14574616514146327,0.28,1533.0,-0.9992090538144112,3735653.0,0.0,0.5244328156113625,-0.7611504102424078,8200.0,-12.015033967297352
-0.9992630422115326,-18.012483972165708,0.0,0.0,0.00020108771313971375,0.7020199120044708,1750.0,0.9474237486720085,-11.056313996504919,0.001096839537785854,0.963306152705708,4.935239185273697,7000.0,0.6940265163779259,5.064465645200871,0.6216437874704568,0.006640625,0.131640625,-1.7098548586586533,0.81,0.041495104972273114,69,-9.467240090277613,-1.9685120704471046,-11.153315062952114,11.362651128841167,-0.07973675709217787,-14.544280046686858,-4.899292160194067,-0.09687337838113308,-5.180547935459527,-5.2762482794764995,0.4444444444444444,-0.14685296416282653,0.32,1431.0,-0.9992436036467552,3775847.0,0.0,0.5273703321814537,-0.7597278710542014,5396.0,-11.109218708103084
-0.999237097799778,-19.175179284910815,0.0,0.0,0.00020799233279831242,0.7053714632987976,1775.0,0.9520633205771446,-10.395817879763785,0.0011317675263853744,0.9708347886831994,4.6500394723340515,7100.0,0.695185762643814,4.726103036853544,0.5656214366763106,0.0061279296875,0.148291015625,-1.874443481993456,0.79,0.041229195706546304,70,-10.040677962548525,-1.9138358289492317,-10.505328242717754,10.672193477828818,-0.08177077453583478,-15.289581099036432,-4.5805050658854904,-0.09767494592815637,-4.883395615631055,-4.975209973995807,0.4290633608815427,-0.14509319327771664,0.4,1452.0,-0.9990933254361153,3815505.0,0.0,0.5311329811811447,-0.7576889130486961,5726.0,-10.417563963532093
-0.9992120906710624,-13.962830592573473,0.0,0.0,0.0002146473285392858,0.7083932116627694,1800.0,0.9573035597801208,-10.727003740662116,0.00110813348001102,0.9714093508240834,5.076606699796545,7200.0,0.6974266573786736,5.043631448843269,0.5133774615365687,0.0064208984375,0.1112060546875,-1.1515326213019215,0.81,0.04123865570873022,71,-9.972706920643631,-1.8592592006130872,-10.820981250899468,11.003940246402184,-0.08403832595795394,-15.529894238126891,-4.883905748847155,-0.09872379936277867,-5.220035516914777,-5.304841271823863,0.41580756013745707,-0.14571357183158398,0.36,1455.0,-0.9991949990391731,3855452.0,0.0,0.5348542407155037,-0.7630659614009346,5946.0,-10.836133163188384
