ReemS3/reg_curious_hac/data/d4a6886/AntReacherEnv-v0/alg:chac|eta:0.75|fw:1|fwhidsiz:256,256,256|nlev:2|reg:True|rolbatsiz:1|timsca:27,27|100/progress.csv
train_1/q_loss,train_0/mu_grads,train_1/mu_loss,train_1/q_grads,train_0/mu_grads_std,train_0/reward,epoch,test_0/avg_q,train_0/reward_-1.0_frac,train_0/target_q,train_0/reward_-0.0_frac,train_0/fw_bonus,train_1/subgoal_succ_rate,test_1/avg_q,train/episodes,train_1/fw_bonus,train_1/next_q,train_0/q_loss,train_0/q_grads,train/success_rate,train_1/n_subgoals,policy/steps,test_1/subgoal_succ_rate,train_1/current_q,train_0/fw_loss,train_1/q_grads_std,train_1/fw_loss,train_0/q_grads_std,train_1/reward_-27.0_frac,train_1/reward,train_1/reward_-0.0_frac,train_1/target_q,train_0/mu_loss,train_0/avg_q,test/success_rate,test_1/n_subgoals,train_0/current_q,test/episodes,train_1/mu_grads,train_1/reward_-1.0_frac,train_1/mu_grads_std,train_1/avg_q,train_0/next_q
2.31764628598777,-0.004520158481318504,12.50196936443304,0.02301487382501364,0.15722398050129413,-0.6237035356476553,0,-25.35228074497357,0.0043701171875,-6.269136403325443,0.0,-0.995986008644104,0.0007407407407407407,-20.25020794615119,100.0,-0.9927203252911567,-11.424839547713642,0.6025235266892526,-0.0026191006152657794,0.0,2700.0,91096.0,0.0,-11.574550221043205,0.03159215124323964,0.14042388461530209,0.07369800806045532,0.10942068751901388,0.0,-2.6452870132063255,0.0,-11.57384441025988,6.192540265336865,-11.161075430238009,0.0,675.0,-6.089219269569937,25.0,0.0037844592821784317,0.0083984375,0.11736048925668001,-14.450006916108162,-6.057053979047624
2.1286136130511295,-0.009945090534165502,11.50909076723936,0.01413796932902187,0.20513661615550519,-0.6147515041313454,1,-26.454314026813925,0.0188720703125,-7.908065394286416,0.0,-0.9978243768215179,0.032962962962962965,-20.45187280538142,200.0,-0.9911117881536484,-10.40725328660898,0.3972007765152039,-0.0039050923951435834,0.0,2700.0,180291.0,0.0,-10.705338265292037,0.017384572769515216,0.15768657103180886,0.08707946818321943,0.13104429095983505,0.0,-2.580266959202345,0.0,-10.629385940344076,7.672106872226015,-18.867704451931594,0.0,675.0,-7.798808793044057,50.0,0.0024819089216180147,0.0042724609375,0.12220337782055139,-21.3476971796284,-7.6892957315129795
3.903409399194527,-0.010944958892650902,9.377518963528502,-0.0010129085188964383,0.24324593022465707,-0.6206516525635379,2,-26.99993784682029,0.0321533203125,-8.430856541414022,0.0,-0.9982804402709007,0.0,-22.943240155616508,300.0,-0.9905671417713166,-8.114331171573344,0.35244502617671586,-0.0030467275413684548,0.0,2700.0,271416.0,0.0,-8.866978227286655,0.013859938131645322,0.17178361117839813,0.09161039851605893,0.1426440730690956,0.0,-2.612595396377583,0.0,-8.84896908102376,8.223070487044756,-26.748490902807355,0.0,675.0,-8.32668072089418,75.0,0.0017773725936422124,0.0040283203125,0.12830449156463147,-20.930092661967926,-8.220463957147583
9.236767710153606,-0.01780144702643156,24.72130474599073,-0.010109232109971344,0.2741324707865715,-0.6191359300035402,3,-26.547177149900822,0.028515625,-7.861596974994216,0.0,-0.9984431341290474,0.0014814814814814814,-21.55879278536841,400.0,-0.9894698083400726,-23.587089823346467,0.3694237927701281,-0.004750353703275323,0.0,2700.0,362482.0,0.0,-20.380982350622123,0.012602554867044091,0.18962504118680953,0.10073913540691137,0.15557432509958743,0.0,-2.5501933787279993,0.0,-20.296342738300712,7.65831538662282,-25.94687377264105,0.0,675.0,-7.745786450041986,100.0,-1.1787559125764347e-05,0.00341796875,0.1252404611557722,-22.325136836069,-7.6424534458293865
5.445974079754486,-0.02189881457015872,11.959946991702925,-0.014982420578598976,0.2919007338583469,-0.6171107849670079,4,-26.196158758420292,0.0701416015625,-9.05614755961679,0.0,-0.9986189350485801,0.014814814814814815,-20.121731838287396,500.0,-0.9880969360470772,-10.968287898411756,0.3262222528472181,-0.004924296366516501,0.0,2700.0,452846.0,0.0,-11.126641834367197,0.011244002263993025,0.19992153234779836,0.11216002311557531,0.16453258469700813,0.0,-2.602401433624982,0.0,-11.415658593337174,8.862308230593873,-26.20968688895253,0.0,675.0,-8.940392446762484,125.0,-0.001411211656522937,0.002587890625,0.11880674492567778,-22.989218018587326,-8.863488011010476
3.1064405209698265,-0.024332255870103837,13.40477801063459,-0.018837127974256872,0.3081756949424744,-0.6199611951433326,5,-22.975382682761797,0.0975341796875,-9.328143239371181,0.0,-0.9986680209636688,0.044444444444444446,-20.60137818703813,600.0,-0.9868379250168801,-12.333553391694483,0.41859089594883636,-0.005157324450556189,0.0,2700.0,540886.0,0.02242152466367713,-12.187347754742358,0.010864525637589394,0.20864841975271703,0.12263393606990576,0.16976748406887054,0.0,-2.5769462955751807,0.0,-12.331013562711439,9.127062282405518,-24.32059126879914,0.04,669.0,-9.195800499394071,150.0,-0.0010510514199268072,0.002587890625,0.11754318978637457,-20.4139860227942,-9.130793514708426
2.550563441414004,-0.0273567418102175,1.2601694660999283,-0.02303829537704587,0.32756529971957205,-0.6407036576070823,6,-26.999995697284913,0.0931884765625,-4.019808583763765,0.0,-0.9985079959034919,0.03259259259259259,-20.43711374552935,700.0,-0.9854581475257873,-0.26304903989767026,0.6241806554247175,-0.009916701703332365,0.0,2700.0,630300.0,0.0,-2.787996926465385,0.012101326487027109,0.21820561401546001,0.13411230742931365,0.17743157185614108,0.0,-2.6497336767111848,0.0,-2.83988463563923,3.709554059449554,-23.94229423806555,0.0,675.0,-3.7793726937532512,175.0,0.00024410695987171495,0.002099609375,0.12015538234263659,-20.412599719653837,-3.7108224859064407
0.8600688576860686,-0.0293255299795419,1.142675568312099,-0.026365998573601244,0.33377342000603677,-0.6314466405256098,7,-27.0,0.109326171875,-9.427785186418728,0.0,-0.9986137092113495,0.0,-20.229529434369738,800.0,-0.9868071034550667,-0.1430422474234898,0.46049601423128134,-0.010571060888469219,0.0,2700.0,721425.0,0.0,-2.722459041198774,0.011284272535704076,0.23558298237621783,0.12289021220058202,0.17897602468729018,0.0,-2.611032831406919,0.0,-2.7220120694503245,9.262426846938283,-26.998906960208128,0.0,675.0,-9.314180298321478,200.0,0.006492876331321895,0.002587890625,0.12767378017306327,-19.3359753237749,-9.255668227431157
0.4241197508587555,-0.030703648971393705,1.0313572601261065,-0.03211935656145215,0.34295598939061167,-0.6254590626715071,8,-27.0,0.0987548828125,-9.321970863817844,0.0,-0.9987600699067116,0.0,-20.30358915078074,900.0,-0.9874879032373428,-0.03111680339253336,0.4264166968979244,-0.011407937854528427,0.0,2700.0,812550.0,0.0,-2.6267520790980834,0.010153078753501178,0.2528808631002903,0.11722677182406187,0.18049610517919062,0.0,-2.6053436534344656,0.0,-2.6292898113380034,9.138706031243425,-27.0,0.0,675.0,-9.192210047808322,225.0,0.013661079644225537,0.0024169921875,0.1430802769958973,-19.701771282673278,-9.138131067406528
0.2827348748103834,-0.03274634527042508,1.0069877203354056,-0.03725657342001796,0.35148511826992035,-0.6133540986444131,9,-27.0,0.1275146484375,-9.499630585260892,0.0,-0.9988997772336006,0.0,-20.449584384003593,1000.0,-0.9875175565481186,-0.0068733724896505475,0.3883485947601663,-0.011353398580104113,0.0,2700.0,903675.0,0.0,-2.606661334857575,0.009073310601525008,0.26902679428458215,0.11697996724396945,0.18289396464824675,0.0,-2.6060285589868726,0.0,-2.611092452698869,9.32276051697608,-27.0,0.0,675.0,-9.372387067789711,250.0,0.02174542360007763,0.004150390625,0.1659720443189144,-19.724648743644345,-9.320437134310003
6.000619261039162,-0.030846458720043303,28.0,-0.0373745528049767,0.36047621369361876,-0.6030172020949977,10,-27.0,0.1404052734375,-9.273284901285383,0.0,-0.9990805312991142,0.0,-20.636760803265446,1100.0,-0.9879549607634545,-27.0,0.3311222202618397,-0.014100775658152997,0.0,2700.0,994800.0,0.0,-21.074419577825566,0.007676524680573493,0.28587141558527945,0.1133412042632699,0.1858630247414112,0.0,-2.5907570508588833,0.0,-21.354359589921398,9.075973797288942,-27.0,0.0,675.0,-9.140924348353902,275.0,0.024516167119145393,0.005615234375,0.17343875765800476,-20.72372305500855,-9.078804255471413
4.579896852838199,-0.030339712789282203,28.0,-0.03887533852830529,0.3624263033270836,-0.5739450070137536,11,-27.0,0.113818359375,-9.494906835394422,0.0,-0.9993200615048409,0.0,-20.287708865811965,1200.0,-0.9892422005534172,-27.0,0.17391675284639369,-0.014488805597648025,0.0,2700.0,1085925.0,0.0,-20.54457029699187,0.005825260642450303,0.3013469196856022,0.10263260919600725,0.18796401433646678,0.0,-2.6107260769880667,0.0,-20.846549807456828,9.29022796585692,-27.0,0.0,675.0,-9.34200756592563,300.0,0.024516167119145393,0.006005859375,0.17343875765800476,-20.67897257103848,-9.288653475131449
3.3762186780934087,-0.029801688389852643,28.0,-0.04128930261358619,0.3658324234187603,-0.570600618289609,12,-27.0,0.1302978515625,-9.412968293844765,0.0,-0.9993458315730095,0.0,-20.4020299420362,1300.0,-0.9902402386069298,-27.0,0.15468922503858532,-0.014375579124316574,0.0,2700.0,1177050.0,0.0,-20.73513018646935,0.005626136192586273,0.3137863799929619,0.09432985093444586,0.18960047252476214,0.0,-2.5852126471683734,0.0,-21.045843018262136,9.197116083245033,-27.0,0.0,675.0,-9.259518722674496,325.0,0.024516167119145393,0.0062744140625,0.17343875765800476,-20.60354240177549,-9.19565460755457
3.424177329829243,-0.03173749297857285,28.0,-0.04380815327167511,0.3710001684725285,-0.5797242676257156,13,-27.0,0.0974853515625,-9.402675661499831,0.0,-0.9992925599217415,0.0,-20.645446077483452,1400.0,-0.9909481123089791,-27.0,0.17809528792032778,-0.01456135706976056,0.0,2700.0,1268175.0,0.0,-21.1313145619993,0.0060377050307579335,0.3252043522894382,0.08844105247408152,0.19384108036756514,0.0,-2.5810866384024846,0.0,-21.448048552464996,9.18389215146125,-27.0,0.0,675.0,-9.250859590135935,350.0,0.024516167119145393,0.0067626953125,0.17343875765800476,-20.65539225946307,-9.183140208217276
2.7960589381200855,-0.0302487688139081,28.0,-0.04536921456456185,0.3779016859829426,-0.5934641221858328,14,-27.0,0.1411376953125,-9.56970597156845,0.0,-0.999247120320797,0.0,-20.813706404547396,1500.0,-0.9915064632892608,-27.0,0.19450369993308678,-0.0149004181381315,0.0,2700.0,1359300.0,0.0,-21.625367796871945,0.006389077112544328,0.3361605629324913,0.08379612378776073,0.19868081174790858,0.0,-2.5979986848382395,0.0,-21.969483548119502,9.33983594981479,-27.0,0.0,675.0,-9.421881399718316,375.0,0.024516167119145393,0.00576171875,0.17343875765800476,-20.83035912737875,-9.33781896362862
2.056446646248536,-0.02862651888281107,28.0,-0.04708886221051216,0.3868317298591137,-0.607831403354794,15,-27.0,0.137841796875,-9.60739340552983,0.0,-0.9992211252450943,0.0,-20.709499002427382,1600.0,-0.9920130163431168,-27.0,0.20404619534431187,-0.015199855226092041,0.0,2700.0,1450425.0,0.0,-22.16103498574835,0.006589957629330456,0.34738724008202554,0.07958210650831461,0.2036869704723358,0.0,-2.6446890431350765,0.0,-22.50777693376009,9.354855243335015,-27.0,0.0,675.0,-9.455357939652561,400.0,0.024516167119145393,0.0050537109375,0.17343875765800476,-20.809354755020177,-9.35272403871609
2.093341642224684,-0.02401155363768339,28.0,-0.047911429591476914,0.3969531588256359,-0.6234549159657036,16,-27.0,0.1142822265625,-9.623531875296521,0.0,-0.9991663560271263,0.0,-20.235877060127518,1700.0,-0.9923361286520958,-27.0,0.20833073645013825,-0.015392031543888152,0.0,2700.0,1541550.0,0.0,-22.70087227527544,0.007013298489619046,0.3587656930088997,0.07689412496984005,0.209860260412097,0.0,-2.6296270000009825,0.0,-23.03987358203225,9.350071964570034,-27.0,0.0,675.0,-9.467771655108075,425.0,0.024516167119145393,0.006787109375,0.17343875765800476,-20.85552360743145,-9.34517889688694
1.7017063940954742,-0.022038204688578845,28.0,-0.04843514421954751,0.4058915786445141,-0.6372887441724743,17,-27.0,0.1128173828125,-9.741548006639734,0.0,-0.9992037951946259,0.0,-20.6742884762296,1800.0,-0.9930105924606323,-27.0,0.20550525268007647,-0.01600554254837334,0.0,2700.0,1632675.0,0.0,-23.0737132135701,0.006723780371248722,0.3701070658862591,0.07128311321139336,0.21543701216578484,0.0,-2.6644025528868953,0.0,-23.42348702554316,9.454575439598049,-27.0,0.0,675.0,-9.585451023930016,450.0,0.024516167119145393,0.0086181640625,0.17343875765800476,-20.66286636770276,-9.448751775058255
1.3112447088620347,-0.018632234493270516,28.0,-0.04815467596054077,0.41409771144390106,-0.642234728627227,18,-27.0,0.1258056640625,-9.814416374614147,0.0,-0.9992123588919639,0.0,-20.609524645391964,1900.0,-0.9931551724672317,-27.0,0.23759749991814352,-0.016456323442980647,0.0,2700.0,1723800.0,0.0,-23.206376709339047,0.006657729460857809,0.3803149312734604,0.07008043769747019,0.22096516266465188,0.0,-2.6871803928264852,0.0,-23.5683581272015,9.530426806673367,-27.0,0.0,675.0,-9.662217095914128,475.0,0.024516167119145393,0.0080810546875,0.17343875765800476,-20.71935411144318,-9.525799264702574
1.609921021682426,-0.01571130200754851,28.0,-0.04992322912439704,0.42153096944093704,-0.6510921446515567,19,-27.0,0.1107421875,-9.742179926074797,0.0,-0.9991927966475487,0.0,-20.75595634314835,2000.0,-0.9932784333825111,-27.0,0.2576134410463839,-0.017383747594431044,0.0,2700.0,1814925.0,0.0,-23.221485313629294,0.006808857235591858,0.3905924059450626,0.06905494797974825,0.22634342387318612,0.0,-2.6669231252959436,0.0,-23.58233865263971,9.443074803495037,-27.0,0.0,675.0,-9.589923038989124,500.0,0.024516167119145393,0.0087158203125,0.17343875765800476,-20.795300557765696,-9.43753993090689
1.6858686442789559,-0.010934213502332568,28.0,-0.05083812838420272,0.42680180817842484,-0.6514617741482652,20,-27.0,0.1044677734375,-9.774491192024973,0.0,-0.9992064714431763,0.0,-20.614428765646917,2100.0,-0.9933286726474762,-27.0,0.2384166518252603,-0.018180593382567167,0.0,2700.0,1906050.0,0.0,-23.246856608764908,0.0067031701328232884,0.39925968945026397,0.06863713413476943,0.23213158473372458,0.0,-2.6828109264086377,0.0,-23.6176063365649,9.471199530059511,-27.0,0.0,675.0,-9.621302255644045,525.0,0.024516167119145393,0.0084228515625,0.17343875765800476,-20.774911467429877,-9.466279069028133
1.676828922782521,-0.009852189826779068,28.0,-0.05115958424285054,0.43134242594242095,-0.6480037019533483,21,-27.0,0.135400390625,-9.685509552094837,0.0,-0.99921695291996,0.0,-20.46529201661629,2200.0,-0.9933254361152649,-27.0,0.22501996308151365,-0.01897739302366972,0.0,2700.0,1997175.0,0.0,-22.930301573675642,0.006622143334243447,0.40838234797120093,0.06866398882120847,0.23674122542142867,0.0,-2.664719299571152,0.0,-23.292666565196164,9.38498844640748,-27.0,0.0,675.0,-9.52907099997537,550.0,0.024516167119145393,0.008251953125,0.17343875765800476,-20.78944251038469,-9.37697405015823
1.8566471640467852,-0.00843460876494646,28.0,-0.052891612704843285,0.4358275420963764,-0.6463384366998071,22,-27.0,0.12373046875,-9.739256063331917,0.0,-0.9992209315299988,0.0,-20.619640492519203,2300.0,-0.9932337284088135,-27.0,0.23286612587729305,-0.018709541624411942,0.0,2700.0,2088300.0,0.0,-23.032283089423352,0.006591402064077556,0.415568894892931,0.06942689185962081,0.24096973724663256,0.0,-2.6084280609797132,0.0,-23.396582357854733,9.433729901762817,-27.0,0.0,675.0,-9.585808746668947,575.0,0.024516167119145393,0.00810546875,0.17343875765800476,-20.789437367983197,-9.43037373155454
1.3910992191012261,-0.006883579795248807,28.0,-0.053133551683276894,0.44118779301643374,-0.6490501200201834,23,-27.0,0.0750732421875,-9.698265108451796,0.0,-0.9992278292775154,0.0,-20.80121047432399,2400.0,-0.9928205668926239,-27.0,0.22945526054145676,-0.019347369810566305,0.0,2700.0,2179425.0,0.0,-23.002562942451288,0.006538151169661432,0.42301119565963746,0.07286406327039004,0.24586928486824036,0.0,-2.704729798350672,0.0,-23.353348938975685,9.393113078822484,-27.0,0.0,675.0,-9.542058093894141,600.0,0.024516167119145393,0.0081787109375,0.17343875765800476,-20.711325058849493,-9.384399486741907
1.505943549137454,-0.00615377762587741,28.0,-0.05458830343559384,0.44549084156751634,-0.644444270236636,24,-27.0,0.1000244140625,-9.694992158450834,0.0,-0.9991882190108299,0.0,-20.645108203730143,2500.0,-0.992776845395565,-27.0,0.24148985679077625,-0.019769560685381292,0.0,2700.0,2270550.0,0.0,-23.012884488707066,0.006844273372553289,0.430267670750618,0.07322765029966831,0.25022856146097183,0.0,-2.666925904484015,0.0,-23.360118775577778,9.394208889581979,-27.0,0.0,675.0,-9.539504685836402,625.0,0.024516167119145393,0.00810546875,0.17343875765800476,-20.761943270643854,-9.3868184540622
1.9699994481764573,-0.006497715425211936,28.0,-0.05628357995301485,0.4503080390393734,-0.649187385269397,25,-27.0,0.1248779296875,-9.849135772458604,0.0,-0.9991909429430962,0.0,-20.551828087578862,2600.0,-0.9922982916235924,-27.0,0.23500063567549317,-0.020462656766176222,0.0,2700.0,2361675.0,0.0,-22.95600009302384,0.006823150860145688,0.4363770060241222,0.07720887139439583,0.2548489935696125,0.0,-2.653055039758692,0.0,-23.314594102258706,9.548844489872597,-27.0,0.0,675.0,-9.692896303908535,650.0,0.024516167119145393,0.0084228515625,0.17343875765800476,-20.797910810002136,-9.542171178811616
1.6213298244808438,-0.005919206130784005,28.0,-0.05805657310411334,0.45578955560922624,-0.6466386313230033,26,-27.0,0.1012939453125,-9.71015120661375,0.0,-0.9991766020655632,0.0,-20.499346687036187,2700.0,-0.9917800351977348,-27.0,0.22554707012859065,-0.021882294863462447,0.0,2700.0,2452800.0,0.0,-23.119028731441787,0.006934063171502203,0.44309078603982927,0.08152028787881135,0.2601378999650478,0.0,-2.6681049192855424,0.0,-23.481453063816808,9.415230043214663,-27.0,0.0,675.0,-9.556452790694403,675.0,0.024516167119145393,0.0076416015625,0.17343875765800476,-20.72104079574657,-9.406760171872847
1.648144521617337,-0.005144187214318663,28.0,-0.0590297088958323,0.4619659692049026,-0.6486980254725495,27,-27.0,0.096435546875,-9.710624653908543,0.0,-0.9991377994418145,0.0,-20.408515654056053,2800.0,-0.9905943498015404,-27.0,0.26087861785879535,-0.022649047384038567,0.0,2700.0,2543925.0,0.0,-23.253404768512077,0.007233854744117707,0.4497307017445564,0.0913839703425765,0.26670135334134104,0.0,-2.6476119678816756,0.0,-23.62052114756919,9.413538985027017,-27.0,0.0,675.0,-9.556337705490728,700.0,0.024516167119145393,0.0074462890625,0.17343875765800476,-20.731887730347765,-9.408050865164425
1.3116737972934591,-0.0034993374429177493,28.0,-0.05980019401758909,0.4680224873125553,-0.6484906413323188,28,-27.0,0.1259033203125,-9.740263678159568,0.0,-0.9991139322519302,0.0,-20.509975121852754,2900.0,-0.9898771360516548,-27.0,0.23581173608162417,-0.023673561913892627,0.0,2700.0,2635050.0,0.0,-23.310854144408143,0.007418349850922823,0.45652989149093626,0.09735052213072777,0.2719609379768372,0.0,-2.691139939007553,0.0,-23.67115507572632,9.441061100729891,-26.9999999999301,0.0,675.0,-9.585764322915573,725.0,0.024516167119145393,0.0078125,0.17343875765800476,-20.667087699615973,-9.433275471648134
1.2417657800596071,-0.00323528153821826,28.0,-0.061437458358705045,0.4738317415118217,-0.6534473439223802,29,-27.0,0.10185546875,-9.775346313907574,0.0,-0.9991653487086296,0.0,-20.54174432349505,3000.0,-0.9900674685835839,-27.0,0.2578367765691456,-0.02448305543512106,0.0,2700.0,2726175.0,0.0,-23.448336424924992,0.0070209612371399995,0.46354955807328224,0.09576724637299776,0.27827357724308965,0.0,-2.597968524793032,0.0,-23.8299221380743,9.473545490582449,-26.999999999991438,0.0,675.0,-9.620540375088819,750.0,0.024516167119145393,0.0072265625,0.17343875765800476,-20.74403321776514,-9.467053653046
1.6920302982614401,-0.0031661442364566026,28.0,-0.06378214508295059,0.4776628464460373,-0.6530512100158375,30,-26.99999999999995,0.099560546875,-9.76680202882459,0.0,-0.9991921469569206,0.0,-20.989010568109364,3100.0,-0.990561380982399,-27.0,0.24851935486466817,-0.024688212107867,0.0,2700.0,2817300.0,0.0,-23.548486825613374,0.006813895201776177,0.4696009702980518,0.09165831450372934,0.2840674176812172,0.0,-2.658974571351064,0.0,-23.92839595806983,9.466472263437982,-26.99999999986394,0.0,675.0,-9.61156463458641,775.0,0.024516167119145393,0.007421875,0.17343875765800476,-20.712282012435445,-9.45849864977101
1.314646586006862,-0.003932655893731862,28.0,-0.06522737573832274,0.48081138730049133,-0.6640889973517915,31,-27.0,0.0732177734375,-9.723297072098628,0.0,-0.9991782575845718,0.0,-20.487648412284685,3200.0,-0.9897048801183701,-27.0,0.2549932802115932,-0.02534985593520105,0.0,2700.0,2908425.0,0.0,-23.54967717504879,0.006921243690885604,0.4753131665289402,0.09878349956125021,0.2907974749803543,0.0,-2.616902537150236,0.0,-23.92702167777525,9.403570101292294,-26.999999999999638,0.0,675.0,-9.568831363464898,800.0,0.024516167119145393,0.0065185546875,0.17343875765800476,-20.846477266250673,-9.39828783529694
1.214349418212955,-0.002876291872235015,28.0,-0.06596919465810061,0.4863642491400242,-0.6698344577496755,32,-27.0,0.0656494140625,-9.805959634996801,0.0,-0.9991620570421219,0.0,-20.589025423778097,3300.0,-0.9898931160569191,-27.0,0.24960202590443376,-0.026154246740043165,0.0,2700.0,2999550.0,0.0,-23.499824419743145,0.007046480884309858,0.4810089595615864,0.09721762705594302,0.2957866176962852,0.0,-2.5953248399884616,0.0,-23.875082164207225,9.48320875350255,-26.9999999999964,0.0,675.0,-9.650969738038963,825.0,0.024516167119145393,0.0070556640625,0.17343875765800476,-20.767240848277584,-9.476318356142814
1.843394271263239,-0.002925580972805619,28.0,-0.0668803296983242,0.4902889184653759,-0.669947451398184,33,-27.0,0.0645751953125,-9.782648901160002,0.0,-0.9991745606064797,0.0,-20.378841435146196,3400.0,-0.9902631655335427,-27.0,0.24780032848858288,-0.02717019463889301,0.0,2700.0,3090675.0,0.0,-23.55327298640551,0.006949712871573865,0.4867404416203499,0.09413897823542357,0.3002058893442154,0.0,-2.5942088628929922,0.0,-23.93598181211176,9.4603387292423,-27.0,0.0,675.0,-9.629585633002032,850.0,0.024516167119145393,0.0065673828125,0.17343875765800476,-20.79703695647663,-9.451251082693679
1.1045454094135558,-0.003142009803559631,28.0,-0.06780416704714298,0.4955215871334076,-0.6750485016167659,34,-27.0,0.075244140625,-9.825341683791596,0.0,-0.99914420992136,0.0,-20.46990621926749,3500.0,-0.990220907330513,-27.0,0.2508861157464377,-0.02776168640702963,0.0,2700.0,3181800.0,0.0,-23.5237758171902,0.007184418046381325,0.49184418842196465,0.0944908007979393,0.304800296574831,0.0,-2.621499315172332,0.0,-23.897380662828596,9.49527753385036,-26.99999999999998,0.0,675.0,-9.670723506978746,875.0,0.024516167119145393,0.006396484375,0.17343875765800476,-20.707631847173136,-9.491518792575667
1.6097829229601888,-0.002254867018200457,28.0,-0.06765765994787216,0.501009675860405,-0.6727748883316963,35,-26.999999999999325,0.08076171875,-9.824322241177757,0.0,-0.9991317763924599,0.0,-20.53680296272631,3600.0,-0.9894925788044929,-27.0,0.25600200714487964,-0.028371293423697354,0.0,2700.0,3272925.0,0.0,-23.501089165104002,0.007280427252408117,0.4966695196926594,0.10054958686232567,0.3092107705771923,0.0,-2.6062842808933055,0.0,-23.87505967151832,9.500414575381843,-26.999999999999794,0.0,675.0,-9.673831983732526,900.0,0.024516167119145393,0.0064453125,0.17343875765800476,-20.757052382764495,-9.493097182772871
0.9790915865603775,-0.001346730414661579,28.0,-0.0687144985422492,0.5051910251379013,-0.6736917351252487,36,-27.0,0.0893798828125,-9.869152597646949,0.0,-0.9991370469331742,0.0,-20.55017468680236,3700.0,-0.9891004741191864,-27.0,0.24614550672385044,-0.02823438639752567,0.0,2700.0,3364050.0,0.0,-23.307566095762365,0.007239632389973849,0.5019208177924156,0.10381157733500004,0.31422116458415983,0.0,-2.6669223367094674,0.0,-23.671485324990734,9.545916932225877,-26.999999999998675,0.0,675.0,-9.716645722251181,925.0,0.024516167119145393,0.006689453125,0.17343875765800476,-20.887316187728487,-9.537021976089187
1.1413197725629767,-0.0013716116081923246,28.0,-0.0697987575083971,0.5086901322007179,-0.6729448272453737,37,-26.99999999999705,0.0939208984375,-9.858694399922465,0.0,-0.9991523578763009,0.0,-20.445622675836894,3800.0,-0.9891789048910141,-27.0,0.25525532488729574,-0.02888390263542533,0.0,2700.0,3455175.0,0.0,-23.272135514353355,0.007121403736528009,0.5072940483689308,0.1031590910628438,0.31904617995023726,0.0,-2.673716847275864,0.0,-23.63822807774463,9.538682906741602,-26.999999999999005,0.0,675.0,-9.707088641415686,950.0,0.024516167119145393,0.00673828125,0.17343875765800476,-20.774474619815937,-9.530683097915235
0.8773708461148064,-0.0006833780033048242,28.0,-0.07164138313382865,0.5121624812483787,-0.6744798867945064,38,-27.0,0.08193359375,-9.930078044569019,0.0,-0.9991402491927147,0.0,-20.454117100290695,3900.0,-0.9891291648149491,-27.0,0.26984384804422906,-0.029457171075046064,0.0,2700.0,3546300.0,0.0,-23.30703216276937,0.007214957091491669,0.5114907801151276,0.10357298720628023,0.32479509711265564,0.0,-2.7023787242138497,0.0,-23.666889954682617,9.613642171279734,-26.999999999939032,0.0,675.0,-9.77587963566759,975.0,0.024516167119145393,0.0071044921875,0.17343875765800476,-20.748662586038236,-9.602153207918189
1.263746667245656,-0.00047572655530530027,28.0,-0.07340550124645233,0.5160114511847496,-0.6645308205170295,39,-27.0,0.0867431640625,-9.744458948591355,0.0,-0.9991877272725105,0.0,-20.977983985007043,4000.0,-0.9896161884069443,-27.0,0.24212604523434447,-0.029922467796131967,0.0,2700.0,3637425.0,0.0,-23.311126717430007,0.006847971200477332,0.516415137052536,0.09952138625085354,0.33020271733403206,0.0,-2.610654778737808,0.0,-23.683693352956574,9.423957001025357,-26.999999999995993,0.0,675.0,-9.586245447894518,1000.0,0.024516167119145393,0.0075927734375,0.17343875765800476,-20.81726205750633,-9.414229713559044
0.8320334717979906,-7.312823827305692e-05,28.0,-0.0742735555395484,0.5192272245883942,-0.658384484374983,40,-27.0,0.0645751953125,-9.67424827435379,0.0,-0.9992117628455162,0.0,-20.532049602648687,4100.0,-0.9903863683342934,-27.0,0.24071264596440428,-0.031011990597471596,0.0,2700.0,3728550.0,0.0,-23.42835765952139,0.006662257190328091,0.5208354517817497,0.09311415590345859,0.33413114994764326,0.0,-2.6437879991626687,0.0,-23.797576085100182,9.365913658371957,-26.999999999980414,0.0,675.0,-9.521626286059774,1025.0,0.024516167119145393,0.0076416015625,0.17343875765800476,-20.889689222579857,-9.358518055295807
0.8904701870577432,-0.0007560987272881903,28.0,-0.07536537200212479,0.5226626068353653,-0.6557530123594916,41,-26.999999999999996,0.08603515625,-9.63598578057488,0.0,-0.9992327585816383,0.0,-20.59846357736626,4200.0,-0.9910755529999733,-27.0,0.22081824551195584,-0.031947999726980925,0.0,2700.0,3819675.0,0.0,-23.294015383639042,0.00650006189243868,0.5256168156862259,0.08738091513514519,0.33919735103845594,0.0,-2.663222986654728,0.0,-23.65938802571724,9.325787170144196,-26.99999999999994,0.0,675.0,-9.483597541451257,1050.0,0.024516167119145393,0.007763671875,0.17343875765800476,-20.792748610681866,-9.317079504063017
1.4113632687290925,-0.0022038188704755156,28.0,-0.07687850706279278,0.5252209097146988,-0.6486454867088469,42,-26.999999999993662,0.060009765625,-9.734961874988018,0.0,-0.9992938682436943,0.0,-20.655201753243347,4300.0,-0.991692116856575,-27.0,0.2153386371506199,-0.032449960988014934,0.0,2700.0,3910800.0,0.0,-23.200349598282102,0.006027794769033789,0.5312676146626473,0.0822516655549407,0.3438067831099033,0.0,-2.6740888001073473,0.0,-23.559788507138613,9.420061480689515,-26.999999999999602,0.0,675.0,-9.575140822728429,1075.0,0.024516167119145393,0.00751953125,0.17343875765800476,-20.730769647012085,-9.415238105787518
2.6170493821426835,-0.0030622185731772333,28.0,-0.07796797566115857,0.5266122087836266,-0.6424306818167679,43,-27.0,0.0601318359375,-9.651627814836697,0.0,-0.9993369773030281,0.0,-20.45390108252676,4400.0,-0.9920341238379479,-27.0,0.21095432458766053,-0.032907499186694625,0.0,2700.0,4001925.0,0.0,-23.14989449945599,0.005694511253386736,0.5362316086888314,0.07940648030489683,0.34702095612883566,0.0,-2.7458417816676954,0.0,-23.526244125417712,9.343460891311725,-26.99999999994045,0.0,675.0,-9.49852968683016,1100.0,0.024516167119145393,0.008642578125,0.17343875765800476,-20.789221548502006,-9.339918232851332
1.777280704820265,-0.0037855775910429655,28.0,-0.07899871319532395,0.5287181749939919,-0.64743067756026,44,-26.999999999999996,0.0659912109375,-9.792572844983226,0.0,-0.9993418663740158,0.0,-20.231386565149,4500.0,-0.9924380719661713,-27.0,0.22204049578595023,-0.03359257197007537,0.0,2700.0,4093050.0,0.0,-23.07609267514142,0.005656906100921333,0.5404762849211693,0.07604600843042135,0.3512146040797234,0.0,-2.723054584242709,0.0,-23.44596327564897,9.483533513269535,-26.999999999998458,0.0,675.0,-9.635280382643156,1125.0,0.024516167119145393,0.008349609375,0.17343875765800476,-20.707982455043886,-9.478836853253553
1.6563954961357616,-0.004586034885141999,28.0,-0.08103957306593657,0.5310182496905327,-0.6400289186600275,45,-27.0,0.036865234375,-9.527782355849851,0.0,-0.9993978992104531,0.0,-20.376946458871316,4600.0,-0.9928928419947625,-27.0,0.19496053015162682,-0.0339440381154418,0.0,2700.0,4184175.0,0.0,-23.08854539437396,0.005223727540578693,0.544572502374649,0.07226269785314798,0.3558709889650345,0.0,-2.666405585217217,0.0,-23.46231183521723,9.21842979259471,-26.999999999999414,0.0,675.0,-9.37570812915773,1150.0,0.024516167119145393,0.00888671875,0.17343875765800476,-20.644698154517638,-9.216511299551774
1.5803507452175842,-0.004419328109361231,28.0,-0.08082473948597908,0.5329507440328598,-0.6384646375441662,46,-27.0,0.0300537109375,-9.638287707542474,0.0,-0.9994396075606347,0.0,-20.624824788762446,4700.0,-0.9930982559919357,-27.0,0.18904500864176757,-0.034666864201426506,0.0,2700.0,4275300.0,0.0,-23.035137058231545,0.004901421815156936,0.5485937863588333,0.07055397350341082,0.35961688831448557,0.0,-2.6775531254705127,0.0,-23.41144375047053,9.326931909606534,-27.0,0.0,675.0,-9.48466147522665,1175.0,0.024516167119145393,0.0072998046875,0.17343875765800476,-20.609583716825384,-9.323629992958763
1.9000016429930269,-0.005585754604544491,28.0,-0.08325068112462759,0.5352048426866531,-0.6377765413373708,47,-26.99999999998914,0.0534423828125,-9.522704592762835,0.0,-0.9994704231619835,0.0,-20.461231038498365,4800.0,-0.9934734895825386,-27.0,0.16733051308820235,-0.035088838264346126,0.0,2700.0,4366425.0,0.0,-22.963962975920342,0.004663246788550168,0.5520399585366249,0.06743231760337949,0.36348006278276446,0.0,-2.66248580478059,0.0,-23.332422816499353,9.208294538476832,-27.0,0.0,675.0,-9.369193660937645,1200.0,0.024516167119145393,0.00654296875,0.17343875765800476,-20.704920349107176,-9.204957592235667
1.4974344868740754,-0.005927172116935253,28.0,-0.08343159276992082,0.5376410573720932,-0.6394508339260938,48,-27.0,0.0294921875,-9.675046516294973,0.0,-0.9995025530457496,0.0,-20.492513538503143,4900.0,-0.993761932849884,-27.0,0.17065147464817873,-0.03547320850193501,0.0,2700.0,4457550.0,0.0,-22.864844064027004,0.004414924496086314,0.5564355760812759,0.06503275549039245,0.36743210554122924,0.0,-2.639303520903195,0.0,-23.23882695840321,9.350218249347321,-26.9999999999843,0.0,675.0,-9.519003782060505,1225.0,0.024516167119145393,0.005908203125,0.17343875765800476,-20.642965148085537,-9.34628231476685
1.9101429853199605,-0.007366784883197397,28.0,-0.08466387633234262,0.5389407768845558,-0.6421399487106101,49,-27.0,0.0435302734375,-9.731856280976167,0.0,-0.9994924083352089,0.0,-20.612695779336065,5000.0,-0.9938781872391701,-27.0,0.15696947895794003,-0.03637890163809061,0.0,2700.0,4548675.0,0.0,-22.75621713060553,0.004493307950906455,0.5599902644753456,0.0640655935741961,0.37069632187485696,0.0,-2.654914859022756,0.0,-23.123947085585268,9.39557786145121,-26.99999999993403,0.0,675.0,-9.577845203606184,1250.0,0.024516167119145393,0.0048828125,0.17343875765800476,-20.69526293344073,-9.391689032151255
1.5713531770515439,-0.0063881146372295914,28.0,-0.08561463374644518,0.5412819907069206,-0.6405779350818193,50,-27.0,0.039892578125,-9.684937270500138,0.0,-0.9994699403643608,0.0,-20.43370720905222,5100.0,-0.9938576474785805,-27.0,0.16602077609456564,-0.03701958451420069,0.0,2700.0,4639800.0,0.0,-22.8629521270216,0.004666957969311625,0.5636965349316597,0.06423642234876752,0.3735838770866394,0.0,-2.6671411711446127,0.0,-23.236302792238376,9.357230863884519,-26.999999999998593,0.0,675.0,-9.52783877453739,1275.0,0.024516167119145393,0.0049072265625,0.17343875765800476,-20.702662390809877,-9.351089919876284
