ReemS3/reg_curious_hac/data/d4a6886/AntReacherEnv-v0/alg:chac|eta:0.75|fw:1|fwhidsiz:256,256,256|nlev:2|reg:True|rolbatsiz:1|timsca:27,27|100/progress.csv
train_1/q_loss,train_0/mu_grads,train_1/mu_loss,train_1/q_grads,train_0/mu_grads_std,train_0/reward,epoch,test_0/avg_q,train_0/reward_-1.0_frac,train_0/target_q,train_0/reward_-0.0_frac,train_0/fw_bonus,train_1/subgoal_succ_rate,test_1/avg_q,train/episodes,train_1/fw_bonus,train_1/next_q,train_0/q_loss,train_0/q_grads,train/success_rate,train_1/n_subgoals,policy/steps,test_1/subgoal_succ_rate,train_1/current_q,train_0/fw_loss,train_1/q_grads_std,train_1/fw_loss,train_0/q_grads_std,train_1/reward_-27.0_frac,train_1/reward,train_1/reward_-0.0_frac,train_1/target_q,train_0/mu_loss,train_0/avg_q,test/success_rate,test_1/n_subgoals,train_0/current_q,test/episodes,train_1/mu_grads,train_1/reward_-1.0_frac,train_1/mu_grads_std,train_1/avg_q,train_0/next_q
2.31764628598777,-0.004520158481318504,12.50196936443304,0.02301487382501364,0.15722398050129413,-0.6237035356476553,0,-25.35228074497357,0.0043701171875,-6.269136403325443,0.0,-0.995986008644104,0.0007407407407407407,-20.25020794615119,100.0,-0.9927203252911567,-11.424839547713642,0.6025235266892526,-0.0026191006152657794,0.0,2700.0,91096.0,0.0,-11.574550221043205,0.03159215124323964,0.14042388461530209,0.07369800806045532,0.10942068751901388,0.0,-2.6452870132063255,0.0,-11.57384441025988,6.192540265336865,-11.161075430238009,0.0,675.0,-6.089219269569937,25.0,0.0037844592821784317,0.0083984375,0.11736048925668001,-14.450006916108162,-6.057053979047624
2.1286136130511295,-0.009945090534165502,11.50909076723936,0.01413796932902187,0.20513661615550519,-0.6147515041313454,1,-26.454314026813925,0.0188720703125,-7.908065394286416,0.0,-0.9978243768215179,0.032962962962962965,-20.45187280538142,200.0,-0.9911117881536484,-10.40725328660898,0.3972007765152039,-0.0039050923951435834,0.0,2700.0,180291.0,0.0,-10.705338265292037,0.017384572769515216,0.15768657103180886,0.08707946818321943,0.13104429095983505,0.0,-2.580266959202345,0.0,-10.629385940344076,7.672106872226015,-18.867704451931594,0.0,675.0,-7.798808793044057,50.0,0.0024819089216180147,0.0042724609375,0.12220337782055139,-21.3476971796284,-7.6892957315129795
3.903409399194527,-0.010944958892650902,9.377518963528502,-0.0010129085188964383,0.24324593022465707,-0.6206516525635379,2,-26.99993784682029,0.0321533203125,-8.430856541414022,0.0,-0.9982804402709007,0.0,-22.943240155616508,300.0,-0.9905671417713166,-8.114331171573344,0.35244502617671586,-0.0030467275413684548,0.0,2700.0,271416.0,0.0,-8.866978227286655,0.013859938131645322,0.17178361117839813,0.09161039851605893,0.1426440730690956,0.0,-2.612595396377583,0.0,-8.84896908102376,8.223070487044756,-26.748490902807355,0.0,675.0,-8.32668072089418,75.0,0.0017773725936422124,0.0040283203125,0.12830449156463147,-20.930092661967926,-8.220463957147583
9.236767710153606,-0.01780144702643156,24.72130474599073,-0.010109232109971344,0.2741324707865715,-0.6191359300035402,3,-26.547177149900822,0.028515625,-7.861596974994216,0.0,-0.9984431341290474,0.0014814814814814814,-21.55879278536841,400.0,-0.9894698083400726,-23.587089823346467,0.3694237927701281,-0.004750353703275323,0.0,2700.0,362482.0,0.0,-20.380982350622123,0.012602554867044091,0.18962504118680953,0.10073913540691137,0.15557432509958743,0.0,-2.5501933787279993,0.0,-20.296342738300712,7.65831538662282,-25.94687377264105,0.0,675.0,-7.745786450041986,100.0,-1.1787559125764347e-05,0.00341796875,0.1252404611557722,-22.325136836069,-7.6424534458293865
5.445974079754486,-0.02189881457015872,11.959946991702925,-0.014982420578598976,0.2919007338583469,-0.6171107849670079,4,-26.196158758420292,0.0701416015625,-9.05614755961679,0.0,-0.9986189350485801,0.014814814814814815,-20.121731838287396,500.0,-0.9880969360470772,-10.968287898411756,0.3262222528472181,-0.004924296366516501,0.0,2700.0,452846.0,0.0,-11.126641834367197,0.011244002263993025,0.19992153234779836,0.11216002311557531,0.16453258469700813,0.0,-2.602401433624982,0.0,-11.415658593337174,8.862308230593873,-26.20968688895253,0.0,675.0,-8.940392446762484,125.0,-0.001411211656522937,0.002587890625,0.11880674492567778,-22.989218018587326,-8.863488011010476
3.1064405209698265,-0.024332255870103837,13.40477801063459,-0.018837127974256872,0.3081756949424744,-0.6199611951433326,5,-22.975382682761797,0.0975341796875,-9.328143239371181,0.0,-0.9986680209636688,0.044444444444444446,-20.60137818703813,600.0,-0.9868379250168801,-12.333553391694483,0.41859089594883636,-0.005157324450556189,0.0,2700.0,540886.0,0.02242152466367713,-12.187347754742358,0.010864525637589394,0.20864841975271703,0.12263393606990576,0.16976748406887054,0.0,-2.5769462955751807,0.0,-12.331013562711439,9.127062282405518,-24.32059126879914,0.04,669.0,-9.195800499394071,150.0,-0.0010510514199268072,0.002587890625,0.11754318978637457,-20.4139860227942,-9.130793514708426
2.550563441414004,-0.0273567418102175,1.2601694660999283,-0.02303829537704587,0.32756529971957205,-0.6407036576070823,6,-26.999995697284913,0.0931884765625,-4.019808583763765,0.0,-0.9985079959034919,0.03259259259259259,-20.43711374552935,700.0,-0.9854581475257873,-0.26304903989767026,0.6241806554247175,-0.009916701703332365,0.0,2700.0,630300.0,0.0,-2.787996926465385,0.012101326487027109,0.21820561401546001,0.13411230742931365,0.17743157185614108,0.0,-2.6497336767111848,0.0,-2.83988463563923,3.709554059449554,-23.94229423806555,0.0,675.0,-3.7793726937532512,175.0,0.00024410695987171495,0.002099609375,0.12015538234263659,-20.412599719653837,-3.7108224859064407
0.8600688576860686,-0.0293255299795419,1.142675568312099,-0.026365998573601244,0.33377342000603677,-0.6314466405256098,7,-27.0,0.109326171875,-9.427785186418728,0.0,-0.9986137092113495,0.0,-20.229529434369738,800.0,-0.9868071034550667,-0.1430422474234898,0.46049601423128134,-0.010571060888469219,0.0,2700.0,721425.0,0.0,-2.722459041198774,0.011284272535704076,0.23558298237621783,0.12289021220058202,0.17897602468729018,0.0,-2.611032831406919,0.0,-2.7220120694503245,9.262426846938283,-26.998906960208128,0.0,675.0,-9.314180298321478,200.0,0.006492876331321895,0.002587890625,0.12767378017306327,-19.3359753237749,-9.255668227431157
0.4241197508587555,-0.030703648971393705,1.0313572601261065,-0.03211935656145215,0.34295598939061167,-0.6254590626715071,8,-27.0,0.0987548828125,-9.321970863817844,0.0,-0.9987600699067116,0.0,-20.30358915078074,900.0,-0.9874879032373428,-0.03111680339253336,0.4264166968979244,-0.011407937854528427,0.0,2700.0,812550.0,0.0,-2.6267520790980834,0.010153078753501178,0.2528808631002903,0.11722677182406187,0.18049610517919062,0.0,-2.6053436534344656,0.0,-2.6292898113380034,9.138706031243425,-27.0,0.0,675.0,-9.192210047808322,225.0,0.013661079644225537,0.0024169921875,0.1430802769958973,-19.701771282673278,-9.138131067406528
0.2827348748103834,-0.03274634527042508,1.0069877203354056,-0.03725657342001796,0.35148511826992035,-0.6133540986444131,9,-27.0,0.1275146484375,-9.499630585260892,0.0,-0.9988997772336006,0.0,-20.449584384003593,1000.0,-0.9875175565481186,-0.0068733724896505475,0.3883485947601663,-0.011353398580104113,0.0,2700.0,903675.0,0.0,-2.606661334857575,0.009073310601525008,0.26902679428458215,0.11697996724396945,0.18289396464824675,0.0,-2.6060285589868726,0.0,-2.611092452698869,9.32276051697608,-27.0,0.0,675.0,-9.372387067789711,250.0,0.02174542360007763,0.004150390625,0.1659720443189144,-19.724648743644345,-9.320437134310003
6.000619261039162,-0.030846458720043303,28.0,-0.0373745528049767,0.36047621369361876,-0.6030172020949977,10,-27.0,0.1404052734375,-9.273284901285383,0.0,-0.9990805312991142,0.0,-20.636760803265446,1100.0,-0.9879549607634545,-27.0,0.3311222202618397,-0.014100775658152997,0.0,2700.0,994800.0,0.0,-21.074419577825566,0.007676524680573493,0.28587141558527945,0.1133412042632699,0.1858630247414112,0.0,-2.5907570508588833,0.0,-21.354359589921398,9.075973797288942,-27.0,0.0,675.0,-9.140924348353902,275.0,0.024516167119145393,0.005615234375,0.17343875765800476,-20.72372305500855,-9.078804255471413
4.579896852838199,-0.030339712789282203,28.0,-0.03887533852830529,0.3624263033270836,-0.5739450070137536,11,-27.0,0.113818359375,-9.494906835394422,0.0,-0.9993200615048409,0.0,-20.287708865811965,1200.0,-0.9892422005534172,-27.0,0.17391675284639369,-0.014488805597648025,0.0,2700.0,1085925.0,0.0,-20.54457029699187,0.005825260642450303,0.3013469196856022,0.10263260919600725,0.18796401433646678,0.0,-2.6107260769880667,0.0,-20.846549807456828,9.29022796585692,-27.0,0.0,675.0,-9.34200756592563,300.0,0.024516167119145393,0.006005859375,0.17343875765800476,-20.67897257103848,-9.288653475131449
3.3762186780934087,-0.029801688389852643,28.0,-0.04128930261358619,0.3658324234187603,-0.570600618289609,12,-27.0,0.1302978515625,-9.412968293844765,0.0,-0.9993458315730095,0.0,-20.4020299420362,1300.0,-0.9902402386069298,-27.0,0.15468922503858532,-0.014375579124316574,0.0,2700.0,1177050.0,0.0,-20.73513018646935,0.005626136192586273,0.3137863799929619,0.09432985093444586,0.18960047252476214,0.0,-2.5852126471683734,0.0,-21.045843018262136,9.197116083245033,-27.0,0.0,675.0,-9.259518722674496,325.0,0.024516167119145393,0.0062744140625,0.17343875765800476,-20.60354240177549,-9.19565460755457
3.424177329829243,-0.03173749297857285,28.0,-0.04380815327167511,0.3710001684725285,-0.5797242676257156,13,-27.0,0.0974853515625,-9.402675661499831,0.0,-0.9992925599217415,0.0,-20.645446077483452,1400.0,-0.9909481123089791,-27.0,0.17809528792032778,-0.01456135706976056,0.0,2700.0,1268175.0,0.0,-21.1313145619993,0.0060377050307579335,0.3252043522894382,0.08844105247408152,0.19384108036756514,0.0,-2.5810866384024846,0.0,-21.448048552464996,9.18389215146125,-27.0,0.0,675.0,-9.250859590135935,350.0,0.024516167119145393,0.0067626953125,0.17343875765800476,-20.65539225946307,-9.183140208217276
2.7960589381200855,-0.0302487688139081,28.0,-0.04536921456456185,0.3779016859829426,-0.5934641221858328,14,-27.0,0.1411376953125,-9.56970597156845,0.0,-0.999247120320797,0.0,-20.813706404547396,1500.0,-0.9915064632892608,-27.0,0.19450369993308678,-0.0149004181381315,0.0,2700.0,1359300.0,0.0,-21.625367796871945,0.006389077112544328,0.3361605629324913,0.08379612378776073,0.19868081174790858,0.0,-2.5979986848382395,0.0,-21.969483548119502,9.33983594981479,-27.0,0.0,675.0,-9.421881399718316,375.0,0.024516167119145393,0.00576171875,0.17343875765800476,-20.83035912737875,-9.33781896362862
2.056446646248536,-0.02862651888281107,28.0,-0.04708886221051216,0.3868317298591137,-0.607831403354794,15,-27.0,0.137841796875,-9.60739340552983,0.0,-0.9992211252450943,0.0,-20.709499002427382,1600.0,-0.9920130163431168,-27.0,0.20404619534431187,-0.015199855226092041,0.0,2700.0,1450425.0,0.0,-22.16103498574835,0.006589957629330456,0.34738724008202554,0.07958210650831461,0.2036869704723358,0.0,-2.6446890431350765,0.0,-22.50777693376009,9.354855243335015,-27.0,0.0,675.0,-9.455357939652561,400.0,0.024516167119145393,0.0050537109375,0.17343875765800476,-20.809354755020177,-9.35272403871609
2.093341642224684,-0.02401155363768339,28.0,-0.047911429591476914,0.3969531588256359,-0.6234549159657036,16,-27.0,0.1142822265625,-9.623531875296521,0.0,-0.9991663560271263,0.0,-20.235877060127518,1700.0,-0.9923361286520958,-27.0,0.20833073645013825,-0.015392031543888152,0.0,2700.0,1541550.0,0.0,-22.70087227527544,0.007013298489619046,0.3587656930088997,0.07689412496984005,0.209860260412097,0.0,-2.6296270000009825,0.0,-23.03987358203225,9.350071964570034,-27.0,0.0,675.0,-9.467771655108075,425.0,0.024516167119145393,0.006787109375,0.17343875765800476,-20.85552360743145,-9.34517889688694
1.7017063940954742,-0.022038204688578845,28.0,-0.04843514421954751,0.4058915786445141,-0.6372887441724743,17,-27.0,0.1128173828125,-9.741548006639734,0.0,-0.9992037951946259,0.0,-20.6742884762296,1800.0,-0.9930105924606323,-27.0,0.20550525268007647,-0.01600554254837334,0.0,2700.0,1632675.0,0.0,-23.0737132135701,0.006723780371248722,0.3701070658862591,0.07128311321139336,0.21543701216578484,0.0,-2.6644025528868953,0.0,-23.42348702554316,9.454575439598049,-27.0,0.0,675.0,-9.585451023930016,450.0,0.024516167119145393,0.0086181640625,0.17343875765800476,-20.66286636770276,-9.448751775058255
1.3112447088620347,-0.018632234493270516,28.0,-0.04815467596054077,0.41409771144390106,-0.642234728627227,18,-27.0,0.1258056640625,-9.814416374614147,0.0,-0.9992123588919639,0.0,-20.609524645391964,1900.0,-0.9931551724672317,-27.0,0.23759749991814352,-0.016456323442980647,0.0,2700.0,1723800.0,0.0,-23.206376709339047,0.006657729460857809,0.3803149312734604,0.07008043769747019,0.22096516266465188,0.0,-2.6871803928264852,0.0,-23.5683581272015,9.530426806673367,-27.0,0.0,675.0,-9.662217095914128,475.0,0.024516167119145393,0.0080810546875,0.17343875765800476,-20.71935411144318,-9.525799264702574
1.609921021682426,-0.01571130200754851,28.0,-0.04992322912439704,0.42153096944093704,-0.6510921446515567,19,-27.0,0.1107421875,-9.742179926074797,0.0,-0.9991927966475487,0.0,-20.75595634314835,2000.0,-0.9932784333825111,-27.0,0.2576134410463839,-0.017383747594431044,0.0,2700.0,1814925.0,0.0,-23.221485313629294,0.006808857235591858,0.3905924059450626,0.06905494797974825,0.22634342387318612,0.0,-2.6669231252959436,0.0,-23.58233865263971,9.443074803495037,-27.0,0.0,675.0,-9.589923038989124,500.0,0.024516167119145393,0.0087158203125,0.17343875765800476,-20.795300557765696,-9.43753993090689
1.6858686442789559,-0.010934213502332568,28.0,-0.05083812838420272,0.42680180817842484,-0.6514617741482652,20,-27.0,0.1044677734375,-9.774491192024973,0.0,-0.9992064714431763,0.0,-20.614428765646917,2100.0,-0.9933286726474762,-27.0,0.2384166518252603,-0.018180593382567167,0.0,2700.0,1906050.0,0.0,-23.246856608764908,0.0067031701328232884,0.39925968945026397,0.06863713413476943,0.23213158473372458,0.0,-2.6828109264086377,0.0,-23.6176063365649,9.471199530059511,-27.0,0.0,675.0,-9.621302255644045,525.0,0.024516167119145393,0.0084228515625,0.17343875765800476,-20.774911467429877,-9.466279069028133
