ReemS3/reg_curious_hac/data/d4a6886/CausalDependenciesMujocoEnv-o1-v0/alg:chac|eta:0.25|fw:1|fwhidsiz:256,256,256|nlev:2|reg:True|rolbatsiz:1|timsca:27,27|105/progress.csv
train_0/avg_q,policy/steps,train_0/reward_-0.0_frac,train_1/mu_grads_std,train/episodes,test_1/subgoal_succ_rate,train_1/fw_bonus,train_1/subgoal_succ_rate,train_1/mu_loss,train_0/target_q,train_0/mu_grads,train_1/q_grads_std,test_0/avg_q,train_1/fw_loss,train_1/avg_q,train_0/q_loss,train_0/mu_loss,test/success_rate,train_0/reward,train_1/n_subgoals,train_1/reward_-27.0_frac,epoch,train/success_rate,train_0/next_q,train_1/mu_grads,train_0/mu_grads_std,train_1/current_q,train_0/fw_bonus,train_1/reward_-0.0_frac,train_0/reward_-1.0_frac,train_0/q_grads_std,train_0/current_q,train_1/q_loss,train_1/next_q,train_0/fw_loss,train_1/reward_-1.0_frac,train_1/q_grads,train_1/target_q,test/episodes,train_0/q_grads,train_1/reward,test_1/n_subgoals,test_1/avg_q
-21.860238185526637,73432.0,0.0,0.09010760225355625,100.0,0.0,-0.9962282255291939,0.2548148148148148,2.975316915254352,-8.884582649184253,-0.0054858334362506865,0.18442476205527783,-1.3100955016938913,0.0016639559442410245,-4.450267119297715,0.2180136818273845,8.69810620022216,0.04,-0.8619008282228606,2700.0,0.0,0,0.0,-8.686439731047026,0.015025984914973377,0.15617899000644683,-2.7799738906308074,-0.9995103478431702,0.0,2.44140625e-05,0.14896652437746524,-8.75623672633451,5.656634245360628,-2.6951376774233102,0.00012641125667869346,0.0015625,0.005898398690624163,-3.0214531692866813,25.0,0.03814558498561382,-1.341696317581227,669.0,-0.7326965940182317
-5.093105583923287,163798.0,0.0,0.09011732079088688,200.0,0.0,-0.9962737172842026,0.014814814814814815,4.611572173762589,-5.277973536735507,-0.007648890453856439,0.2286076955497265,-1.6987492357859082,0.001653245705529116,-5.310751696891841,0.35256840117710175,5.103688528964116,0.0,-0.8662956595813739,2700.0,0.0,1,0.0,-5.095282112602076,0.015031299996189773,0.19048820957541465,-3.6661065366558248,-0.9995188936591148,0.0,2.44140625e-05,0.18147292658686637,-5.189240377398475,0.6276633083575585,-3.2613504026500926,0.0001242721655216883,0.0016845703125,0.00837445657234639,-3.6412655956316335,50.0,0.046664362959563735,-1.439881068392424,675.0,-8.220891988637817
-16.837987884490833,253836.0,0.0,0.09011418856680393,300.0,0.0,-0.9965511545538902,0.002253944402704733,0.7253501581500561,-6.281361381527866,-0.012224696739576758,0.2589123897254467,-26.8829258515199,0.0015879231417784468,-6.742118539605352,0.3212865779748514,6.001076615544879,0.0,-0.874552522932936,2662.0,0.0,2,0.02,-5.992374186192866,0.015029766620136798,0.21178428456187248,-0.5881068598106923,-0.9994277849793434,0.0,7.32421875e-05,0.20666300915181637,-6.201668403940088,4.99411635046138,-0.7020369532689325,0.00014709752540511544,0.0014404296875,-0.007889654359314591,-1.9149461949624489,75.0,0.05565587487071753,-1.468720737316471,675.0,-5.969452529185723
-26.95694919721137,344961.0,0.0,0.09011433850973845,400.0,0.0,-0.9977020025253296,0.0,4.561550115406363,-7.799009487206457,-0.012970147817395628,0.2819436676800251,-27.0,0.0013169524318072945,-6.519802942325149,0.2197314479947746,7.59784157517394,0.0,-0.8709846861718689,2700.0,0.0,3,0.0,-7.577848551179665,0.015029603871516884,0.22887527234852315,-1.6072825971569376,-0.9995046481490135,0.0,0.0001953125,0.2111545938998461,-7.734095966923259,0.3301374316351067,-0.2038680729859143,0.00012783985966962063,0.0013427734375,-0.006311812461353839,-1.608074740037472,100.0,0.057042029406875375,-1.485129536394379,675.0,-7.485457853125642
-27.0,436086.0,0.0,0.09010572917759418,500.0,0.0,-0.9982153475284576,0.0,5.081472742263034,-8.238881461548853,-0.017562098149210215,0.32053704783320425,-27.0,0.0011960888281464578,-7.495141740604099,0.23503992863287046,8.037822056943423,0.0,-0.8672152203434962,2700.0,0.0,4,0.0,-8.030492659687727,0.015025004325434566,0.24248899333178997,-1.5143523990829406,-0.9995975136756897,0.0,0.000439453125,0.21994761228561402,-8.140443735847857,0.21179424612557823,-0.04391308145274031,0.00010457580447109649,0.0015869140625,-0.008598642796278,-1.5110616390294145,125.0,0.058502713404595855,-1.4852948067738907,675.0,-7.534848994171984
-27.0,527211.0,0.0,0.09010138362646103,600.0,0.0,-0.9984046071767807,0.0,5.974468648550599,-8.536871223142423,-0.021787717659026384,0.34235958084464074,-27.0,0.0011515257210703567,-7.456287492850914,0.17737275128001836,8.349035107167847,0.0,-0.8661511506157694,2700.0,0.0,5,0.0,-8.325516395030531,0.015022383071482182,0.26082432344555856,-1.6044962283033573,-0.9996191695332527,0.0,0.000244140625,0.22791275344789028,-8.4486761380281,0.11293978609065855,-0.16639776236042944,9.914683796523605e-05,0.0010009765625,-0.012362653971649706,-1.606133887480644,150.0,0.059156677965074775,-1.511163075065997,675.0,-7.60291470493631
-27.0,618336.0,0.0,0.09010138362646103,700.0,0.0,-0.9985796451568604,0.0,6.960660432178026,-9.39656547703738,-0.023522080201655627,0.3590487249195576,-27.0,0.0011103106720838697,-7.506399777873036,0.13839483888973497,9.172885903786897,0.0,-0.8622558878443669,2700.0,0.0,6,0.0,-9.157720482516046,0.015022383071482182,0.2753638617694378,-1.5332499672503648,-0.999666377902031,0.0,0.0007568359375,0.23055528923869134,-9.26581256426941,0.06614325572336578,-0.047440239808999064,8.732158166822047e-05,0.0009765625,-0.016377657372504472,-1.5331827632683894,175.0,0.05934738852083683,-1.5086698491097195,675.0,-7.497804586201452
-27.0,709165.0,0.0,0.09010138362646103,800.0,0.0,-0.9986225068569183,0.0,6.914391300516198,-9.794587897513281,-0.022478274768218398,0.371063894033432,-27.0,0.0011002214072505013,-7.3095455994764,0.10847093039139248,9.570309886743683,0.0,-0.8559799620721605,2690.0,0.0,7,0.01,-9.563287786091356,0.015022383071482182,0.2808549597859383,-1.4859879315154925,-0.9998189821839333,0.0,0.0119140625,0.23311521857976913,-9.650451557326843,0.022335706710050342,-0.0021727849752690197,4.9089439198724e-05,0.0010009765625,-0.01890168325044215,-1.4841332607552185,200.0,0.05977569874376058,-1.4831099461225676,675.0,-7.562099474551837
-27.0,800290.0,0.0,0.09010138362646103,900.0,0.0,-0.9992773219943046,0.0,7.406657392206019,-9.821206348113733,-0.025541635835543273,0.37886135205626487,-27.0,0.0009460456421948038,-7.443064924211481,0.11065808207952084,9.604689264118425,0.0,-0.8544180398355821,2700.0,0.0,8,0.0,-9.597244707708962,0.015022383071482182,0.28438395634293556,-1.5024742549739467,-0.9998116165399551,0.0,0.011376953125,0.2352351225912571,-9.662702017636267,0.0361175611209328,-1.5214558742454755e-05,5.093526824566652e-05,0.00078125,-0.02114911386743188,-1.5056608476194175,225.0,0.059976320061832664,-1.5056530563670094,675.0,-7.492816508009227
-27.0,891415.0,0.0,0.09010138362646103,1000.0,0.0,-0.9995192438364029,0.0,6.971241669461588,-9.848854524273628,-0.027124142879620193,0.3860616162419319,-27.0,0.0008890840123058297,-7.4808426292381744,0.0942282099351618,9.619411234007469,0.0,-0.854198108323908,2700.0,0.0,9,0.0,-9.615019204931361,0.015022383071482182,0.29021024852991106,-1.4706912596225814,-0.9998357519507408,0.0,0.007080078125,0.23585574068129062,-9.700260724082302,0.022903626407698913,-0.00021463088568922554,4.488736976782093e-05,0.001025390625,-0.022601715894415973,-1.4705392272307796,250.0,0.05907552558928728,-1.4704280068370281,675.0,-7.337767473084076
-27.0,982540.0,0.0,0.09010138362646103,1100.0,0.0,-0.9997829988598823,0.0,7.057183129647638,-9.754775859067456,-0.027161330729722977,0.39393417686223986,-27.0,0.000826982781291008,-7.443331724409267,0.09321721926211221,9.522732433021261,0.0,-0.8538377503544325,2700.0,0.0,10,0.0,-9.516817890492883,0.015022383071482182,0.29419188424944875,-1.5176782648650984,-0.9998923897743225,0.0,0.0511962890625,0.23620000742375852,-9.605174619755942,0.017151967345236746,-0.0432355128961754,3.0699498711328485e-05,0.00087890625,-0.02371275322511792,-1.517591187980958,275.0,0.05834430055692792,-1.4954976498658652,675.0,-7.540281984416114
-27.0,1073665.0,0.0,0.09010138362646103,1200.0,0.0,-0.9997875198721886,0.0,18.597131801282995,-9.727694116946846,-0.027898315573111176,0.4280616298317909,-27.0,0.0008259206166258082,-7.427760503990578,0.08987140489351987,9.501163283645374,0.0,-0.8533047824908863,2700.0,0.0,11,0.0,-9.495561215250126,0.015022383071482182,0.2981280140578747,-14.635841104137654,-0.9998816236853599,0.0,0.0370361328125,0.23692088574171066,-9.579068427053446,20.46586560411675,-27.0,3.339369850436924e-05,0.00087890625,-0.023331933887675405,-14.96544512457704,300.0,0.05791953457519412,-1.4990105542645324,675.0,-8.344841371119761
-27.0,1164790.0,0.0,0.09010138362646103,1300.0,0.0,-1.000098705291748,0.0,18.414873423389558,-9.814573592893035,-0.027242311136797072,0.43866379335522654,-27.0,0.000752648917841725,-7.542423524017685,0.08756041699193373,9.584006221298765,0.0,-0.854480458132457,2700.0,0.0,12,0.0,-9.579016085692087,0.015022383071482182,0.3022426299750805,-14.787204572437966,-0.999902968108654,0.0,0.05224609375,0.23764184340834618,-9.662773761720869,17.20313337024316,-26.999999999999478,2.8046453439856123e-05,0.0007568359375,-0.021934800455346702,-15.079461238076458,325.0,0.057483420334756376,-1.4844734451078694,675.0,-7.7557425705932905
-27.0,1255915.0,0.0,0.09010138362646103,1400.0,0.0,-1.0004102930426597,0.0,6.9332347655408295,-9.812121468521818,-0.026707526622340085,0.4403266593813896,-27.0,0.0006792793879867532,-5.203505269447448,0.08953823355814297,9.58517341475005,0.0,-0.8546594602041295,2700.0,0.0,13,0.0,-9.578974115078,0.015022383071482182,0.3063719853758812,-1.481042583647853,-0.999889375269413,0.0,0.0429443359375,0.23842977732419968,-9.663492814848897,0.07453137862583897,-9.128540316244703e-06,3.145599102936103e-05,0.000732421875,-0.0233425744343549,-1.4965879703692642,350.0,0.056889512296766045,-1.4965845962244202,675.0,-7.736637767878728
-27.0,1347040.0,0.0,0.09010138362646103,1500.0,0.0,-1.0003682121634483,0.0,6.2970366418957076,-9.786642066073693,-0.028745616087689996,0.4412861794233322,-27.0,0.0006891938028275035,-7.23475453752835,0.10487852053568907,9.585787898642852,0.0,-0.8540095003860187,2700.0,0.0,14,0.0,-9.575665661142137,0.015022383071482182,0.31071227565407755,-1.4865035400568978,-0.9999260991811753,0.0,0.0739501953125,0.23968154489994048,-9.636608399299996,0.045771092237709914,-7.870311528430708e-07,2.225992800504173e-05,0.000634765625,-0.023242697492241858,-1.4923234888265848,375.0,0.05651717130094767,-1.492323279225093,675.0,-7.52468123057468
-27.0,1438165.0,0.0,0.09010138362646103,1600.0,0.0,-1.0005456686019898,0.0,5.422494775993459,-9.828016652427042,-0.028450005734339357,0.4427866473793983,-27.0,0.0006474117792095058,-7.4015363711059,0.09210522672028766,9.595361556677894,0.0,-0.8550980601517949,2700.0,0.0,15,0.0,-9.58952588788974,0.015022383071482182,0.3147083580493927,-1.4914599012664207,-0.9999207943677902,0.0,0.1256103515625,0.24103011824190618,-9.675207587083804,0.03397057867496501,-5.21175652788672e-10,2.358584579269518e-05,0.0008056640625,-0.022861642763018608,-1.4956179918338077,400.0,0.0559082044288516,-1.4956179916320251,675.0,-7.534476365721466
-27.0,1529290.0,0.0,0.09010138362646103,1700.0,0.0,-1.0006734818220138,0.0,4.710265730178508,-9.856724707092544,-0.029007397685199977,0.44398885071277616,-27.0,0.0006173146102810279,-7.482392972349201,0.09115419060381198,9.624343820194042,0.0,-0.8558671511767898,2700.0,0.0,16,0.0,-9.617241564643981,0.015022383071482182,0.3175562180578709,-1.486368484325757,-0.9999289855360984,0.0,0.1370849609375,0.2433146946132183,-9.704379195566897,0.034379558714955946,-6.953240926124509e-11,2.1530946469283663e-05,0.001220703125,-0.023374934680759907,-1.4857468216552854,425.0,0.05564796291291714,-1.4857468216272536,675.0,-7.536850949825756
-27.0,1620415.0,0.0,0.09010138362646103,1800.0,0.0,-1.0005158990621568,0.0,3.9810351123872527,-9.887377073540934,-0.029551036981865765,0.4451803885400295,-27.0,0.0006544207120896317,-7.375765492130848,0.0899067269921239,9.655888359762184,0.0,-0.8560252173119807,2700.0,0.0,17,0.0,-9.648702388189516,0.015022383071482182,0.3199728988111019,-1.4823520681496813,-0.9999281570315361,0.0,0.121875,0.24555041268467903,-9.73469097484146,0.029764853438807092,-9.258779574763881e-11,2.1739867315773152e-05,0.000634765625,-0.024082560418173672,-1.4818932723711031,450.0,0.05515407221391797,-1.4818932723341276,675.0,-7.717849548567026
-27.0,1711540.0,0.0,0.09010138362646103,1900.0,0.0,-1.0007422983646392,0.0,3.5747656493905877,-9.817327882763816,-0.03087013023905456,0.44752685353159904,-27.0,0.0006011143370415084,-7.487491220742699,0.08627113022248444,9.589179594576674,0.0,-0.8546640474363812,2700.0,0.0,18,0.0,-9.58193788154525,0.015022383071482182,0.3198888495564461,-1.4922294429676266,-0.9998873546719551,0.0,0.1065185546875,0.24768304377794265,-9.665148123194335,0.02552109768598123,-1.0445880353620277e-10,3.1962565162757525e-05,0.00078125,-0.02482768930494785,-1.491132898261548,475.0,0.05477035827934742,-1.491132898190699,675.0,-7.470181462260936
-27.0,1802665.0,0.0,0.09010138362646103,2000.0,0.0,-1.0007386445999145,0.0,3.638999860421946,-9.80846877130304,-0.03214607872068882,0.45124285817146303,-27.0,0.0006019735883455724,-7.493376846660562,0.08711175659959919,9.58182410304048,0.0,-0.8545171269885031,2700.0,0.0,19,0.0,-9.574122533194593,0.015022383071482182,0.32008658796548844,-1.4863419365597355,-0.9999437376856803,0.0,0.2138916015625,0.2506636865437031,-9.657323145733923,0.016882945968321617,-1.311183501339163e-11,1.7836653773883883e-05,0.000634765625,-0.025736879045143723,-1.486168003227236,500.0,0.054542391654103996,-1.4861680032176081,675.0,-7.675089857103397
-27.0,1893790.0,0.0,0.09010138362646103,2100.0,0.0,-1.0010192900896073,0.0,3.94744347685291,-9.744590497002083,-0.032057886756956575,0.45440470725297927,-27.0,0.0005358940259611699,-7.367733632401551,0.08898746228941734,9.521571751631916,0.0,-0.8534851912845625,2700.0,0.0,20,0.0,-9.515052334635376,0.015022383071482182,0.3233460396528244,-1.4850932574752531,-0.9999350100755692,0.0,0.15341796875,0.25373240411281583,-9.593617375706778,0.01541801232320052,-5.0887493424331356e-14,2.002287610594067e-05,0.0006103515625,-0.026492744265124202,-1.4845840575537494,525.0,0.05437469659373164,-1.4845840575537295,675.0,-7.2522593511203715
-27.0,1984915.0,0.0,0.09010138362646103,2200.0,0.0,-1.000928094983101,0.0,4.037655711049824,-9.791868288124613,-0.03211812507361174,0.4578017324209213,-27.0,0.0005573704060225282,-7.4176166281117615,0.08816703117353959,9.56130115709108,0.0,-0.8544965363500523,2700.0,0.0,21,0.0,-9.554332123965969,0.015022383071482182,0.32813014537096025,-1.4839204870535307,-0.9999406933784485,0.0,0.1313232421875,0.255805578827858,-9.638006908749288,0.012949664202952502,-4.6764840320637616e-08,1.8598250130708037e-05,0.0008544921875,-0.028007389837875964,-1.4834780653099044,550.0,0.05442303093150258,-1.4834780495832092,675.0,-7.482710228441754
-27.0,2076040.0,0.0,0.09010138362646103,2300.0,0.0,-1.0010842949151992,0.0,4.104367661046931,-9.832083656286983,-0.033213431295007464,0.46099372804164884,-27.0,0.0005205939465668053,-7.4745881996376475,0.08988787666274937,9.602509674670127,0.0,-0.8551927279026131,2700.0,0.0,22,0.0,-9.59541650672563,0.015022383071482182,0.33144875317811967,-1.4755444574271157,-0.9999493390321732,0.0,0.1601806640625,0.2572475917637348,-9.678184115946468,0.013078583037625758,-8.114069332571368e-08,1.642893364532938e-05,0.00078125,-0.028670872282236814,-1.4759963481070488,575.0,0.054491824470460415,-1.4759963199161574,675.0,-7.658165061954457
-27.0,2167165.0,0.0,0.09010138362646103,2400.0,0.0,-1.0011094510555267,0.0,3.883232940492026,-9.857826146112028,-0.0338589352555573,0.4646762490272522,-27.0,0.0005146691575646401,-7.49320426412377,0.09246944196961333,9.625996730039253,0.0,-0.8556359187845374,2700.0,0.0,23,0.0,-9.619575945507126,0.015022383071482182,0.33474179953336713,-1.4690864106893493,-0.9999543383717537,0.0,0.260107421875,0.258895568549633,-9.70071822573601,0.014213786811347443,-5.16981673768196e-08,1.5180394507297024e-05,0.0005859375,-0.02957107578404248,-1.4690938230813608,600.0,0.05412706444039941,-1.469093806076853,675.0,-7.560064288875212
-27.0,2258290.0,0.0,0.09010138362646103,2500.0,0.0,-1.001333263516426,0.0,4.059838746210178,-9.845537126381787,-0.034568702522665265,0.4685413852334023,-27.0,0.00046197168121580033,-7.461781028934406,0.0862112044934689,9.611883914217227,0.0,-0.8556194222008344,2700.0,0.0,24,0.0,-9.604992543947366,0.015022383071482182,0.33954156637191774,-1.4934302575875922,-0.9999486193060875,0.0,0.241357421875,0.26136442720890046,-9.69149963949808,0.009274025168505668,-9.279661005769739e-09,1.6613317939118133e-05,0.0008056640625,-0.030101837310940027,-1.4942372570947702,625.0,0.05380954006686807,-1.4942372536999755,675.0,-7.491476074508117
-27.0,2349415.0,0.0,0.09010138362646103,2600.0,0.0,-1.0014138609170913,0.0,3.9435849948160757,-9.799664864304077,-0.035068183299154045,0.4724058978259563,-27.0,0.00044299644214333965,-7.4689287419569395,0.08725285313855508,9.568137004245042,0.0,-0.8552166401408613,2700.0,0.0,25,0.0,-9.561074360485147,0.015022383071482182,0.3422611549496651,-1.481658119636141,-0.9999324142932892,0.0,0.1136474609375,0.2643906034529209,-9.64690995855212,0.019459926910529245,-5.7958573561308026e-12,2.067415509827697e-05,0.0007568359375,-0.030942961107939482,-1.4812727946748747,650.0,0.053692145831882955,-1.4812727946729864,675.0,-7.576789344676934
-27.0,2440540.0,0.0,0.09010138362646103,2700.0,0.0,-1.001537936925888,0.0,19.088553918959498,-9.847871464955391,-0.035019183345139024,0.485698739439249,-27.0,0.00041378139139851554,-7.439396824095685,0.08549076886741461,9.618581698697108,0.0,-0.8549015561511624,2700.0,0.0,26,0.0,-9.612697663179208,0.015022383071482182,0.34345217421650887,-14.843978130366333,-0.9999436110258102,0.0,0.23359375,0.26723050475120547,-9.695070663925422,22.924582282425398,-27.0,1.786748882750544e-05,0.000537109375,-0.026505524385720493,-15.066437144554692,675.0,0.053695324901491405,-1.4927672226796858,675.0,-7.6905015015270815
-27.0,2531665.0,0.0,0.09010138362646103,2800.0,0.0,-1.001468649506569,0.0,19.08103731504587,-9.812902400473993,-0.03582108477130532,0.49525605514645576,-27.0,0.00043009520595660433,-8.139499914863293,0.08460806400258251,9.583800402317317,0.0,-0.8548007136007072,2700.0,0.0,27,0.0,-9.577124201964637,0.015022383071482182,0.34480083361268044,-14.807829521012584,-0.9999312296509743,0.0,0.223193359375,0.26867796331644056,-9.662733248462361,21.1048453404498,-27.0,2.0970604964531958e-05,0.0007080078125,-0.02603406421840191,-15.111945238046701,700.0,0.05357894385233521,-1.5001615466404474,675.0,-8.48685424755264
-27.0,2622790.0,0.0,0.09010138362646103,2900.0,0.0,-1.0016063809394837,0.0,19.170393140220373,-9.864561145875886,-0.03655118923634291,0.5039681240916252,-27.0,0.00039766729169059544,-7.8050368507690076,0.08605834457932335,9.632535577684216,0.0,-0.8554519820696441,2700.0,0.0,28,0.0,-9.626325922053047,0.015022383071482182,0.3469366833567619,-14.99752986885992,-0.9999288126826287,0.0,0.1484375,0.27065315991640093,-9.711178996276317,17.659965853582285,-27.0,2.1574440143012908e-05,0.0007080078125,-0.02737440993078053,-15.193011911832908,725.0,0.05340171763673425,-1.4804528298016522,675.0,-7.28678426722424
-27.0,2713915.0,0.0,0.09010138362646103,3000.0,0.0,-1.0017486840486527,0.0,19.28067658840544,-9.745626670492985,-0.03708188394084573,0.51312765032053,-27.0,0.0003641626906755846,-7.424811690870017,0.08437614039759248,9.515777391777709,0.0,-0.8541674157138914,2700.0,0.0,29,0.0,-9.509096202792355,0.015022383071482182,0.3485811442136765,-15.11139919030264,-0.9999331817030906,0.0,0.1788330078125,0.27159769386053084,-9.59395795136206,15.19196538936642,-27.0,2.0480326043070818e-05,0.0005126953125,-0.028449991112574936,-15.345192366678043,750.0,0.05342191103845835,-1.4943901205842849,675.0,-7.95680301598554
-27.0,2805040.0,0.0,0.09010138362646103,3100.0,0.0,-1.0014823377132416,0.0,19.23334817047963,-9.677078650204345,-0.037720353342592716,0.5234994485974311,-27.0,0.00042687292079790495,-7.540022491244015,0.08480847128362834,9.446899777390744,0.0,-0.8540041485350229,2700.0,0.0,30,0.0,-9.440986857900835,0.015022383071482182,0.3497842937707901,-14.982246524994997,-0.9999352261424065,0.0,0.1912353515625,0.272236480563879,-9.526733235284894,13.240646570236652,-27.0,1.9970119319623335e-05,0.000634765625,-0.028413003869354726,-15.23023333338806,775.0,0.05342979347333312,-1.5241342122943025,675.0,-7.760371216831939
-27.0,2896165.0,0.0,0.09010138362646103,3200.0,0.0,-1.001791536808014,0.0,19.23141170372687,-9.748591113276948,-0.03821182958781719,0.5311607092618942,-27.0,0.0003540766345395241,-7.451674370449346,0.08389780355467599,9.518024148135828,0.0,-0.8541970900652813,2700.0,0.0,31,0.0,-9.512673596403436,0.015022383071482182,0.35106845423579214,-14.874459071155803,-0.9999564677476883,0.0,0.2107421875,0.273262083530426,-9.597252969987725,10.539262264123566,-27.0,1.464557237795816e-05,0.00068359375,-0.028098537912592293,-15.138033821710684,800.0,0.05310264648869634,-1.5088082357731765,675.0,-7.336528253079653
-27.0,2987030.0,0.0,0.09010138362646103,3300.0,0.0,-1.001868885755539,0.0,19.301728665538626,-9.814561508607806,-0.039143056422472,0.5363797694444656,-27.0,0.00033585925193619915,-7.583543348658975,0.0834013620447992,9.584801990043106,0.0,-0.8549139414884849,2691.0,0.0,32,0.01,-9.578449372186112,0.015022383071482182,0.35236070603132247,-15.009690755020094,-0.999943844974041,0.0,0.254833984375,0.27386531233787537,-9.662584737015775,10.043955435174784,-27.0,1.7807932817959226e-05,0.0003662109375,-0.02788725756108761,-15.309415092704416,825.0,0.05300750620663166,-1.5090005419231602,675.0,-7.651485421265237
-27.0,3078155.0,0.0,0.09010138362646103,3400.0,0.0,-1.001457729935646,0.0,19.22118049415996,-9.696023542082042,-0.0393840323202312,0.5412996172904968,-27.0,0.00043266191350994633,-7.452929035374248,0.0854973593511362,9.468660466643742,0.0,-0.854217316499853,2700.0,0.0,33,0.0,-9.461749625955857,0.015022383071482182,0.35333478078246117,-14.932877182026498,-0.9999345988035202,0.0,0.1903564453125,0.2744551129639149,-9.546997918870359,11.042360785285277,-27.0,2.0122032083236263e-05,0.0004150390625,-0.029039588011801242,-15.241373340926547,850.0,0.0527212523855269,-1.5158943370202906,675.0,-6.937915626125022
-27.0,3169280.0,0.0,0.09010138362646103,3500.0,0.0,-1.0004484161734581,0.0,19.301456702369272,-9.843853987134882,-0.039489774871617554,0.5473251506686211,-27.0,0.000670307528343983,-7.482021474962414,0.08765478992612244,9.612944016351246,0.0,-0.8553869381954428,2700.0,0.0,34,0.0,-9.606760248363631,0.015022383071482182,0.3573067307472229,-15.247981012670447,-0.9999234646558761,0.0,0.1644287109375,0.27632479965686796,-9.69164183247157,12.528690997213795,-27.0,2.291350106133905e-05,0.0008056640625,-0.02855984037742019,-15.565234512803267,875.0,0.052448980137705804,-1.5064215245220112,675.0,-9.061712977239466
-27.0,3260405.0,0.0,0.09010138362646103,3600.0,0.0,-1.0009347915649414,0.0,19.22379380228939,-9.783931314107239,-0.040145845524966715,0.5538435235619545,-27.0,0.0005557909862545785,-7.922990374437852,0.09080520028203043,9.547840156006952,0.0,-0.855642165914469,2700.0,0.0,35,0.0,-9.540845530551241,0.015022383071482182,0.36157371252775194,-15.42463938362917,-0.9999301165342331,0.0,0.1921142578125,0.27696680650115013,-9.629901559259569,13.599151898747811,-27.0,2.1248801817819186e-05,0.00078125,-0.028525961004197596,-15.765781664775867,900.0,0.05236370358616114,-1.492497973369609,675.0,-7.3343802640318065
-27.0,3351530.0,0.0,0.09010138362646103,3700.0,0.0,-1.001097133755684,0.0,19.219398722558957,-9.876470881838472,-0.04176385272294283,0.5599077209830284,-27.0,0.0005175706202862785,-7.546038722969064,0.08887952702235061,9.64154590214467,0.0,-0.8563348101233714,2700.0,0.0,36,0.0,-9.634133956019468,0.015022383071482182,0.3653772309422493,-15.488010889864693,-0.9999340489506722,0.0,0.178564453125,0.27693235501646996,-9.72205635237649,11.409070928438416,-27.0,2.0264393765501153e-05,0.00068359375,-0.02908064443618059,-15.832819915780572,925.0,0.05220245709642768,-1.4852466735930647,675.0,-7.605431857777873
-27.0,3442655.0,0.0,0.09010138362646103,3800.0,0.0,-1.0012495279312135,0.0,19.192594058933754,-9.776967670398028,-0.042017255537211896,0.5660313114523887,-27.0,0.00048168501380132513,-7.666220512688889,0.08696170789809264,9.549560270912721,0.0,-0.8550130471921875,2700.0,0.0,37,0.0,-9.541524139592045,0.015022383071482182,0.36754226982593535,-15.428995765949685,-0.9999457865953445,0.0,0.2447265625,0.2762727625668049,-9.626519521011883,10.230165975035613,-27.0,1.732369246383314e-05,0.00078125,-0.029797576554119586,-15.783485982810385,950.0,0.05216062627732754,-1.51020229140413,675.0,-7.845953947165014
-27.0,3533780.0,0.0,0.09010138362646103,3900.0,0.0,-1.0015411049127578,0.0,19.401014832029993,-9.803068716477993,-0.04229066399857402,0.5722537189722061,-27.0,0.0004130348635953851,-7.606725727187095,0.08657230750026154,9.569866357519583,0.0,-0.8556909528721007,2700.0,0.0,38,0.0,-9.563051486831407,0.015022383071482182,0.3700663760304451,-15.352875633106581,-0.9999463334679604,0.0,0.20087890625,0.27585379332304,-9.649100032182528,8.382219597699986,-27.0,1.718502276162326e-05,0.000634765625,-0.030244423309341073,-15.689540352858145,975.0,0.05214274022728205,-1.4853782434831373,675.0,-7.70550989084738
-27.0,3624905.0,0.0,0.09010138362646103,4000.0,0.0,-1.0019796520471573,0.0,19.288691637665547,-9.792330130383482,-0.04325693044811487,0.5760827362537384,-27.0,0.0003097793480264954,-7.590900344730464,0.08232655790681283,9.560873959815705,0.0,-0.8548438106750836,2700.0,0.0,39,0.0,-9.5545538706909,0.015022383071482182,0.3717169903218746,-15.085674982544948,-0.999956139922142,0.0,0.2220947265625,0.27590220123529435,-9.639916586650454,5.123881737921691,-27.0,1.472979115533235e-05,0.0007568359375,-0.030525236623361707,-15.482031614515586,1000.0,0.05212066248059273,-1.515596067640581,675.0,-7.411704019384762
-27.0,3716030.0,0.0,0.09010138362646103,4100.0,0.0,-1.0019130825996398,0.0,19.340755308046813,-9.790461055399263,-0.043642552010715006,0.5796116650104522,-27.0,0.0003254546543757897,-7.6315916026616035,0.08220003575614984,9.561322555893426,0.0,-0.8542562153190374,2700.0,0.0,40,0.0,-9.555119108844405,0.015022383071482182,0.37175359949469566,-14.860725378599398,-0.9999457925558091,0.0,0.191943359375,0.27682444378733634,-9.637276182286048,6.332803813956837,-27.0,1.7322411304121486e-05,0.000341796875,-0.030494924215599895,-15.258809808084749,1025.0,0.05218600099906325,-1.4842351010534913,675.0,-7.512626559531988
-27.0,3807155.0,0.0,0.09010138362646103,4200.0,0.0,-1.0020178824663162,0.0,19.19730688066675,-9.943097793025292,-0.04441914595663547,0.584099268913269,-27.0,0.00030078002564550845,-7.546881263207715,0.08353727870624442,9.710082601125364,0.0,-0.8558847930529737,2700.0,0.0,41,0.0,-9.70396240227068,0.015022383071482182,0.3710976779460907,-14.911609660086786,-0.9999606430530548,0.0,0.2368408203125,0.27773515060544013,-9.787451719438343,4.745555052069385,-27.0,1.359922082428966e-05,0.000390625,-0.030581532325595618,-15.31798679469794,1050.0,0.05208408050239086,-1.4775204861041857,675.0,-7.785003272336238
-27.0,3898280.0,0.0,0.09010138362646103,4300.0,0.0,-1.0019617646932601,0.0,19.159023036395674,-9.729587125267688,-0.044679352827370164,0.5893440648913384,-27.0,0.0003139898049994372,-7.699914536428645,0.0809263132202859,9.50139993932639,0.0,-0.8537508304289076,2700.0,0.0,42,0.0,-9.495482296409028,0.015022383071482182,0.3715239688754082,-14.739160224026538,-0.9999636679887771,0.0,0.2605224609375,0.27803431302309034,-9.577907308673833,5.736918981894692,-27.0,1.2841701084198575e-05,0.0005859375,-0.03088499130681157,-15.139653700430358,1075.0,0.0518364860676229,-1.4962162004303536,675.0,-7.156201958778846
-27.0,3989405.0,0.0,0.09010138362646103,4400.0,0.0,-1.0015916049480438,0.0,19.173180823180566,-9.746143410197567,-0.04486874230206013,0.5939710572361946,-27.0,0.00040114628864103,-7.46624991218313,0.08164972609386922,9.518393193769091,0.0,-0.8537755971468869,2700.0,0.0,43,0.0,-9.512269512227109,0.015022383071482182,0.3719668246805668,-14.763663928051908,-0.9999722853302956,0.0,0.3247314453125,0.27877739518880845,-9.594953216982047,6.500490723858493,-27.0,1.0685093286610936e-05,0.0005126953125,-0.03131876951083541,-15.16644174748357,1100.0,0.05181630216538906,-1.4965184076398146,675.0,-7.281032371488045
-27.0,4080530.0,0.0,0.09010138362646103,4500.0,0.0,-1.0019383013248444,0.0,19.317675961655475,-9.95096798202285,-0.04507029596716165,0.5970080822706223,-27.0,0.0003195140991010703,-7.414093335696501,0.08401342202674553,9.716263166035692,0.0,-0.8564765477727633,2700.0,0.0,44,0.0,-9.710652186941036,0.015022383071482182,0.372337157279253,-14.753930890142419,-0.9999602615833283,0.0,0.26044921875,0.2799540117383003,-9.795745366756396,3.9547494546362985,-27.0,1.369484191400261e-05,0.000341796875,-0.03162838397547603,-15.156160029552591,1125.0,0.051936497818678616,-1.501740595958836,675.0,-7.6510136744500565
-27.0,4171655.0,0.0,0.09010138362646103,4600.0,0.0,-1.0020168364048003,0.0,19.25899724186433,-9.738530208523406,-0.04541646363213658,0.5999332875013351,-27.0,0.00030101889205980115,-7.572449245274544,0.08247340623477417,9.511503911699924,0.0,-0.8538523655588506,2700.0,0.0,45,0.0,-9.505801585084486,0.015022383071482182,0.37231611013412474,-14.642608069238202,-0.9999607041478157,0.0,0.26123046875,0.2809757776558399,-9.587872094189759,4.110190024515409,-27.0,1.3584812018052617e-05,0.00029296875,-0.03193323099985719,-15.049604198056164,1150.0,0.051867591217160225,-1.5011281238374068,675.0,-7.665145106108676
-27.0,4262780.0,0.0,0.09010138362646103,4700.0,0.0,-1.0019713699817658,0.0,19.27077805880749,-9.846293015900404,-0.04553368976339698,0.6013933882117272,-27.0,0.00031173333336482757,-7.589288916523063,0.08437701186388111,9.61686196084314,0.0,-0.8549805151895271,2700.0,0.0,46,0.0,-9.611601432317368,0.015022383071482182,0.3734233394265175,-14.665783556114286,-0.9999675139784813,0.0,0.315576171875,0.2816424533724785,-9.694529217543472,4.743971934999039,-27.0,1.1880249041951174e-05,0.0004638671875,-0.03252008203417063,-15.05301660149126,1175.0,0.05189031632617116,-1.5032485350850038,675.0,-7.257126846373313
-27.0,4353905.0,0.0,0.09010138362646103,4800.0,0.0,-1.0020666927099229,0.0,19.210082435846125,-9.779629550060331,-0.046102148666977885,0.6031173437833786,-27.0,0.0002892857395636383,-7.42914999875128,0.0832490871934578,9.544766913449907,0.0,-0.8554011215775972,2700.0,0.0,47,0.0,-9.54012646023288,0.015022383071482182,0.37378573790192604,-15.012927779157755,-0.9999749317765236,0.0,0.313330078125,0.2827530801296234,-9.626182318742348,4.766441827436683,-27.0,1.0020600632287823e-05,0.000390625,-0.032719618640840054,-15.399117402521028,1200.0,0.05167959872633219,-1.4998654493960202,675.0,-7.469147880137938
-27.0,4445030.0,0.0,0.09010138362646103,4900.0,0.0,-1.0012965887784957,0.0,19.10709143075681,-9.952954434954032,-0.04673631442710757,0.6054023504257202,-27.0,0.0004706074389105197,-7.906201427887305,0.08950782612676163,9.722620466268543,0.0,-0.8569335435066023,2700.0,0.0,48,0.0,-9.716179743401366,0.015022383071482182,0.3750837713479996,-14.946926660665046,-0.9999429568648338,0.0,0.2965087890625,0.28244071900844575,-9.79800395941957,5.558775712033722,-27.0,1.802896713343216e-05,0.0005859375,-0.033473325055092575,-15.318901883712162,1225.0,0.050579299498349425,-1.5210713173059047,675.0,-7.668975856768986
-27.0,4536155.0,0.0,0.09010138362646103,5000.0,0.0,-1.0013770759105682,0.0,19.137809495140807,-9.834959689012667,-0.045846810564398766,0.60769182741642,-27.0,0.00045165298361098393,-7.888347615955046,0.08680758214961753,9.602822887889687,0.0,-0.8555209031343111,2700.0,0.0,49,0.0,-9.596406946241373,0.015022383071482182,0.3770293235778809,-15.132665798523544,-0.999947464466095,0.0,0.2697509765625,0.28398067206144334,-9.68029212750439,5.69600044173656,-27.0,1.6901482445064177e-05,0.0004638671875,-0.03399477656930685,-15.517221782776474,1250.0,0.050084329955279824,-1.524946392151469,675.0,-7.5946969165478855
-27.0,4627280.0,0.0,0.09010138362646103,5100.0,0.0,-1.0017039835453034,0.0,19.236891241858526,-9.774869877450575,-0.04567133896052837,0.6103072598576545,-27.0,0.0003746854032215197,-7.633651319961877,0.08425814459589293,9.544342674120799,0.0,-0.855020308138046,2700.0,0.0,50,0.0,-9.536773654427272,0.015022383071482182,0.3797622472047806,-15.302435214780346,-0.9999473288655281,0.0,0.275830078125,0.2859916232526302,-9.622039009272209,4.519088459487682,-27.0,1.6937146938289516e-05,0.0005859375,-0.034003210999071595,-15.654411777913285,1275.0,0.05032720873132348,-1.4967613872882795,675.0,-7.434304474130225
-27.0,4718405.0,0.0,0.09010138362646103,5200.0,0.0,-1.0016772001981735,0.0,19.193633800475254,-9.91605369370551,-0.047239338234066966,0.6136815384030342,-27.0,0.0003809891881246585,-7.735801954455481,0.086021935067809,9.684683772859245,0.0,-0.8560457532439614,2700.0,0.0,51,0.0,-9.677274647167117,0.015022383071482182,0.38168583139777185,-15.236148750764235,-0.999955540895462,0.0,0.269580078125,0.2884434796869755,-9.76066284162793,4.443738003747124,-27.0,1.488007980015027e-05,0.0002685546875,-0.034345594607293604,-15.570313328810391,1300.0,0.050257498025894166,-1.4998724108416355,675.0,-7.018280489381948
-27.0,4809530.0,0.0,0.09010138362646103,5300.0,0.0,-1.0017850935459136,0.0,19.21946461101395,-9.934266890649711,-0.047412451542913917,0.6169878751039505,-27.0,0.00035558793679228983,-7.44717467374555,0.08464402510294523,9.703587536967074,0.0,-0.8559653380521922,2700.0,0.0,52,0.0,-9.695751892058492,0.015022383071482182,0.38339555114507673,-15.109103179120794,-0.9999622523784637,0.0,0.2638916015625,0.2911762945353985,-9.780225541207328,4.802312227778184,-27.0,1.3198625720178824e-05,0.000439453125,-0.034942696802318096,-15.438966263487998,1325.0,0.0503094038926065,-1.4809286658317433,675.0,-6.847616647848494
-27.0,4900655.0,0.0,0.09010138362646103,5400.0,0.0,-1.001802644133568,0.0,19.263372501317626,-9.890385162810816,-0.048169320356100796,0.6190306097269058,-27.0,0.0003514571668347344,-7.422063703964997,0.08325745301842921,9.661053172299301,0.0,-0.8553111802742933,2700.0,0.0,53,0.0,-9.65401823717131,0.015022383071482182,0.3848081402480602,-14.923904681121204,-0.9999689385294914,0.0,0.322412109375,0.2935107558965683,-9.736157890444975,3.378060970707814,-27.0,1.1521065221131722e-05,0.0004150390625,-0.03531867414712906,-15.238712087847414,1350.0,0.050365581270307304,-1.487393240191159,675.0,-7.494822171287788
-27.0,4991780.0,0.0,0.09010138362646103,5500.0,0.0,-1.0018649041652679,0.0,19.115291844917277,-9.754013602015666,-0.048764676041901114,0.62066979855299,-27.0,0.0003367974124557804,-7.583624323608043,0.08553521372372744,9.525688479343327,0.0,-0.854238838305173,2700.0,0.0,54,0.0,-9.519938799953485,0.015022383071482182,0.3847681857645512,-14.685570326098674,-0.9999714434146881,0.0,0.319287109375,0.29457160010933875,-9.601451395449548,4.450914822182142,-27.0,1.0894184720200429e-05,0.0005126953125,-0.035640855226665734,-15.015676997510957,1375.0,0.05012148832902312,-1.479474849073449,675.0,-7.649767002798967
-27.0,5082905.0,0.0,0.09010138362646103,5600.0,0.0,-1.0015403091907502,0.0,19.143567978016968,-9.82104135671357,-0.048112363554537296,0.6232605606317521,-27.0,0.00041322171236970464,-7.594122768884577,0.08747548430102887,9.593703999726916,0.0,-0.8546766138533712,2700.0,0.0,55,0.0,-9.58728666509702,0.015022383071482182,0.38649356216192243,-14.742715551080853,-0.999969208240509,0.0,0.3033203125,0.295578645914793,-9.668104954994622,6.385337880859176,-27.0,1.1454665218479931e-05,0.0005126953125,-0.036570318043231964,-15.027722374913054,1400.0,0.04945343676954508,-1.4850602655380498,675.0,-7.075538365932065
-27.0,5174030.0,0.0,0.09010138362646103,5700.0,0.0,-1.0008708149194718,0.0,19.14112656229468,-9.825243410612158,-0.04796275831758976,0.6259071558713913,-27.0,0.0005708523785870057,-7.484858138362624,0.08824275426539166,9.596683308734535,0.0,-0.8551189267644077,2700.0,0.0,56,0.0,-9.58990294501047,0.015022383071482182,0.388021819293499,-15.219179673456471,-0.999956738948822,0.0,0.277587890625,0.29419401064515116,-9.67245142552195,6.461616882752599,-27.0,1.457690843835735e-05,0.000390625,-0.037515873089432716,-15.476702926919103,1425.0,0.049032912403345105,-1.490887497231597,675.0,-6.712000629549184
-27.0,5264934.0,0.0,0.09010138362646103,5800.0,0.0,-1.000235639512539,0.0,19.12816195728359,-9.748599729337034,-0.047079721745103595,0.6302763506770134,-27.0,0.0007204083201941102,-7.443682469479398,0.08835214562056797,9.519103266111074,0.0,-0.8551468476842274,2692.0,0.0,57,0.01,-9.511455067277575,0.015022383071482182,0.39097354784607885,-15.256746773654257,-0.9999370202422142,0.0,0.2265869140625,0.29379293248057364,-9.597805860967384,7.903043869567472,-27.0,1.9521844001246792e-05,0.0006103515625,-0.03795197131112218,-15.509439180675319,1450.0,0.04836169946938753,-1.501659883800312,675.0,-7.6878066613985325
-27.0,5356059.0,0.0,0.09010138362646103,5900.0,0.0,-1.0001141279935837,0.0,19.122465335895974,-9.92117954506469,-0.04735552752390504,0.6326909363269806,-27.0,0.0007490206946386025,-8.566675367167806,0.0911293125925799,9.682642167885481,0.0,-0.8578777739836368,2700.0,0.0,58,0.0,-9.675580694772856,0.015022383071482182,0.39362914860248566,-15.861570779529,-0.9999242663383484,0.0,0.1845947265625,0.2936972536146641,-9.767315869917528,9.988177658348494,-27.0,2.2712695704285578e-05,0.00087890625,-0.03890062384307384,-16.139076067346913,1475.0,0.04865951705724001,-1.504034563440655,675.0,-7.4722416185866445
-27.0,5447184.0,0.0,0.09010138362646103,6000.0,0.0,-0.9994364231824875,0.0,19.06941400402395,-9.95094684767462,-0.04766523102298379,0.6342871740460396,-27.0,0.0009085835758014582,-7.8299830184359305,0.09160866355450023,9.712264181104885,0.0,-0.8587618267600192,2700.0,0.0,59,0.0,-9.703267365808221,0.015022383071482182,0.39545624926686285,-16.159743436419426,-0.9999229878187179,0.0,0.1830810546875,0.29416815340518954,-9.797486632737622,12.529882181678088,-27.0,2.3032331932881787e-05,0.0008544921875,-0.039887172915041444,-16.417737232032646,1500.0,0.048706975486129525,-1.5126693609388895,675.0,-4.65486274731557
-27.0,5538309.0,0.0,0.09010138362646103,6100.0,0.0,-0.9992919996380806,0.0,19.091128368340094,-9.875431873619444,-0.048733233101665975,0.6365846708416939,-27.0,0.0009425871830899268,-6.752919796501061,0.08897199233101583,9.63946628043899,0.0,-0.8573683820883161,2700.0,0.0,60,0.0,-9.630774943390872,0.015022383071482182,0.39873997047543525,-16.07256510415008,-0.9999205380678177,0.0,0.1961669921875,0.2956292860209942,-9.721028720437005,13.173974016645966,-27.0,2.3647967668694037e-05,0.0008544921875,-0.04027728782966733,-16.350751718451857,1525.0,0.04868688359856606,-1.493487558295601,675.0,-7.537784375481179
-27.0,5629434.0,0.0,0.09010138362646103,6200.0,0.0,-0.9992298439145089,0.0,19.140044046981934,-9.918442755854183,-0.04948132513090968,0.6393086433410644,-27.0,0.0009572228867909871,-7.349534830209005,0.08767756439967125,9.682371472286144,0.0,-0.858029330719728,2700.0,0.0,61,0.0,-9.672776644006003,0.015022383071482182,0.4017395913600922,-15.824755942572793,-0.999939177930355,0.0,0.2055908203125,0.29833274856209757,-9.764620339217734,13.25621083995921,-27.0,1.8979499463966933e-05,0.0009521484375,-0.04070016602054238,-16.09142116265477,1550.0,0.04856060380116105,-1.4841574907797621,675.0,-6.309326570083338
-27.0,5719893.0,0.0,0.09010138362646103,6300.0,0.0,-0.9989036858081818,0.0,19.16575737994532,-9.793575243570837,-0.04960836442187429,0.6423821598291397,-27.0,0.0010340135951992125,-7.652729593871217,0.0868532981796706,9.560316026008618,0.0,-0.8567365901719313,2676.0,0.0,62,0.01,-9.550781256554988,0.015022383071482182,0.4041154131293297,-16.046083485814094,-0.9999407887458801,0.0,0.2000732421875,0.30097355768084527,-9.642004366361329,12.416484595220698,-27.0,1.857699971878901e-05,0.0010009765625,-0.04101995611563325,-16.32866117546982,1575.0,0.04833173509687185,-1.4972368590635596,675.0,-8.499335525276598
-27.0,5810918.0,0.0,0.09010138362646103,6400.0,0.0,-0.9989870548248291,0.0,19.218537554756928,-9.803326702788848,-0.05007050782442093,0.6454978197813034,-27.0,0.001014387201576028,-8.067017988012966,0.08618995216821039,9.573545912108012,0.0,-0.855615727060649,2697.0,0.0,63,0.01,-9.565191855672321,0.015022383071482182,0.4056902289390564,-15.645766981122005,-0.999943695962429,0.0,0.2017822265625,0.30200154781341554,-9.651135378354553,11.880309674078932,-27.0,1.7847610865828756e-05,0.001025390625,-0.041293886862695216,-15.906148986098827,1600.0,0.0480556127615273,-1.4920381462550723,675.0,-7.521689646633647
-27.0,5902043.0,0.0,0.09010138362646103,6500.0,0.0,-0.9999591588974,0.0,19.157495915988683,-9.787223651733902,-0.050131027866154906,0.6488554656505585,-27.0,0.0007855031115468591,-7.744837658510889,0.08609255232265807,9.559423824630823,0.0,-0.854886082385201,2700.0,0.0,64,0.0,-9.552748940724406,0.015022383071482182,0.4074074387550354,-15.58167883092059,-0.999931126832962,0.0,0.15009765625,0.30319376662373543,-9.635807556935514,10.383025518905486,-27.0,2.099747885040415e-05,0.0009521484375,-0.04124989323318005,-15.846604875149268,1625.0,0.04802173525094986,-1.4964476485867635,675.0,-7.460557567146281
-27.0,5993168.0,0.0,0.09010138362646103,6600.0,0.0,-1.00064876973629,0.0,19.30765723193241,-9.806417497679847,-0.050178746692836285,0.6520036205649375,-27.0,0.0006231334831682034,-7.519616223751195,0.08507792248161025,9.578350380376651,0.0,-0.8550354607636109,2700.0,0.0,65,0.0,-9.570950229568961,0.015022383071482182,0.408455740660429,-15.577616910971017,-0.9999512434005737,0.0,0.2731689453125,0.3038991570472717,-9.65349518678798,8.382992534945668,-27.0,1.5953262027323946e-05,0.000927734375,-0.041623192839324474,-15.860811049511895,1650.0,0.04779136758297682,-1.481583998730639,675.0,-6.853209296527448
-27.0,6084293.0,0.0,0.09010138362646103,6700.0,0.0,-1.0012289375066756,0.0,19.11529757489866,-9.775020103237187,-0.049649060331285,0.6572501167654992,-27.0,0.0004865377726673614,-7.405964926268655,0.08693529644773947,9.547067094748558,0.0,-0.8555658294149907,2700.0,0.0,66,0.0,-9.537960793582663,0.015022383071482182,0.4093277841806412,-15.575194678377335,-0.9999585524201393,0.0,0.2714599609375,0.3044404797255993,-9.623388630472448,5.607071141542822,-27.0,1.4127289432508405e-05,0.000830078125,-0.04176321774721146,-15.880814274897281,1675.0,0.04762512417510152,-1.497711247553525,675.0,-7.124589119037011
-27.0,6175418.0,0.0,0.09010138362646103,6800.0,0.0,-1.0012511223554612,0.0,19.215270414894533,-9.883200829862854,-0.04955560937523842,0.6641615822911262,-27.0,0.0004813102634216193,-7.419722274569735,0.08606798587843348,9.65374773420207,0.0,-0.8558171444936307,2700.0,0.0,67,0.0,-9.645556193407407,0.015022383071482182,0.4090212881565094,-15.214194529160693,-0.9999274179339409,0.0,0.1298583984375,0.30537411496043204,-9.72930991287063,5.962880851322106,-27.0,2.1924708346432453e-05,0.0005126953125,-0.042568250093609095,-15.510137078486855,1700.0,0.04772512521594763,-1.4965438167680987,675.0,-5.217934555387551
-27.0,6266543.0,0.0,0.09010138362646103,6900.0,0.0,-1.000959140062332,0.0,19.179310347034004,-9.815058640079636,-0.04976138724014163,0.6680388778448105,-27.0,0.0005500585626577959,-6.88449854519023,0.08413865386455624,9.585757333563901,0.0,-0.8551674692775123,2700.0,0.0,68,0.0,-9.578379418812387,0.015022383071482182,0.41021632254123686,-15.129717153019318,-0.9999644994735718,0.0,0.3121337890625,0.30738307610154153,-9.661286512839723,8.306611339324027,-27.0,1.2633448579890683e-05,0.000537109375,-0.04306665044277906,-15.391156126188644,1725.0,0.04735080040991306,-1.5028861066573882,675.0,-7.344068653036473
-27.0,6357668.0,0.0,0.09010138362646103,7000.0,0.0,-1.0004509389400482,0.0,19.216419845323735,-9.754575642697958,-0.049869004357606175,0.6709615543484688,-27.0,0.0006697162039927207,-7.64055349619405,0.08412905447074664,9.525167624761014,0.0,-0.8550385789363645,2700.0,0.0,69,0.0,-9.51704774684428,0.015022383071482182,0.41090800166130065,-15.178348019202293,-0.9999635457992554,0.0,0.26171875,0.3095829106867313,-9.602912807548973,9.14516671629293,-27.0,1.2872840898126015e-05,0.0007568359375,-0.04378035785630345,-15.438344793888978,1750.0,0.047149240784347055,-1.484829168888973,675.0,-7.173505074571269
-27.0,6448793.0,0.0,0.09010138362646103,7100.0,0.0,-0.9996754541993141,0.0,19.207389676090862,-9.778909269169015,-0.050303293764591216,0.6752063661813736,-27.0,0.0008523046504706145,-7.435296629537508,0.08578475027134604,9.550894004213339,0.0,-0.8550568328122609,2700.0,0.0,70,0.0,-9.543090228258421,0.015022383071482182,0.41136882081627846,-15.275050632819813,-0.9999472081661225,0.0,0.2312744140625,0.3124361149966717,-9.627184495392743,10.245759888406152,-27.0,1.6969328987670453e-05,0.0009033203125,-0.04397285468876362,-15.524887692078371,1775.0,0.04722455954179168,-1.4764106412971159,675.0,-7.360785991327141
-27.0,6539918.0,0.0,0.09010138362646103,7200.0,0.0,-0.9988577038049697,0.0,19.256640993317482,-9.764629473907187,-0.05088682975620031,0.6786705628037453,-27.0,0.0010448421904584392,-7.454026360602225,0.0838251468852494,9.5339135714793,0.0,-0.8551809502212564,2700.0,0.0,71,0.0,-9.526398921308669,0.015022383071482182,0.41285210102796555,-15.291370756206305,-0.9999661922454834,0.0,0.266162109375,0.31530453115701673,-9.61223185796961,9.922581046538383,-27.0,1.2207956501697481e-05,0.000732421875,-0.04404991390183568,-15.54774801906839,1800.0,0.04739406201988459,-1.4908730190683854,675.0,-7.540510794333386
-27.0,6631043.0,0.0,0.09010138362646103,7300.0,0.0,-0.9989134013652802,0.0,19.23110335384747,-9.812869053061913,-0.05053782546892762,0.6816713765263558,-27.0,0.0010317269610823133,-7.548595902734082,0.08378925606521007,9.583995434432994,0.0,-0.8542560661604511,2700.0,0.0,72,0.0,-9.578340556874421,0.015022383071482182,0.41425793096423147,-15.170317658749843,-0.999978132545948,0.0,0.3319091796875,0.31657554060220716,-9.658884793330788,8.673756805557197,-27.0,9.217058777721832e-06,0.0008056640625,-0.04383812714368105,-15.41505566528935,1825.0,0.046994758490473035,-1.486733887945593,675.0,-7.408194429011386
-27.0,6722168.0,0.0,0.09010138362646103,7400.0,0.0,-0.9987810254096985,0.0,19.219587006241667,-9.821592313733694,-0.05067975213751197,0.6855054497718811,-27.0,0.001062897748488467,-7.460390862337304,0.08260861234071966,9.595849137323166,0.0,-0.8542452657944523,2700.0,0.0,73,0.0,-9.58919267210066,0.015022383071482182,0.4153924100100994,-14.886683218607729,-0.9999637499451637,0.0,0.2417724609375,0.31817492470145226,-9.669862764959793,8.250839823471807,-27.0,1.2824785585507925e-05,0.0008544921875,-0.044182881619781254,-15.127642409605155,1850.0,0.04653322771191597,-1.5081067650738986,675.0,-7.371851298407941
-27.0,6813293.0,0.0,0.09010138362646103,7500.0,0.0,-0.9989775434136391,0.0,19.24353492173005,-9.88560800853287,-0.0508758126758039,0.6898771449923515,-27.0,0.0010166284788283519,-7.535681748887477,0.08346903685770139,9.65568699975166,0.0,-0.8551581831721705,2700.0,0.0,74,0.0,-9.650583591307575,0.015022383071482182,0.41570296213030816,-14.918787224379471,-0.9999602511525154,0.0,0.28291015625,0.31981957629323005,-9.731622787395015,6.874753310122418,-27.0,1.3696599728518776e-05,0.0008544921875,-0.04423236446455121,-15.156606444994633,1875.0,0.04605771526694298,-1.4899130856196279,675.0,-7.414211598411165
-27.0,6904418.0,0.0,0.09010138362646103,7600.0,0.0,-0.9991625219583511,0.0,19.096245060677546,-9.85359273265255,-0.05073967119678855,0.6937355294823646,-27.0,0.0009730749108712189,-8.011850374764112,0.08430617801821035,9.623380898578194,0.0,-0.8554043444702983,2700.0,0.0,75,0.0,-9.616851133934187,0.015022383071482182,0.4159932225942612,-14.900296142900796,-0.9999629512429238,0.0,0.276953125,0.3211999237537384,-9.700596628109219,10.640146008719096,-27.0,1.3021626534737151e-05,0.0008544921875,-0.04462042851373553,-15.155337953570305,1900.0,0.04567660177126527,-1.5106084613827988,675.0,-9.094565934320189
-27.0,6995543.0,0.0,0.09010138362646103,7700.0,0.0,-0.998945665359497,0.0,18.809361910072763,-9.815678016607237,-0.05048849880695343,0.6972961038351059,-27.0,0.0010241329582640901,-7.753564092080104,0.08539435351176654,9.585371679563988,0.0,-0.8553299226012314,2700.0,0.0,76,0.0,-9.577941097438577,0.015022383071482182,0.4173052549362183,-15.071236258934244,-0.9999451100826263,0.0,0.2221435546875,0.3226589858531952,-9.66367613713463,6.8020851232953365,-27.0,1.7493299446869058e-05,0.0008056640625,-0.04530574325472116,-15.31338771681622,1925.0,0.04581683548167348,-1.4890713105662143,675.0,-6.20379704519602
-27.0,7086668.0,0.0,0.09010138362646103,7800.0,0.0,-0.9992866605520249,0.0,18.867539169040423,-9.74696071415222,-0.05048932516947389,0.7009969025850296,-27.0,0.0009438454013434239,-7.54134491423651,0.08477199758077644,9.514883096978078,0.0,-0.8556681777903578,2700.0,0.0,77,0.0,-9.506075021045223,0.015022383071482182,0.4182319909334183,-15.292376438688535,-0.9999485179781914,0.0,0.2007080078125,0.3233943544328213,-9.595390617497682,7.0555281953021804,-27.0,1.6637537032693218e-05,0.00107421875,-0.04575577583163977,-15.542673980975007,1950.0,0.0453933316282928,-1.4896749575374997,675.0,-6.879609857176563
-27.0,7177793.0,0.0,0.09010138362646103,7900.0,0.0,-0.9995084345340729,0.0,19.056615462624382,-9.858372880654699,-0.050489156320691106,0.7054910212755203,-27.0,0.0008916296224924736,-7.435709730075808,0.08644727582813302,9.625581043558665,0.0,-0.8563640029067756,2700.0,0.0,78,0.0,-9.617275812058962,0.015022383071482182,0.4197003968060017,-15.145421556999395,-0.9999566912651062,0.0,0.27880859375,0.3250431902706623,-9.704993722180133,6.671729694269631,-27.0,1.459060579236393e-05,0.0009033203125,-0.04592541661113501,-15.402888647884136,1975.0,0.04505946738645435,-1.4965307377278805,675.0,-7.775164124204878
-27.0,7268918.0,0.0,0.09010138362646103,8000.0,0.0,-0.9997753798961639,0.0,19.055112403765207,-9.721621560298951,-0.049836055096238854,0.7093450501561165,-27.0,0.0008287756427307613,-7.60534100795352,0.08534188201044142,9.492119457744447,0.0,-0.8549554123848793,2700.0,0.0,79,0.0,-9.484274006139168,0.015022383071482182,0.4206825837492943,-15.189528849587578,-0.9999584510922432,0.0,0.26552734375,0.326177242398262,-9.570786751044139,5.30940404771836,-27.0,1.4149117055239912e-05,0.0008056640625,-0.04573494838550687,-15.43271142101754,2000.0,0.044517275504767896,-1.507619624142535,675.0,-7.651505591081352
-27.0,7360043.0,0.0,0.09010138362646103,8100.0,0.0,-0.9998439267277718,0.0,19.079061138350163,-9.940475123665015,-0.04983726181089878,0.7116658985614777,-27.0,0.0008126378728775307,-7.6437947584008805,0.08538711495533327,9.708620425993212,0.0,-0.8567357840889599,2700.0,0.0,80,0.0,-9.70052187091764,0.015022383071482182,0.4216948553919792,-15.105203497552427,-0.9999559760093689,0.0,0.2615234375,0.3273634597659111,-9.786939896127524,4.334195822129566,-27.0,1.4768700748390983e-05,0.0010009765625,-0.045775805879384276,-15.357587288499236,2025.0,0.04410544913262129,-1.4899891439679778,675.0,-7.406596090726726
-27.0,7451168.0,0.0,0.09010138362646103,8200.0,0.0,-0.9999544709920883,0.0,19.236542238690838,-9.734709171260342,-0.05013209087774158,0.7144942611455918,-27.0,0.0007866063300753012,-7.565665474318794,0.0825582814793912,9.504258559335799,0.0,-0.8550170853282907,2700.0,0.0,81,0.0,-9.496735108788906,0.015022383071482182,0.4225857563316822,-14.855153968861774,-0.9999592944979667,0.0,0.302099609375,0.32995730713009835,-9.583845091295014,4.710725255867564,-27.0,1.3936093444044672e-05,0.00078125,-0.04553371947258711,-15.092251507661894,2050.0,0.04441640404984355,-1.4862817810993874,675.0,-7.476196778092712
-27.0,7542293.0,0.0,0.09010138362646103,8300.0,0.0,-0.9999977380037308,0.0,19.298776337926284,-9.782894070522925,-0.05056372219696641,0.7156344905495644,-27.0,0.0007764210211462341,-7.559401983360207,0.08136686045762843,9.554879459492486,0.0,-0.8544278915840551,2700.0,0.0,82,0.0,-9.547250558039952,0.015022383071482182,0.4230561316013336,-14.748167601006788,-0.9999793708324433,0.0,0.2946044921875,0.33253786265850066,-9.63049442543199,4.3091834362815975,-27.0,8.907425672077806e-06,0.000927734375,-0.04554325062781572,-14.983404557363425,2075.0,0.04428579201921821,-1.4872541667384211,675.0,-7.581978048368699
-27.0,7633418.0,0.0,0.09010138362646103,8400.0,0.0,-1.0000420659780502,0.0,19.206618017605404,-9.849737261728635,-0.0509104928933084,0.7162194967269897,-27.0,0.0007659818074898794,-7.56513992602668,0.08210069419539774,9.618976152553712,0.0,-0.8551118149523973,2700.0,0.0,83,0.0,-9.612868288034269,0.015022383071482182,0.42366815358400345,-14.65248311776946,-0.9999798163771629,0.0,0.3209228515625,0.3348019182682037,-9.695810543004294,4.524640754623569,-27.0,8.797278871952585e-06,0.0009765625,-0.045461111888289454,-14.885197331539882,2100.0,0.0442847334779799,-1.507264226071129,675.0,-7.669565660951009
-27.0,7724543.0,0.0,0.09010138362646103,8500.0,0.0,-1.0000775754451752,0.0,19.239263665345224,-9.858806556922058,-0.05110227037221193,0.7189359918236733,-27.0,0.0007576231684652158,-7.611540135716466,0.08248213701535703,9.625494420250755,0.0,-0.8560081861724029,2700.0,0.0,84,0.0,-9.618602457318184,0.015022383071482182,0.42485269606113435,-14.78368177808846,-0.9999786838889122,0.0,0.30791015625,0.33668403699994087,-9.705384938317568,5.40616021051133,-27.0,9.079842209303024e-06,0.0006591796875,-0.04554220549762249,-15.037788898329314,2125.0,0.04430082691833377,-1.4912508123918087,675.0,-7.63857043333122
-27.0,7815668.0,0.0,0.09010138362646103,8600.0,0.0,-1.0001563131809235,0.0,19.30301774829074,-9.8432801720881,-0.05096564618870616,0.721876822412014,-27.0,0.0007390886268694886,-7.594713150354677,0.08149562810435884,9.614460187007868,0.0,-0.8545476021696231,2700.0,0.0,85,0.0,-9.60827241855036,0.015022383071482182,0.4261364996433258,-14.831725636005075,-0.9999762326478958,0.0,0.3272216796875,0.3386165499687195,-9.688958503656119,3.357434680165143,-27.0,9.695618780369842e-06,0.00078125,-0.045913401152938606,-15.053517615584838,2150.0,0.04444880047813058,-1.5082715218348313,675.0,-7.404201646983579
-27.0,7906793.0,0.0,0.09010138362646103,8700.0,0.0,-1.000168077647686,0.0,19.235189119646467,-9.808786563834957,-0.051391462050378325,0.7245154112577439,-27.0,0.0007363176104263402,-7.634327396220621,0.09214175461711749,9.580364901226895,0.0,-0.8548369816446211,2700.0,0.0,86,0.0,-9.573844431172342,0.015022383071482182,0.4276656858623028,-14.950342447121736,-0.9999714463949203,0.0,0.3089599609375,0.33927193880081175,-9.653668967200002,4.8639188331025025,-27.0,1.0894575461861678e-05,0.001025390625,-0.04629444126039743,-15.16983259475802,2175.0,0.04413206716999411,-1.485697340851766,675.0,-7.545714257603527
-27.0,7997918.0,0.0,0.09010138362646103,8800.0,0.0,-1.000188647210598,0.0,19.190142812941197,-9.838834932186135,-0.04958775034174323,0.7259579375386238,-27.0,0.000731469709717203,-7.579280834231552,0.08771485606786962,9.611682785668698,0.0,-0.8543948259743047,2700.0,0.0,87,0.0,-9.605607590586676,0.015022383071482182,0.430858001857996,-14.84352998934732,-0.9999759823083878,0.0,0.3416748046875,0.33776339069008826,-9.686203257127122,4.477599431408642,-27.0,9.75851046405296e-06,0.0009521484375,-0.04704266125336289,-15.064937881457393,2200.0,0.043588515091687444,-1.4919139556761365,675.0,-7.515781878224122
-27.0,8089043.0,0.0,0.09010138362646103,8900.0,0.0,-1.0000076845288277,0.0,19.263506721412252,-9.81856846921801,-0.04904879620298743,0.7287370294332505,-27.0,0.0007740794084384106,-7.70982223632895,0.08702385325451577,9.588745637176093,0.0,-0.8545116954192054,2700.0,0.0,88,0.0,-9.582835527282807,0.015022383071482182,0.4329028621315956,-15.062396455533545,-0.9999771818518639,0.0,0.332568359375,0.3357513748109341,-9.664909736020523,5.231747816364928,-27.0,9.457066653340007e-06,0.0010986328125,-0.047509887255728245,-15.314603911218066,2225.0,0.043479960132390263,-1.5135433643430587,675.0,-7.443399320791081
-27.0,8180168.0,0.0,0.09010138362646103,9000.0,0.0,-0.9997501313686371,0.0,19.255109998963707,-9.811624755535993,-0.04979163333773613,0.7301807418465615,-27.0,0.0008347201350261457,-8.010263281029221,0.0892790038561593,9.581744803869984,0.0,-0.854382681028801,2700.0,0.0,89,0.0,-9.576396088910013,0.015022383071482182,0.4346169844269753,-15.128777496639165,-0.9999679177999496,0.0,0.3009521484375,0.33384103551506994,-9.658460473061302,6.430378570086165,-27.0,1.177665576506115e-05,0.000830078125,-0.04797177538275719,-15.386866557108709,2250.0,0.043473588209599255,-1.505702494608704,675.0,-6.62530093577571
-27.0,8271293.0,0.0,0.09010138362646103,9100.0,0.0,-0.9993228211998939,0.0,19.20684126889921,-9.73581060444016,-0.050907550193369386,0.7332343429327011,-27.0,0.0009353297180496156,-7.478376223155626,0.08793036640113112,9.504655443055608,0.0,-0.8540815899017616,2700.0,0.0,90,0.0,-9.49922714034843,0.015022383071482182,0.4351275198161602,-15.119133132458776,-0.9999570950865746,0.0,0.2568115234375,0.3331151857972145,-9.584761608498896,7.725475575922919,-27.0,1.4489773911918747e-05,0.000927734375,-0.048042035195976496,-15.345042170997015,2275.0,0.043509325757622716,-1.4961779131845105,675.0,-7.352582834231246
-27.0,8362418.0,0.0,0.09010138362646103,9200.0,0.0,-0.9988424390554428,0.0,19.214521140157704,-9.851447623348896,-0.05107754552736878,0.739440530538559,-27.0,0.0010484375394298694,-7.482521842638143,0.08933490361252312,9.622075914406398,0.0,-0.8546890436889953,2700.0,0.0,91,0.0,-9.615816871059545,0.015022383071482182,0.43578089103102685,-14.868213105864964,-0.9999613702297211,0.0,0.247802734375,0.3322554290294647,-9.69886386912431,8.7170042555953,-27.0,1.3418899652606341e-05,0.000927734375,-0.048453002516180274,-15.091911859794816,2300.0,0.04338033068925142,-1.4859421332323108,675.0,-7.677186131333387
-27.0,8452853.0,0.0,0.09010138362646103,9300.0,0.0,-0.998293760418892,0.0,18.891812142392258,-9.906368317175016,-0.051322328858077526,0.7466931626200676,-27.0,0.001177626574644819,-7.678585706719748,0.09051364208207031,9.673783401067222,0.0,-0.8557579567554058,2675.0,0.0,92,0.01,-9.666836468917262,0.015022383071482182,0.43596966937184334,-15.007966617082271,-0.9999624222517014,0.0,0.2552978515625,0.33110868409276006,-9.753290720980484,7.0489327709065295,-27.0,1.315241709107795e-05,0.000927734375,-0.04828318767249584,-15.254007667207224,2325.0,0.04285058444365859,-1.4994588390822172,675.0,-7.453837435505794
-27.0,8543978.0,0.0,0.09010138362646103,9400.0,0.0,-0.9978690221905708,0.0,16.524274351666083,-9.82626942195078,-0.05168346064165234,0.7535307601094245,-27.0,0.0012776288640452549,-7.637823001514976,0.08979463115773087,9.594484661689327,0.0,-0.8552454134493018,2700.0,0.0,93,0.0,-9.587965051056097,0.015022383071482182,0.43656866922974585,-15.079953647379895,-0.999962629377842,0.0,0.2686279296875,0.33097601160407064,-9.674286158593048,7.496103463897524,-27.0,1.3101653166813776e-05,0.0006103515625,-0.04856799002736807,-15.318985996669047,2350.0,0.0425884660333395,-1.4927316021377919,675.0,-6.8649504419722
-27.0,8635103.0,0.0,0.09010138362646103,9500.0,0.0,-0.9983684256672859,0.0,16.928521636070844,-9.868715974970169,-0.05224825758486986,0.7606233283877373,-27.0,0.0011600443831412122,-7.463163738909485,0.08853591669032582,9.629857714863864,0.0,-0.8557922886626329,2700.0,0.0,94,0.0,-9.624864868976982,0.015022383071482182,0.4371274866163731,-14.978362738693752,-0.9999675184488297,0.0,0.293896484375,0.3319058306515217,-9.71369931121513,6.373523281992976,-27.0,1.1878307554979984e-05,0.0010498046875,-0.048629182018339635,-15.199774610602244,2375.0,0.04217924550175667,-1.4988434582584886,675.0,-7.15338352468736
-27.0,8726228.0,0.0,0.09010138362646103,9600.0,0.0,-0.9988250344991684,0.0,18.06960646837481,-9.738272736504982,-0.05347209488973022,0.7680212289094925,-27.0,0.001052533990878146,-7.593437138739881,0.0868827945380743,9.505189059497956,0.0,-0.854460032179486,2700.0,0.0,95,0.0,-9.499830481317812,0.015022383071482182,0.43878196328878405,-15.010431954300955,-0.9999652609229088,0.0,0.2536376953125,0.33338676691055297,-9.587846375978472,6.075151270619751,-27.0,1.2442881302376919e-05,0.00068359375,-0.04910317687317729,-15.269585334544484,2400.0,0.0421250818297267,-1.4866126782944775,675.0,-7.355212470703253
-27.0,8817353.0,0.0,0.09010138362646103,9700.0,0.0,-0.9993121653795243,0.0,18.154431147525862,-9.765330237191048,-0.05407679956406355,0.7730053558945655,-27.0,0.0009378423928865232,-7.599552226278723,0.0866570020824208,9.532705790303009,0.0,-0.8548283765951055,2700.0,0.0,96,0.0,-9.527833480215486,0.015022383071482182,0.4398416139185429,-15.045747507604574,-0.9999681055545807,0.0,0.262646484375,0.3344884842634201,-9.613813695220342,3.88159759708647,-27.0,1.1730208404969744e-05,0.001123046875,-0.04943512873724103,-15.288558337371336,2425.0,0.04173976322636008,-1.5042936889338308,675.0,-7.26402509958403
-27.0,8908478.0,0.0,0.09010138362646103,9800.0,0.0,-0.9995440140366554,0.0,18.941286913311256,-9.811073877583365,-0.05370345171540976,0.7767168670892716,-27.0,0.0008832523148157634,-7.712320355720068,0.08658008190149596,9.580504572000052,0.0,-0.8547821930842474,2700.0,0.0,97,0.0,-9.57521021149628,0.015022383071482182,0.4422809429466724,-15.086542255765526,-0.9999716386198998,0.0,0.309912109375,0.33606346026062967,-9.660942538485344,3.561229526235563,-27.0,1.0846762654637132e-05,0.000830078125,-0.05025649126619101,-15.315032520696468,2450.0,0.04164349921047687,-1.4945920910089625,675.0,-7.463711128931474
-27.0,8999603.0,0.0,0.09010138362646103,9900.0,0.0,-0.9994461625814438,0.0,19.055685623304306,-9.932085960094263,-0.054140700958669186,0.7796555802226066,-27.0,0.0009062881057616323,-7.596537493700176,0.08650176991367657,9.696623860652188,0.0,-0.8560262549275649,2700.0,0.0,98,0.0,-9.691272068952651,0.015022383071482182,0.4443420052528381,-14.98533519671987,-0.99996208101511,0.0,0.297216796875,0.33760712295770645,-9.777577316538634,5.277406960099545,-27.0,1.3238197152531938e-05,0.000830078125,-0.05089893080294132,-15.218928624583764,2475.0,0.04160921135917306,-1.4928036245837575,675.0,-7.576627052657817
-27.0,9090728.0,0.0,0.09010138362646103,10000.0,0.0,-0.9989504337310791,0.0,19.104555162042224,-9.808748068870297,-0.05455205459147692,0.78172677308321,-27.0,0.0010230102256173269,-7.551516020556158,0.08653666491710839,9.575763950068566,0.0,-0.8551282120359247,2700.0,0.0,99,0.0,-9.569245669073341,0.015022383071482182,0.4463626153767109,-14.904280856709045,-0.9999691307544708,0.0,0.2864501953125,0.33896458297967913,-9.657222706678812,4.215995783558799,-27.0,1.1475353517198528e-05,0.00087890625,-0.0514165423810482,-15.131225033237603,2500.0,0.041455726604908705,-1.4961854824563487,675.0,-7.626619801291155
