ReemS3/reg_curious_hac/data/d4a6886/CausalDependenciesMujocoEnv-o1-v0/alg:chac|eta:0.75|fw:1|fwhidsiz:256,256,256|nlev:2|reg:False|rolbatsiz:1|timsca:27,27|103/progress.csv
train_1/q_loss,train_1/fw_loss,test/success_rate,train_1/q_grads_std,train_0/current_q,train_0/q_loss,train_0/q_grads,train/episodes,train_1/mu_grads,train_1/subgoal_succ_rate,train_0/mu_grads_std,train_1/fw_bonus,train_1/current_q,test/episodes,train_1/reward_-0.0_frac,train_0/q_grads_std,train_0/mu_loss,train_1/target_q,train_1/next_q,train/success_rate,train_0/fw_loss,test_1/subgoal_succ_rate,train_1/reward,train_1/mu_loss,train_1/avg_q,test_1/avg_q,test_0/avg_q,train_0/mu_grads,train_0/next_q,policy/steps,train_0/reward,test_1/n_subgoals,train_0/reward_-1.0_frac,train_0/avg_q,train_1/reward_-1.0_frac,train_0/fw_bonus,train_1/q_grads,train_1/mu_grads_std,epoch,train_0/reward_-0.0_frac,train_0/target_q,train_1/n_subgoals,train_1/reward_-27.0_frac
35.62632096272327,0.0015629212401108816,0.0,0.24257974624633788,-1.9902379669795682,0.45177155889653486,0.03262011557817459,100.0,0.022039140481501816,0.06481481481481481,0.14262251406908036,-0.9987858384847641,-17.810037541948827,15.0,0.0,0.15488393008708953,1.8985944821243586,-17.544272240109013,-20.99345997978878,0.0,0.00023605341957591008,0.0,-2.5441178463290273,21.0968870373711,-15.265787694853698,-19.655352952552658,-0.5613615855312416,-0.006651334883645177,-1.910240047422699,80215.0,-0.6211917924494628,405.0,0.0048095703125,-3.348491194801294,0.00380859375,-0.9990493938326835,0.028705580299720167,0.08608988597989083,0,0.0,-2.359196396456672,2700.0,0.0
19.062798366759985,0.0016054770501796156,0.0,0.3258153319358826,-5.1403431790230325,1.4554227176861818,0.035318680480122565,200.0,0.022055068984627724,0.04770848985725019,0.1757603246718645,-0.9986417323350907,-20.168723129762537,30.0,0.0,0.1813174717128277,5.148325982503829,-20.03106310988995,-23.409131137306115,0.04,0.0003183829729096033,0.0,-2.5348533058062457,23.464865885703933,-22.644481992909814,-22.890993244999965,-16.07491508590626,-0.011953719588927925,-5.022468875828993,160774.0,-0.6535346242359082,405.0,0.00087890625,-4.657247057551306,0.0036865234375,-0.9987088039517402,0.023675062227994204,0.08611967414617538,1,0.0,-4.875833462409546,2662.0,0.0
14.457048122565457,0.0018108262011082843,0.0,0.36490887999534605,-5.169369985576586,0.46967208203592303,0.034431779943406585,300.0,0.022052393993362784,0.1580867450344548,0.20719044990837573,-0.9979463696479798,-18.451701154928227,45.0,0.0,0.18665999174118042,4.94927768705597,-18.29362195411111,-20.738329375974672,0.19,0.0003655060732853599,0.9869067103109657,-2.5244804903912152,20.796394122477395,-23.2381987501161,-24.22055894365784,-1.646618327148703,-0.013025771803222596,-4.880723440352702,230555.0,-0.6693977539263869,6721.0,0.000830078125,-10.402049686933028,0.0050048828125,-0.9985138639807701,0.018809070251882075,0.08611663058400154,2,0.0,-5.058839652612429,2467.0,0.0
11.906092002635052,0.0018551190820289775,0.0,0.386358293145895,-5.4639152921173055,0.7435070349534334,0.03419551234692335,400.0,0.02191290557384491,0.30775075987841943,0.23121956661343573,-0.9977963969111443,-19.162606084946823,60.0,0.0,0.19194345325231552,5.426417248108584,-19.0210426787825,-21.485238925072895,0.06,0.00037081052432768046,0.9952345652864556,-2.429392942800405,21.562335773767742,-23.198491628668283,-24.51894635830724,-3.615822854061822,-0.021769881946966052,-5.253443265879744,296825.0,-0.6797560374328896,9443.0,0.002734375,-8.505543767740303,0.0052734375,-0.9984919160604477,0.014810088509693741,0.08592421170324087,3,0.0,-5.3844604359446295,2632.0,0.0
18.922903952157053,0.0018804516148520634,0.0,0.39284192845225335,-3.2123840198052407,0.6600757997653168,0.03297347705811262,500.0,0.0012004195566987618,0.3367741935483871,0.26606459468603133,-0.9977106004953384,-11.086311781971306,75.0,0.0,0.19982334412634373,3.1239968274703678,-11.15938043037005,-11.240839086817811,0.25,0.00038916406119824385,0.0,-2.356825111438593,11.180025005403493,-16.989288737256423,-2.20013434287713,-0.5749295075588113,-0.035018949303776026,-3.039731940903183,354917.0,-0.688141596837886,405.0,0.0013916015625,-11.03350330471388,0.0051025390625,-0.9984159991145134,0.01186639848165214,0.15388631597161292,4,0.0,-3.3800693139300435,2325.0,0.0
13.959826064804588,0.001785668946104124,0.0,0.4064751848578453,-5.114118434922022,0.7831015656572762,0.031910148449242115,600.0,0.002156861464027315,0.14508580343213728,0.2932723768055439,-0.9980315759778022,-12.961562515888644,90.0,0.0,0.2090559933334589,5.048532241696124,-12.966061939049998,-13.585344764701158,0.56,0.00038946880085859447,0.7050298380221653,-2.3338706827373246,13.472479169007704,-8.697631160134657,-4.2131699772044895,-1.4044372526465874,-0.03949936917051673,-4.93049631075924,412253.0,-0.6938541723775415,1173.0,0.0011474609375,-8.074890640314372,0.0054443359375,-0.9984147340059281,0.00973489263560623,0.17787936329841614,5,0.0,-5.069934606583459,1923.0,0.0
12.516376737199872,0.0020862909354036675,0.0,0.41971272602677345,-5.140430111957196,0.5899888018736474,0.024688069801777603,700.0,0.0031716063269414006,0.14454416627302788,0.3194900445640087,-0.9970135897397995,-12.967568121855493,105.0,0.0,0.21986103877425195,4.923290891697651,-13.015649877057246,-13.162430395549373,0.43,0.0004059194267028943,0.0,-2.3357219016692397,13.119641099717976,-10.658570910220698,-9.59073925806753,-1.0325681013637298,-0.04664458222687244,-4.814186563401788,474391.0,-0.7114885260452866,405.0,0.001318359375,-9.031484875630017,0.00498046875,-0.9983466818928719,0.005375181802082807,0.20756248719990253,6,0.0,-5.03344894022093,2117.0,0.0
13.038477353031453,0.0023494015447795393,0.13333333333333333,0.4319709241390228,-5.636458440174546,0.6335748564741251,0.023557812627404928,800.0,0.0025892964680679143,0.023371647509578545,0.33324733227491377,-0.996122607588768,-13.282943403795457,120.0,0.0,0.22653050534427166,5.459497202064772,-13.332071689346611,-13.399443494802549,0.06,0.0003778219535888638,0.002531645569620253,-2.3141307541744025,13.285069715915835,-12.311481707582168,-6.9755118112872765,-1.721651549747174,-0.052343246154487134,-5.301076486415671,554459.0,-0.7292055732632434,395.0,0.002734375,-5.875983622479616,0.0056640625,-0.9984629184007645,-0.002133188670268282,0.22936543114483357,7,0.0,-5.54709705171023,2610.0,0.0
8.704189079733698,0.0021731214335886763,0.0,0.44508726224303247,-4.838940531903061,0.5208321431732834,0.025295689469203353,900.0,0.007424007961526513,0.1205115592720118,0.3498483061790466,-0.9967195659875869,-7.621857241658342,135.0,0.0,0.23573194853961468,4.623224392803534,-7.822335668636724,-6.935543281716309,0.47,0.00037379158311523497,0.7288888888888889,-2.3837135811347254,6.953115477482103,-13.189080352732741,-10.860249250954956,-1.0132233159960302,-0.0560053669847548,-4.483603368661648,615565.0,-0.731992944538797,1350.0,0.0050048828125,-9.215159789801886,0.0053466796875,-0.9984795898199081,-0.010375620564445853,0.25139090269804,8,0.0,-4.866001250010358,2033.0,0.0
15.072062111900445,0.002108772029168904,0.0,0.45470637157559396,-4.962773286925602,0.584357065678818,0.025743654230609536,1000.0,0.005583819502498954,0.14651061985262245,0.36374539211392404,-0.9969374507665634,-13.34603810819559,150.0,0.0,0.24268451221287252,4.751652860664763,-13.522078865141015,-13.489821423663168,0.34,0.0003434653386648279,0.0,-2.3610629781403984,13.543805943687005,-13.837290827560519,-9.026418459625548,-0.7821555798390744,-0.06220429418608546,-4.616235776909878,682517.0,-0.7350638592979521,405.0,0.0127197265625,-7.708308242445853,0.0061767578125,-0.9986050516366959,-0.014700197987258435,0.2788725525140762,9,0.0,-4.9263313158332425,2307.0,0.0
18.394991176257367,0.002082961623091251,0.0,0.4659392349421978,-4.353288825381576,0.5170542664252725,0.026413257420063018,1100.0,0.004666213551536203,0.21631051024858264,0.37980861887335776,-0.9970248565077782,-12.536537160864158,165.0,0.0,0.2520150125026703,4.127346433867237,-12.646592444280973,-12.197961976212111,0.32,0.0003332624284666963,0.7915676959619953,-2.4271859014257644,12.21618902092953,-15.356641700626788,-6.5153852097146245,-1.6414943316214412,-0.06494391523301601,-4.002253152667284,746444.0,-0.741043649630592,1684.0,0.0131103515625,-7.409876007343211,0.0068603515625,-0.9986472383141518,-0.018104242254048587,0.29435724914073946,10,0.0,-4.340967060477904,2293.0,0.0
12.390339997760544,0.0020074460218893362,0.0,0.48006136417388917,-4.210676673896076,0.8094445969301741,0.02740140906535089,1200.0,0.006265527743380517,0.14605263157894738,0.3961888812482357,-0.997280566394329,-13.343074192376292,180.0,0.0,0.25902939811348913,4.011620341177067,-13.42839899745421,-13.298503348682777,0.35,0.0003376235676114447,0.8955121616992121,-2.360764233919326,13.386059262497156,-13.1386131802937,-12.53906912630418,-1.198363807087904,-0.06256072269752622,-3.9055634442400446,812687.0,-0.7377981723890116,2919.0,0.021142578125,-7.478001748049157,0.005908203125,-0.9986292123794556,-0.020034776581451298,0.3167696751654148,11,0.0,-4.114712236783726,2280.0,0.0
11.242968317255228,0.0018901816598372533,0.0,0.49385140240192416,-4.818433770615348,0.737527712170212,0.02785702901892364,1300.0,0.004698430781718344,0.23704103671706264,0.4120787687599659,-0.9976776495575905,-13.007953506993356,195.0,0.0,0.26368448957800866,4.571123092227975,-12.983303260293876,-12.714845058561824,0.6,0.00032465826952829955,0.8051082731815657,-2.4156120428942813,12.692622804857592,-13.142932862614641,-7.116725134680946,-0.8428132696641284,-0.06364803183823824,-4.486090367562199,865126.0,-0.7398623627810593,1801.0,0.01708984375,-6.846912344807878,0.005908203125,-0.9986828446388245,-0.02358903721906245,0.3407349564135075,12,0.0,-4.725606740729094,1852.0,0.0
12.448813458010026,0.001858714476111345,0.0,0.5079872116446496,-4.966422165982986,0.5943405859044641,0.027857131138443948,1400.0,0.004414805700071156,0.2197382769901854,0.4189054764807224,-0.9977842062711716,-13.028616044904577,210.0,0.0,0.2696631126105785,4.744074003013645,-12.978003653438602,-12.812473671809107,0.65,0.0002984291459142696,0.6569872958257713,-2.3349074789515725,12.72441398221998,-12.946627965247597,-1.3224990678474664,-1.5587374445796267,-0.06887843068689108,-4.592190010937221,918270.0,-0.7360076532422681,1102.0,0.02578125,-7.380296015405506,0.0052734375,-0.9987913563847541,-0.027093420596793295,0.3624305695295334,13,0.0,-4.8774167830975,1834.0,0.0
12.422956997532498,0.0017194233485497534,0.0,0.5154801279306411,-5.145233126177777,0.5890992285917485,0.028057136898860337,1500.0,0.0019192310544895008,0.25294447560291644,0.4302035927772522,-0.998255880177021,-12.41236939040543,225.0,0.0,0.2781755685806274,4.966372686228811,-12.32521464117782,-12.081494050207974,0.71,0.0002877858554711565,0.0,-2.3297336474344776,12.064086186657784,-10.37531071547121,-4.659672030858011,-1.8096085784697165,-0.07175533398985863,-4.794614889730307,969240.0,-0.732338240975514,405.0,0.0299072265625,-9.066885430619607,0.0052490234375,-0.9988353759050369,-0.03339590951800346,0.36997768804430964,14,0.0,-5.0675866827197025,1783.0,0.0
9.819628794944034,0.0016029691469157115,0.0,0.5256120324134826,-5.5309930307154875,0.6909221263409493,0.02856289460323751,1600.0,0.001354538049781695,0.23968343697003958,0.43988236859440805,-0.9986502259969712,-11.527307558852826,240.0,0.0,0.28676658421754836,5.351260519820783,-11.50516476344156,-11.155041977130299,0.66,0.00030648389110865537,0.0,-2.2986859950146026,11.258202087258812,-12.344642181795656,-9.44845500147386,-1.596834271532559,-0.07589851189404725,-5.200830186619244,1020604.0,-0.734131647331742,405.0,0.0265869140625,-9.076810323061261,0.005224609375,-0.9987580373883247,-0.033660557214170696,0.3831082426011562,15,0.0,-5.454506298167392,1769.0,0.0
12.895763539520539,0.0016285995923681184,0.0,0.5376287057995797,-5.350989904576371,0.6914406116100726,0.02864570147357881,1700.0,0.00048658434679964556,0.25896012115093386,0.45072354227304456,-0.9985634326934815,-10.902464617399241,255.0,0.0,0.29473005831241605,5.226127692748506,-11.041393094340057,-10.786854400306689,0.56,0.00029413982556434346,0.0,-2.2382394926018607,10.864868156106885,-14.577690609311912,-6.2951661387239195,-2.415424620441942,-0.08377397861331701,-5.06104838977051,1075751.0,-0.7318922163678507,405.0,0.02607421875,-9.760224925334652,0.005224609375,-0.9988091006875038,-0.034199808817356826,0.39728361293673514,16,0.0,-5.32531653306219,1981.0,0.0
7.271776657000588,0.001757514404016547,0.2,0.5503691658377647,-5.542280183676019,0.6991010230474316,0.029465628368780018,1800.0,0.0005251037800917402,0.3373216751035435,0.46263581737875936,-0.9981268957257271,-12.67370266457085,270.0,0.0,0.3004899531602859,5.352315761600506,-12.759160611908365,-12.959165372413537,0.38,0.0002798487817926798,0.9298962590380383,-2.206654527658247,13.112447966248434,-12.136683659894523,-12.486627690145548,-1.2530018542500825,-0.08376531768590212,-5.21455085103072,1131074.0,-0.7371621233720361,3181.0,0.0277587890625,-8.694094469804854,0.006005859375,-0.9988682255148887,-0.035073413699865344,0.40415604412555695,17,0.0,-5.438627290809597,2173.0,0.0
7.026845459442299,0.0016326442157151178,0.2,0.5621716812252998,-5.889500265756838,0.6482914030637128,0.03094774140045047,1900.0,-0.001103081277688034,0.5101816180517337,0.46827245205640794,-0.9985497400164605,-12.088966043350291,285.0,0.0,0.30978885740041734,5.701527940537053,-12.198596310172164,-12.304969016823446,0.59,0.0002827275766321691,0.7315096251266464,-2.135605452650998,12.464386876836448,-14.108641105044839,-14.527891079973289,-2.0909922069512943,-0.09232903644442558,-5.551094952427009,1171656.0,-0.7395212066650856,987.0,0.0476318359375,-9.115169223566456,0.0060546875,-0.9988563194870949,-0.03745330264791846,0.4152548976242542,18,0.0,-5.800165679271215,1817.0,0.0
7.012383823826248,0.0016373992228182032,0.06666666666666667,0.5701197817921638,-5.876362265127969,0.5576718720969926,0.031878305971622466,2000.0,-0.002044878527522087,0.41920830629461386,0.4803704500198364,-0.9985336363315582,-11.092876193220945,300.0,0.0,0.3176340401172638,5.6651559999522,-11.176092237554936,-11.02248548102238,0.74,0.00030135898523440117,0.9971401334604385,-2.069189073568123,11.189657121924787,-13.404806806880652,-15.500217428449096,-1.2024428801784666,-0.09679889846593141,-5.519482921258513,1211390.0,-0.7393188322592323,9441.0,0.05576171875,-10.919581323899562,0.0059326171875,-0.9987792402505875,-0.04159619649872184,0.4237289637327194,19,0.0,-5.8090599797828935,1541.0,0.0
16.61592691389824,0.0015367972489912062,0.2,0.578245097398758,-5.582180446221857,0.6895576791587207,0.03205328769981861,2100.0,-0.00251461974112317,0.46350710900473935,0.48655603900551797,-0.9988743022084237,-6.3654267775523685,315.0,0.0,0.3243348255753517,5.391362330852916,-6.963814982649211,-5.801514800030207,0.44,0.0002903186938056024,0.0051813471502590676,-1.9857415245409356,5.804214365863303,-15.198953754948567,-0.17176612749848688,-1.909211750527346,-0.09993477184325457,-5.215716025387037,1259349.0,-0.7434501233194168,386.0,0.04033203125,-9.706644577753224,0.005224609375,-0.9988249123096467,-0.040649257879704234,0.4277710810303688,20,0.0,-5.452952527963267,2110.0,0.0
7.514422224324809,0.0015953224821714685,0.0,0.5862643748521805,-3.588895061314507,0.593287597803168,0.03160802312195301,2200.0,-0.004194230330176652,0.2579013906447535,0.49532950595021247,-0.9986761286854744,-10.230835069758054,330.0,0.0,0.3246641978621483,3.4688066663949657,-10.302318015814643,-9.853175056858452,0.72,0.0002869663640012732,0.9317833418497701,-1.9744126827132278,10.109582152095907,-8.831690494569749,-13.397900602551939,-1.9167149227271674,-0.10059977620840073,-3.2620981192655094,1305468.0,-0.7425563736029289,3914.0,0.0390869140625,-8.06574119188226,0.0058837890625,-0.9988387793302536,-0.04171384172514081,0.4325281158089638,21,0.0,-3.64532440973786,1582.0,0.0
7.278351004717223,0.0016264345118543132,0.0,0.595836840569973,-5.11406151853005,0.7091326526051333,0.031429572775959966,2300.0,-0.0046395922196097675,0.27148128624143386,0.5002997815608978,-0.9985707610845566,-10.28345354894636,345.0,0.0,0.32763679772615434,4.929964579970715,-10.405512637097043,-9.924671249826936,0.63,0.0002551588491769508,0.5221130221130221,-1.971969351111693,10.103934076154093,-12.640230389522664,-10.412540051809861,-2.392713474902955,-0.10489048529416323,-4.745361845684985,1358600.0,-0.7542530879734841,814.0,0.0747314453125,-7.657084492071516,0.006787109375,-0.9989703565835952,-0.042041008733212946,0.4395910367369652,22,0.0,-5.004617326873379,1897.0,0.0
7.567770020033106,0.001724791675223969,0.0,0.6059566766023636,-2.8276160385385585,0.971892504285284,0.031474196910858156,2400.0,-0.006039036193396896,0.25202092249167857,0.5050748765468598,-0.9982377126812935,-10.748216116811362,360.0,0.0,0.3307769998908043,2.6223011567883536,-10.848919216291268,-10.349067975101388,0.39,0.0002580383625172544,0.0,-1.994316506552059,10.53229368203723,-13.830694819253463,-5.811359890579259,-0.9265846555766686,-0.10616011023521424,-2.6114596493076876,1417083.0,-0.7584615356983704,405.0,0.06494140625,-7.312549715208367,0.00576171875,-0.9989584505558013,-0.04485536385327578,0.45168304070830345,23,0.0,-3.098683653441202,2103.0,0.0
5.262947856442411,0.0015683938487200066,0.2,0.6157291471958161,-5.667424554040882,0.610042378750649,0.031641266867518426,2500.0,-0.007599730859510601,0.21890303623898139,0.5106586188077926,-0.998767314851284,-10.592873049805785,375.0,0.0,0.3345998957753181,5.493912856472084,-10.701157891205979,-10.194469012546197,0.45,0.0002590983214759035,0.8239895697522817,-1.9609039853872674,10.385844729726733,-13.565066960730574,-9.020717707793384,-2.7047440474162765,-0.10511027574539185,-5.291129155561911,1473372.0,-0.7648691308018897,1534.0,0.043798828125,-6.676278620517226,0.006201171875,-0.9989540681242943,-0.046898191701620816,0.4611886151134968,24,0.0,-5.597266980474143,2042.0,0.0
14.141703083957598,0.0015529998869169503,0.0,0.6244000405073166,-5.492675474436252,0.8279273963704075,0.031444246787577866,2600.0,-0.00830836973618716,0.333879781420765,0.5166103839874268,-0.9988194450736045,-10.309497653738742,390.0,0.0,0.3371467560529709,5.328559751121265,-10.428343899455449,-9.897360580404388,0.64,0.00022572094021597878,0.8048916064480267,-2.0110512941661,10.187156208228348,-13.815304041564978,-18.699600863571767,-1.5205556978653303,-0.10650007873773575,-5.176000726950752,1522651.0,-0.7723926640032005,1799.0,0.09296875,-9.488566315925521,0.0056884765625,-0.9990921422839165,-0.04739004531875253,0.4713213749229908,25,0.0,-5.504998746150181,1830.0,0.0
5.030158494466141,0.0014042987662833185,0.2,0.6320774853229523,-5.837960493725998,0.808853719547395,0.03165475269779563,2700.0,-0.009840632858686148,0.32312565997888065,0.5226440548896789,-0.9993229642510414,-11.783608373543307,405.0,0.0,0.3399043396115303,5.72441218553611,-11.842306162711647,-11.3882457551859,0.63,0.00022081417591834906,0.8718067812354854,-2.0317399233455946,11.598136862388237,-15.761092227662619,-16.108710319971106,-2.356317275848128,-0.1071332035586238,-5.5051204877584725,1571622.0,-0.7784951507524965,2153.0,0.0914794921875,-10.525605153234505,0.005517578125,-0.9991124361753464,-0.045269074570387605,0.4751840755343437,26,0.0,-5.792070256803612,1894.0,0.0
4.615939327777559,0.001352866881643422,0.3333333333333333,0.6386204063892365,-6.067761317924848,0.6305516496468899,0.03163948161527515,2800.0,-0.011446214001625776,0.40724815724815727,0.5264454111456871,-0.9994971334934235,-11.74852616129516,420.0,0.0,0.3431851029396057,5.865888511426037,-11.846476492081816,-11.376377687269706,0.72,0.0002155437643523328,0.34592445328031807,-2.027681900466996,11.58367944820682,-14.643878816068026,-13.43782757018896,-2.091234970091585,-0.11042265389114618,-5.705493642560599,1612895.0,-0.7790132968097169,503.0,0.110302734375,-10.418963850842609,0.0054443359375,-0.9991342455148697,-0.04592975554987788,0.48046482503414156,27,0.0,-6.011682185469207,1628.0,0.0
4.589199414659302,0.001331767495139502,0.2,0.6468494564294816,-5.779038445380925,0.7430812608439419,0.03165834499523044,2900.0,-0.01259677044581622,0.37584304107909255,0.5318517833948135,-0.9995685815811157,-11.824844631465208,435.0,0.0,0.3478446163237095,5.618226698824537,-11.889150433489458,-11.4153956850193,0.74,0.00021128522566868924,0.8529111338100103,-2.062361628603321,11.653399582055885,-13.42240898392888,-13.854982977891796,-1.5813740649296348,-0.11638159658759832,-5.427443546231178,1655545.0,-0.7858841562730958,1958.0,0.092822265625,-10.703362665840611,0.005029296875,-0.9991518571972847,-0.046314791589975354,0.4865571342408657,28,0.0,-5.721618391723659,1631.0,0.0
5.099899156703377,0.0013500679808203131,0.13333333333333333,0.6525384187698364,-5.96158671613023,0.6479607939919602,0.031759167462587355,3000.0,-0.014561712485738098,0.3898199875853507,0.5363290399312973,-0.9995066165924072,-11.605718948499563,450.0,0.0,0.35240564718842504,5.764147494724649,-11.69161174353234,-11.129667177271994,0.7,0.00018360818139626645,0.986046511627907,-2.038084660952154,11.329016323237127,-14.959960497008328,-13.212183940712746,-1.4286307847311008,-0.11838475205004215,-5.587105361088723,1696317.0,-0.7864987178571028,6450.0,0.1168212890625,-10.952092743023895,0.0050537109375,-0.999266354739666,-0.04762634048238397,0.4917253449559212,29,0.0,-5.9059147219334545,1611.0,0.0
4.564915497287186,0.001241964750806801,0.2,0.6585305675864219,-5.727062365375359,0.7159064984089669,0.03204747950658202,3100.0,-0.013780156220309436,0.4246353322528363,0.5430063888430595,-0.9998726680874824,-11.19931480138209,465.0,0.0,0.3593979150056839,5.525547329699191,-11.327513549175537,-10.870356147854087,0.57,0.00019393580514588394,0.9906759906759907,-1.9976732466122484,11.103757552203565,-14.816582271202613,-14.041745680308477,-1.4209420603165637,-0.12052464615553618,-5.348992751715253,1739521.0,-0.7885754390183137,6006.0,0.0752197265625,-13.48192778138493,0.0048828125,-0.9992236271500587,-0.04804620966315269,0.496869508177042,30,0.0,-5.659670743447592,1851.0,0.0
5.949322147764155,0.0012638051994144917,0.06666666666666667,0.6662401586771012,-6.135767362214479,0.4180304422551682,0.03189025968313217,3200.0,-0.014828544924966991,0.44937088076692633,0.5487093403935432,-0.9997987151145935,-10.601078949956406,480.0,0.0,0.36511230692267416,5.875533323321173,-10.676373287369023,-10.187147521959453,0.73,0.00017976505478145555,0.8808073115003808,-1.9424667698764098,10.340575060444943,-14.311278813625531,-3.8689911454568713,-1.312370800561221,-0.12090689800679684,-5.673428595330714,1780542.0,-0.7893042061470623,2626.0,0.14013671875,-10.853185530931313,0.005078125,-0.9992822468280792,-0.04671595571562648,0.49913316369056704,31,0.0,-6.075759245479882,1669.0,0.0
6.153947904456928,0.0012966642651008442,0.06666666666666667,0.674486494064331,-6.0523860748851295,0.7131391590178074,0.03181794099509716,3300.0,-0.015492916922084987,0.2888243831640058,0.5562606602907181,-0.9996874526143074,-11.912737379540195,495.0,0.0,0.37040920928120613,5.870810954676349,-12.001494963782845,-11.817146627339127,0.49,0.0001960474419320235,0.36689419795221845,-1.925574939204671,12.121747414228144,-14.359766925864443,-19.305934045776567,-1.6168951705033494,-0.12153666187077761,-5.694546738695374,1835284.0,-0.7834829232200718,586.0,0.1263427734375,-11.004006636402554,0.0052001953125,-0.9992149010300636,-0.047339695412665604,0.504128035902977,32,0.0,-6.0119177207566015,2067.0,0.0
6.858501123324845,0.0011739760782802477,0.06666666666666667,0.6819844990968704,-5.769950375363504,0.6267851538550996,0.033620568085461856,3400.0,-0.015087047033011914,0.3072188024622272,0.5614204853773117,-1.0001028999686241,-11.50465212467952,510.0,0.0,0.3795660696923733,5.570926351685221,-11.62124529111002,-11.46345197469055,0.7,0.00020192054180370178,0.0025252525252525255,-1.872926115552764,11.734788702535607,-15.805794036604631,-11.84771881214151,-2.1478045363851637,-0.12144615147262812,-5.375883086952945,1884137.0,-0.7792288023745642,396.0,0.139453125,-10.511338936684439,0.004931640625,-0.9991905972361564,-0.0491604195907712,0.5080896571278573,33,0.0,-5.73060602381288,1787.0,0.0
5.261986227353429,0.0011925928381970152,0.26666666666666666,0.6895067602396011,-6.319449025613556,0.5046439547131059,0.03428285643458366,3500.0,-0.015550338849425315,0.29411764705882354,0.5669367507100105,-1.000039851665497,-11.599552436217577,525.0,0.0,0.38568548783659934,6.103162361854624,-11.6977557169403,-11.479350231360232,0.71,0.00021168363236938602,0.9557747375119313,-1.9692787637035507,11.748206993671598,-15.112914486333057,-13.108593401428577,-2.000157735325713,-0.12171923350542783,-5.9300208167713695,1928343.0,-0.7747509317887307,3143.0,0.1072021484375,-10.955130048431718,0.0043212890625,-0.9991501972079277,-0.05080368397757411,0.515070018172264,34,0.0,-6.277088231530337,1666.0,0.0
4.927728317814039,0.0011692508065607398,0.06666666666666667,0.6964657261967659,-6.09322579573425,0.7728140254750903,0.03465744014829397,3600.0,-0.015270556998439133,0.38909541511771994,0.573471975326538,-1.0001189067959786,-11.876389805464903,540.0,0.0,0.390867967158556,5.909873067135622,-11.951442695376937,-11.905332234660383,0.73,0.0002170846153603634,0.8898233809924306,-1.9388297733024955,12.150422045423799,-15.280835422022792,-17.06919139152693,-1.1125483251125972,-0.12413083799183369,-5.739179031123056,1969931.0,-0.7724015958738164,2378.0,0.1090087890625,-11.851495960586924,0.004736328125,-0.9991278767585754,-0.05101884212344885,0.5247963666915894,35,0.0,-6.071654969858753,1614.0,0.0
5.035336288536571,0.0012094013101886958,0.4,0.7039865866303444,-5.844968118784255,0.771384150576724,0.03444280615076423,3700.0,-0.01618722570128739,0.372848948374761,0.5804245322942734,-0.9999829441308975,-11.931737758526342,555.0,0.0,0.39540966004133227,5.768323709824891,-12.042537824820728,-12.056029010623059,0.73,0.00023679428886680398,0.8819294456443485,-1.945753792756659,12.277619298284286,-14.807832571096814,-12.427916366474266,-2.2437416934344694,-0.12424843702465296,-5.521589955220565,2008079.0,-0.7710811629764066,1389.0,0.1115966796875,-11.262231339849585,0.0045654296875,-0.9990463361144066,-0.05119545990601182,0.5338893488049508,36,0.0,-5.793042076018942,1569.0,0.0
5.085131092387838,0.0012925087474286556,0.3333333333333333,0.7108825221657753,-6.087710696489432,0.6277142470479614,0.034365661535412075,3800.0,-0.015189380222000181,0.4097222222222222,0.5831245690584183,-0.9997015282511711,-11.81015705975806,570.0,0.0,0.3999438762664795,5.90680914642185,-11.930240717995122,-11.920288818600731,0.78,0.000242811526186415,0.9556273875991772,-1.97432113234172,12.197023089365981,-14.223563680049923,-14.334305816952694,-1.5271206413818603,-0.12435631416738033,-5.722775273762603,2047269.0,-0.772979236680112,3403.0,0.0837158203125,-11.644396481084094,0.0052734375,-0.9990214407444,-0.05274538276717067,0.5417436122894287,37,0.0,-6.017775702779778,1584.0,0.0
5.057562628047881,0.0011721834423951804,0.26666666666666666,0.716702476143837,-6.082041257643075,0.7371700291764162,0.0363272120244801,3900.0,-0.015144848171621561,0.3868665239114918,0.5883171364665032,-1.0001089692115783,-11.494382737173293,585.0,0.0,0.40522842928767205,5.917130988569122,-11.625265483513683,-11.561382175414753,0.79,0.00024827878223732114,0.2560646900269542,-2.0328336393922655,11.726533534263808,-15.884459841775053,-17.53492229936038,-1.8784727912044892,-0.1268521945923567,-5.775109813744782,2082753.0,-0.7677001446885697,371.0,0.0867431640625,-11.798836892472947,0.0040283203125,-0.9989988207817078,-0.052712144516408446,0.5504359185695649,38,0.0,-6.071161028637285,1401.0,0.0
5.449053971932431,0.0011143672920297832,0.5333333333333333,0.7228802561759948,-6.426594813747843,0.6667887124970552,0.036870591808110476,4000.0,-0.01565527506172657,0.3876967095851216,0.5937539473176002,-1.0003047570586205,-11.67442883526289,600.0,0.0,0.4093206122517586,6.2376286190069745,-11.781702194390226,-11.67315792126742,0.85,0.000247408638097113,0.9644691780821918,-1.9891386890263676,11.951599317187156,-14.973662809272943,-15.718958589576113,-2.823524242721543,-0.12889506258070468,-6.071272187807487,2116945.0,-0.7658516795752803,2336.0,0.0863037109375,-12.440169338903877,0.0045654296875,-0.9990024194121361,-0.05405304087325931,0.5582396268844605,39,0.0,-6.355443822933724,1398.0,0.0
5.461318455158063,0.0012005447613773867,0.26666666666666666,0.729782672226429,-5.745474906671289,0.7981828183762346,0.03671106761321426,4100.0,-0.016501497849822043,0.41967871485943775,0.6006804898381233,-1.0000129356980323,-11.02694575371964,615.0,0.0,0.4124838516116142,5.630679129428718,-11.125245712757149,-10.806853329336652,0.84,0.00023700506208115257,0.4146825396825397,-1.996737852136721,11.029159775115449,-14.329023919670853,-14.233846168385657,-2.666531499601721,-0.13140794150531293,-5.4289101409400455,2154607.0,-0.7657525758073461,504.0,0.096875,-11.81391318416063,0.0050048828125,-0.9990454688668251,-0.05511885201558471,0.5640079841017723,40,0.0,-5.699575773759275,1494.0,0.0
5.2391089231270245,0.0011915968905668705,0.2,0.7372043803334236,-5.882993304410906,0.6797659900021291,0.03716333080083132,4200.0,-0.016699954215437175,0.3866015352407537,0.6086956068873406,-1.0000432416796685,-10.594937584231136,630.0,0.0,0.41801107451319697,5.690391517831706,-10.673492306032085,-10.383320704540909,0.85,0.00024122156828525475,0.12846347607052896,-1.9445969898402837,10.665135133557095,-13.985340751200694,-15.770465897936983,-2.807320366707651,-0.13247220329940318,-5.520128212664772,2192724.0,-0.7639354708862811,397.0,0.1041259765625,-11.234939407814268,0.0048583984375,-0.999028018116951,-0.05688939094543457,0.5693912580609322,41,0.0,-5.816370365078606,1433.0,0.0
5.594062814057992,0.001237142094760202,0.4,0.7444231316447258,-6.177437953852142,0.6151200259125694,0.037635553441941735,4300.0,-0.016753713926300408,0.32644110275689225,0.610955061018467,-0.9998890072107315,-11.632299920111482,645.0,0.0,0.4235451139509678,6.011626660771633,-11.693274069695299,-11.632651401254241,0.7,0.0002624098953674547,0.84375,-1.9641690284399373,11.970373905678276,-15.149757988498331,-16.378729389236625,-2.1089570323330715,-0.13287407718598843,-5.845673272891381,2233682.0,-0.7655981279422122,1440.0,0.06943359375,-12.971358976470881,0.0048583984375,-0.9989403620362282,-0.05770976915955543,0.5753008872270584,42,0.0,-6.141192830246359,1596.0,0.0
5.2031494602102315,0.0011899495118996128,0.3333333333333333,0.7527206808328628,-6.32796102959017,0.6087176164985639,0.03795527769252658,4400.0,-0.017875218112021685,0.3685918234912395,0.6147820889949799,-1.0000488117337227,-11.017109282917676,660.0,0.0,0.4282965637743473,6.143790110908563,-11.113845701818558,-11.04015977639051,0.76,0.00026487204777367877,0.9668062200956937,-1.9768249472163006,11.303479319857491,-15.983597028796515,-14.578339937087458,-2.167134461837141,-0.1347810413688421,-5.983158439726467,2272461.0,-0.7660533451115044,3344.0,0.043212890625,-15.02405609316339,0.00458984375,-0.998930175602436,-0.05933205410838127,0.5773482903838157,43,0.0,-6.2801433648359675,1541.0,0.0
5.4287589142458526,0.0011991507490165532,0.5333333333333333,0.7613644629716874,-6.148247364420668,0.8956914839973493,0.0383532203733921,4500.0,-0.018218510318547487,0.45836200963523743,0.6230042964220047,-1.0000176474452018,-10.592469238256665,675.0,0.0,0.43288087025284766,6.0871385522103,-10.690782373803959,-10.58376252828318,0.81,0.00025697370729176327,0.8691950464396285,-1.9009931826669344,10.839228137513023,-14.085976002672266,-13.639741511354913,-1.642083776696956,-0.13726664707064629,-5.900530496019709,2306316.0,-0.7655488183940179,1292.0,0.0676025390625,-12.41950726865542,0.00478515625,-0.9989628523588181,-0.06189501089975238,0.5774250403046608,44,0.0,-6.152553293862903,1453.0,0.0
4.793166257080394,0.0011942759068915621,0.6666666666666666,0.7686349064111709,-6.212409438406548,0.6084222289675283,0.03867383487522602,4600.0,-0.01883543934673071,0.42405913978494625,0.6300584435462951,-1.0000341460108757,-10.858134282660592,690.0,0.0,0.43698742613196373,5.999134109654623,-10.940713290228246,-10.827279576717894,0.84,0.0002456356040056562,0.9643669446550417,-1.9231896929468348,11.065193564488608,-13.348073259905641,-15.16367267904541,-1.7353150195457583,-0.13893495351076127,-5.850420644176205,2341172.0,-0.7681240209520184,2638.0,0.0927001953125,-11.316080219475612,0.004638671875,-0.999009758234024,-0.06369816679507494,0.5769195944070816,45,0.0,-6.160661212881279,1488.0,0.0
4.857608192666817,0.0012265966652194038,0.0,0.7744622632861138,-4.069481576853001,0.9650178428124665,0.03856416251510382,4700.0,-0.018755380576476455,0.4102941176470588,0.6368610545992851,-0.9999247387051582,-10.957235440618428,705.0,0.0,0.440887488424778,3.955967099884495,-11.06430332773506,-11.090082964106424,0.85,0.00026368816761532796,0.04295942720763723,-1.9278132116924098,11.30870615576141,-13.470585261692314,-13.259588682894398,-1.8942579162439448,-0.1396002434194088,-3.829905344603567,2378056.0,-0.7722618448104186,419.0,0.09326171875,-10.871491348903547,0.0048583984375,-0.9989350780844688,-0.06547998394817114,0.5768608763813973,46,0.0,-4.1898761604763255,1360.0,0.0
5.1225576899213205,0.0012020037887850777,0.3333333333333333,0.7824440389871598,-5.672018879314875,0.9249879510038104,0.03907754132524133,4800.0,-0.01889023925177753,0.2737693863789616,0.6436036497354507,-1.000008001923561,-10.918730784236828,720.0,0.0,0.44766651913523675,5.625214193375766,-11.008656897244634,-10.904485123368229,0.78,0.00024886894316296094,0.9348,-1.9145405718532857,11.186458733173126,-13.706454377492216,-18.25826309720597,-2.681803078523188,-0.1405697673559189,-5.39651284102974,2418645.0,-0.7712334700689099,2500.0,0.11083984375,-9.356729634969364,0.004931640625,-0.9989963755011558,-0.06778031270951032,0.5797395497560501,47,0.0,-5.69754153313274,1483.0,0.0
5.325954634501481,0.0013258091930765659,0.3333333333333333,0.7905615925788879,-6.403092530235904,0.5481294298341395,0.03955674963071942,4900.0,-0.01954909786581993,0.4720882150241213,0.6492051482200623,-0.9995887517929077,-10.498448394827438,735.0,0.0,0.4582448609173298,6.204232075695016,-10.582062804440262,-10.424734408229673,0.78,0.000239072683325503,0.9904780797460822,-1.9068551983171347,10.690927132673995,-13.790403709525906,-12.035418254742769,-2.121595793533276,-0.14128878191113473,-6.031679102728158,2453592.0,-0.7698886210604542,5041.0,0.1018310546875,-12.585328516054716,0.0049072265625,-0.9990369021892548,-0.06888362690806389,0.5832563236355781,48,0.0,-6.367371227419329,1451.0,0.0
6.905736271994324,0.0012892284838017076,0.06666666666666667,0.7968262180685997,-4.782460747047521,0.5982905935327265,0.040151546616107224,5000.0,-0.01919873678125441,0.45515970515970516,0.6575909689068794,-0.9997126221656799,-11.979123532085257,750.0,0.0,0.47119939625263213,4.5409023989685195,-12.239679631721284,-12.423069073083848,0.75,0.00024007216052268632,0.29874776386404295,-1.9160048179859586,12.722185609941532,-13.412306880492645,-11.677440558135116,-0.5760821582954199,-0.13990506827831267,-4.454490393462672,2494043.0,-0.7725975482560898,559.0,0.0830810546875,-13.484544625678566,0.005517578125,-0.9990327745676041,-0.07004435565322638,0.5869214087724686,49,0.0,-4.974778913234806,1628.0,0.0
7.562005722310931,0.0012545498670078815,0.2,0.8010768800973892,-6.143475153411727,0.5795170330792628,0.04129541711881757,5100.0,-0.020205339649692178,0.24438502673796791,0.6638085246086121,-0.9998300686478615,-11.475295143249081,765.0,0.0,0.476480720937252,5.93433047670216,-11.555160052387823,-11.52983090869989,0.51,0.00024448445328744127,0.732488822652757,-1.9515566360150842,11.808927134773942,-13.509463214230948,-18.22606121149603,-1.424691558583647,-0.1441350683569908,-5.764124459106618,2546608.0,-0.7699562662324752,1342.0,0.077490234375,-8.645741195735217,0.0052978515625,-0.9990145146846772,-0.07102237530052662,0.5899348080158233,50,0.0,-6.085554052204259,1870.0,0.0
5.49568888020282,0.005250392912421376,0.2,0.8063060447573662,-6.468574291464096,0.6481704537885584,0.04081093594431877,5200.0,-0.019456373201683162,0.3929673041332511,0.6721509367227554,-0.9862991437315941,-10.529767743070002,780.0,0.0,0.48053073063492774,6.2658405206355505,-10.636631626710592,-10.378382283649207,0.71,0.00030423007483477705,0.9329829172141918,-1.897398764069294,10.520628391850016,-14.482885447520118,-14.193337308106404,-1.6267119343875776,-0.14333815947175027,-6.118054505919945,2586984.0,-0.7711395934711618,3044.0,0.1043212890625,-11.066133208260437,0.004443359375,-0.9987673670053482,-0.07086683083325625,0.5949229627847672,51,0.0,-6.41737459129895,1621.0,0.0
5.6372768731190614,0.0037389507342595607,0.4666666666666667,0.814097934961319,-5.058874561238542,0.92655512459514,0.04118100386112929,5300.0,-0.020170493889600037,0.38713826366559484,0.6797520816326141,-0.9914172708988189,-10.744701938833462,795.0,0.0,0.4839226804673672,5.029758142239871,-10.864593193157372,-10.588882118184745,0.74,0.0002904491819208488,0.7633495145631068,-1.8997769242650975,10.770128799271212,-13.52787726123025,-16.135210653039834,-2.54938328008846,-0.14395574741065503,-4.819700486596551,2623714.0,-0.7669424200586945,824.0,0.09501953125,-11.094042155126317,0.0058837890625,-0.9988243773579597,-0.07143883537501097,0.5998284921050072,52,0.0,-5.110819129177839,1555.0,0.0
6.144539196386029,0.0028521270491182805,0.06666666666666667,0.8194403558969497,-5.445166467823976,0.9747199940546792,0.04148616883903742,5400.0,-0.020736457128077746,0.29857022708158115,0.685571326315403,-0.9944202750921249,-10.307880403842212,810.0,0.0,0.48634817600250246,5.287892052867332,-10.407934509360924,-9.941156217362671,0.88,0.0002585565995104844,0.15584415584415584,-1.9576382724197174,10.101843765778284,-13.69139227253479,-16.12739717586942,-1.9507373733868951,-0.14481537267565728,-5.135829487126925,2659585.0,-0.7671401988565776,462.0,0.1055908203125,-10.361653392788504,0.006103515625,-0.9989563003182411,-0.07132556196302176,0.6047973051667214,53,0.0,-5.43977418041881,1189.0,0.0
6.443049075306922,0.0026821420702617615,0.6666666666666666,0.8238916471600533,-5.322103670746237,0.9248211470521168,0.04123662989586592,5500.0,-0.021916422760114074,0.31845436375749503,0.6915621072053909,-0.9949958816170692,-10.66657962565503,825.0,0.0,0.48924278244376185,5.175844334341487,-10.718455672920687,-10.358426289238784,0.82,0.00031881490249361375,0.33739837398373984,-1.930078316291474,10.505235231509062,-13.347221011789651,-15.730065537358403,-1.8893287859054007,-0.14686281830072404,-5.035392207788654,2696156.0,-0.769952634263609,246.0,0.0990234375,-10.571796558678747,0.0068603515625,-0.9987070232629776,-0.06990038473159074,0.609476637840271,54,0.0,-5.354126456363021,1501.0,0.0
5.714534113425392,0.002462516981177032,0.8,0.8324266210198402,-5.378825305229338,0.5989900637232307,0.0410990048199892,5600.0,-0.022433400619775057,0.35337726523887975,0.6986120745539666,-0.9957395881414414,-10.310763686242277,840.0,0.0,0.4906935505568981,5.158219410165548,-10.377149933065551,-9.96934034615518,0.82,0.0003173334469465772,0.9987677141096735,-1.9405364595870196,10.096681509419902,-13.873836532718895,-13.484090460343545,-2.6642223505759204,-0.14662875458598137,-4.969671956128234,2723114.0,-0.7782122231466928,1623.0,0.1094970703125,-10.102848934781614,0.0056396484375,-0.9987131461501122,-0.07025326620787382,0.6134094342589378,55,0.0,-5.3228761410816885,1214.0,0.0
5.949874624986002,0.002342755376594141,0.7333333333333333,0.8403579831123352,-0.006555951377483942,0.7212291647196803,0.04095860049128532,5700.0,-0.022766183223575355,0.36482758620689654,0.7039589166641236,-0.996145136654377,-10.540340858456783,855.0,0.0,0.49189442172646525,0.00513167222605126,-10.617498071120712,-10.212302723618297,0.77,0.0003234445997804869,0.2886178861788618,-1.99185244407563,10.267238443905237,-13.84123037138807,-7.920351429584253,-0.0010792833020587269,-0.14917225167155265,-0.0047608715093065135,2757143.0,-0.7769974066839496,246.0,0.10380859375,-9.586439126499931,0.0067626953125,-0.9986878708004951,-0.0703519394621253,0.6169060081243515,56,0.0,-0.7814815061386583,1450.0,0.0
5.858062747325035,0.0023473111621569844,0.8,0.84863401055336,-5.506718583341749,0.6192023310132052,0.04129583640024066,5800.0,-0.023034445894882082,0.21847606203641268,0.708184789121151,-0.996129709482193,-10.602856567155671,870.0,0.0,0.4941940873861313,5.279392468307447,-10.669679919312603,-10.28629897436214,0.79,0.0002949448829895118,0.685,-1.9975065468966933,10.395676698560948,-13.23424138316157,-12.321195529460907,-2.967000159991152,-0.14768123552203177,-5.122287989891744,2794209.0,-0.7753606219699577,200.0,0.100537109375,-4.876164729964329,0.007177734375,-0.998805770277977,-0.070897520147264,0.6190922111272812,57,0.0,-5.456791897611483,1483.0,0.0
10.111716707665812,0.0022837620694190265,0.13333333333333333,0.8581241816282272,-5.783283719465259,0.5633502578820597,0.041467773541808126,5900.0,-0.02218027519993484,0.3330970942593905,0.7108516380190849,-0.9963448971509934,-9.964720373360539,885.0,0.0,0.496859323233366,5.556723546773204,-10.121134156029482,-9.576787273968222,0.76,0.00035353142047824806,0.9663082437275986,-2.089369426994017,9.665355499397425,-14.756240329956901,-22.44187456327323,-1.3949878570824388,-0.14886271879076957,-5.379914081753261,2834748.0,-0.7756662415689789,5580.0,0.0799072265625,-11.681675127976966,0.0070556640625,-0.9985634163022041,-0.07313387654721737,0.6243862539529801,58,0.0,-5.727224115077651,1411.0,0.0
6.468836118969352,0.0023346432979451494,0.4666666666666667,0.867315636575222,-5.725447692375105,0.705429796979934,0.041471301857382056,6000.0,-0.022012968175113203,0.42461122379986477,0.7157440826296806,-0.996172608435154,-10.498114990807215,900.0,0.0,0.49810746908187864,5.515874516967277,-10.547214354838262,-10.13281247896999,0.85,0.0002887767088395776,0.4148936170212766,-2.0063612650192226,10.200786693547201,-15.512761195562028,-8.827903228822787,-1.6635948245344545,-0.15156158357858657,-5.346570577524988,2870021.0,-0.778498104776736,376.0,0.1223876953125,-9.670875397678309,0.005859375,-0.9988312855362892,-0.074395602196455,0.6287413835525513,59,0.0,-5.692995894092226,1479.0,0.0
6.474385695231166,0.002481821773108095,0.6,0.8763979390263558,-5.393101189168119,0.624254391838212,0.041332703456282614,6100.0,-0.021396310813724995,0.3407665505226481,0.7189935490489006,-0.9956742182374001,-10.119876201592772,915.0,0.0,0.49967521131038667,5.160508870378857,-10.224023281653974,-9.781988453485171,0.82,0.0002820348436216591,0.93905977945444,-1.9824146478211333,9.89502446287778,-12.246940416564755,-17.41944906602038,-1.4413206332598125,-0.1519896760582924,-4.986117158640494,2905333.0,-0.7800065421874024,1723.0,0.113671875,-8.789432305841663,0.0064208984375,-0.9988591820001602,-0.07489182204008102,0.6325090125203132,60,0.0,-5.327761131071843,1435.0,0.0
6.688202320055801,0.002390004083281383,0.9333333333333333,0.8853777304291726,-5.503412848910258,0.6775915715266695,0.04150308696553111,6200.0,-0.021416244842112065,0.42042755344418054,0.7240901634097099,-0.995985135436058,-10.3404911469301,930.0,0.0,0.5025519460439682,5.279244900776424,-10.419636852743842,-10.008019591170866,0.85,0.000273362086591078,0.9577836411609498,-2.0073764107764873,10.151371991136395,-14.220480330484301,-7.182347425609111,-2.5257091406499943,-0.15534268990159034,-5.101162624777385,2931772.0,-0.7785506679698301,758.0,0.0908935546875,-10.225997854198088,0.00654296875,-0.9988950490951538,-0.0738246701657772,0.6355878829956054,61,0.0,-5.41822742717345,1263.0,0.0
6.325445106998698,0.002339929871959612,0.8,0.8910916030406952,-5.633854890872692,0.5620187476766861,0.0416755267418921,6300.0,-0.02142638126388192,0.40638481449525454,0.7293082252144814,-0.9961547091603279,-10.097799679453312,945.0,0.0,0.5067470759153366,5.40167250890932,-10.200496858835084,-9.826294147677249,0.9,0.0002998174422828015,0.9690949227373068,-1.9660552772889788,10.012426944638984,-13.244370327707129,-15.162569487125696,-3.0363655164867516,-0.15505843050777912,-5.206032270295596,2958705.0,-0.7849503093788371,1359.0,0.0937744140625,-9.586132260627565,0.0064208984375,-0.9987856179475785,-0.07368262335658074,0.6386370316147805,62,0.0,-5.579036032894431,1159.0,0.0
7.002459008565111,0.002286139302304946,0.26666666666666666,0.8981198370456696,-2.4924312947410137,0.5234098204618108,0.041938351653516295,6400.0,-0.020863907039165498,0.3924466338259442,0.732491397857666,-0.996336854994297,-9.683168513963853,960.0,0.0,0.5083899915218353,2.299973883218408,-9.813856413230479,-9.334857688340692,0.86,0.0002911387593485415,0.06358381502890173,-1.9353024731815822,9.504354623663088,-13.979883839271865,-12.442006424871405,-0.6900507021137516,-0.15760305300354957,-2.2059353043166334,2991572.0,-0.7837874099634063,346.0,0.10859375,-10.298500863653596,0.007421875,-0.998821522295475,-0.07475297171622515,0.6420915961265564,63,0.0,-2.8425880275426336,1218.0,0.0
7.3774967363079185,0.0023238099296577276,0.4,0.9065204605460166,-5.3328246297267246,0.627884824872776,0.04185009840875864,6500.0,-0.02073685168288648,0.2614329268292683,0.7348604261875152,-0.9962092757225036,-9.648236796572625,975.0,0.0,0.51076238155365,5.092148154112008,-9.74128387531545,-9.213145432862575,0.84,0.0002638823640154442,0.16938110749185667,-2.0220625747359007,9.36619900295669,-13.699017037054965,-10.212325388495323,-1.6483277634406792,-0.16084079444408417,-4.945348266952802,3027763.0,-0.7859762436855817,307.0,0.1142333984375,-6.848637787275825,0.0064697265625,-0.9989342793822289,-0.07633473426103592,0.6454887792468071,64,0.0,-5.3272685404486255,1312.0,0.0
6.845222363477944,0.0024173903337214144,0.4,0.9147541895508766,-5.465301125280252,0.5882767710296426,0.042111946176737546,6600.0,-0.020170259941369294,0.36435218324982105,0.7384439632296562,-0.9958923950791359,-9.816412081356225,990.0,0.0,0.5135220199823379,5.23586443972804,-9.901353583441173,-9.329926475576615,0.86,0.0002736065191129455,0.8692528735632183,-2.004844681708346,9.483896314906207,-13.26657390187093,-14.469307349823104,-1.8341298905516967,-0.16175698414444922,-5.047536576069922,3062317.0,-0.7904339600496314,1392.0,0.121923828125,-8.411957143132616,0.006689453125,-0.9988940462470055,-0.0774678548797965,0.6502748250961303,65,0.0,-5.431332229778684,1397.0,0.0
6.665568851502764,0.0021814890031237157,0.6666666666666666,0.9203033000230789,-5.434735114920379,0.5937524997859558,0.04238850250840187,6700.0,-0.018838540045544507,0.33885017421602787,0.7418138042092324,-0.9966912269592285,-9.855644833818932,1005.0,0.0,0.5158480405807495,5.222031008144532,-9.914971174563519,-9.409554724258507,0.87,0.00026056384267576506,0.9784552845528456,-1.9851408228609215,9.538942064635865,-13.455563569819054,-14.945060988824908,-1.6935157364836033,-0.16439754739403725,-5.028539133627156,3090510.0,-0.7916925662484573,2460.0,0.1094482421875,-9.400197190755689,0.0064453125,-0.9989479973912239,-0.07853490021079779,0.6541072085499764,66,0.0,-5.40480329844754,1148.0,0.0
6.765602185267822,0.002351683931192383,0.7333333333333333,0.9261254608631134,-5.537511027594168,0.6693748351745148,0.0420430094935,6800.0,-0.018875580839812757,0.37436762225969644,0.7449732646346092,-0.9961148992180824,-9.624632235429749,1020.0,0.0,0.5162839189171791,5.284202362319661,-9.69872479785007,-9.20222298069508,0.83,0.00024950499209808186,0.6892230576441103,-1.9869376597765949,9.301782044233105,-12.0820907450887,-14.540952042347486,-1.9127155528496298,-0.16545626074075698,-5.140756145986782,3118726.0,-0.7930772945055651,399.0,0.13671875,-9.351742119064337,0.0071533203125,-0.998993743956089,-0.07998278327286243,0.6561610519886016,67,0.0,-5.48872900489647,1186.0,0.0
6.934085197016216,0.002301088083186187,0.4666666666666667,0.9320348918437957,-5.3590315592607585,0.600361795382185,0.04198732916265726,6900.0,-0.02009982205927372,0.32003257328990226,0.748395812511444,-0.9962862253189086,-9.792297176866986,1035.0,0.0,0.5171534821391106,5.137713477504349,-9.872995893099114,-9.379925278669603,0.82,0.0002653713872859953,0.9653437674678591,-1.9200920636994852,9.440710384104317,-13.59409111752761,-8.351360491671363,-3.00253828671063,-0.16611482836306096,-4.947645025511608,3150823.0,-0.7943975552512711,1789.0,0.1040283203125,-8.380172676641124,0.0069091796875,-0.9989281088113785,-0.08084774278104305,0.6574891924858093,68,0.0,-5.323797005526473,1228.0,0.0
7.105414304333832,0.00245733130723238,0.6666666666666666,0.9398848116397858,-5.080460825479607,0.6000013493743885,0.04186066761612892,7000.0,-0.01944947652518749,0.35240963855421686,0.7515390619635582,-0.9957571387290954,-9.645274482575568,1050.0,0.0,0.517751170694828,4.842844632682014,-9.72795589776582,-9.24768137700386,0.82,0.0002677267555554863,0.9233419465977606,-1.926679765148947,9.38485116906991,-13.411802635450027,-12.693510642949946,-2.7120368066011364,-0.16537593267858028,-4.652924234144507,3182917.0,-0.7980755392010905,1161.0,0.1177978515625,-8.694566721505756,0.007080078125,-0.9989183634519577,-0.08144588004797697,0.659318819642067,69,0.0,-5.039521249957292,1328.0,0.0
6.396085402448378,0.0025695650023408235,0.7333333333333333,0.9471303671598434,-5.078636270828204,0.6792397038397351,0.041846856102347375,7100.0,-0.019274430768564343,0.364347146207975,0.7557047352194786,-0.995377105474472,-9.946970652151919,1065.0,0.0,0.5182245299220085,4.885164515988355,-10.013907407881513,-9.561114112983198,0.81,0.00033942629452212716,0.8454011741682974,-1.964597449313078,9.61447812201757,-13.033970400830599,-13.650955671481228,-2.931792121003971,-0.16689232997596265,-4.685210445241573,3213116.0,-0.7998507513115328,511.0,0.1318603515625,-8.321606910803608,0.0062744140625,-0.9986217573285103,-0.08192838225513696,0.6615182995796204,70,0.0,-5.065035984988993,1279.0,0.0
6.617102894247203,0.002518426306778565,0.8666666666666667,0.9525483384728431,-5.685007993896131,0.6495044463498358,0.041566638927906754,7200.0,-0.019394650077447294,0.35824175824175825,0.7601502105593682,-0.9955502718687057,-9.517892940805945,1080.0,0.0,0.5181036785244941,5.467997785439978,-9.58486094653885,-8.983331825809367,0.8,0.0003567771116649965,0.9872021182700794,-1.9835006039444125,9.077915640181175,-13.48616794105848,-13.571767503979602,-2.557827783392727,-0.16818924844264985,-5.267100031978141,3244648.0,-0.8013708926897379,2266.0,0.0860107421875,-10.308736962907773,0.00634765625,-0.9985499769449234,-0.08288797698915004,0.6651190504431724,71,0.0,-5.6297837329118625,1365.0,0.0
6.048877766153079,0.0023527391662355513,0.8666666666666667,0.9595978111028671,-4.847103601780054,0.6050438079131469,0.041409154608845714,7300.0,-0.019602103810757398,0.41624365482233505,0.7639351829886436,-0.9961113288998604,-9.374703631681566,1095.0,0.0,0.5183920934796333,4.5653253728291565,-9.452503659724268,-8.86926643383325,0.92,0.0003647934070613701,0.9858287122612446,-1.9220624990870419,8.941639632710373,-12.989424216023133,-12.19173434984668,-2.798472084116674,-0.16857010796666144,-4.396354638304765,3270831.0,-0.8032852095580892,1623.0,0.118408203125,-9.27653238965648,0.006640625,-0.9985168159008027,-0.08349427152425051,0.66956367790699,72,0.0,-4.796046520096544,1182.0,0.0
6.191064423637378,0.0024346965132281185,0.8666666666666667,0.9677911475300789,-4.811059900816952,0.5791280560086596,0.04161445712670684,7400.0,-0.018840588722378017,0.4940639269406393,0.76548852622509,-0.9958337977528572,-9.407525304897018,1110.0,0.0,0.5187052264809608,4.504286210773237,-9.48150265588531,-8.871944914078936,0.88,0.0004104756779270247,0.9848771266540642,-1.9135519553194171,8.969887182302001,-12.137997697823133,-17.94061419564752,-2.7886253477195955,-0.1686368476599455,-4.356256910462508,3292158.0,-0.8043915284244576,529.0,0.0718505859375,-7.808484309179473,0.0063720703125,-0.9983278378844261,-0.0840296832844615,0.6746781781315804,73,0.0,-4.766469205779579,1095.0,0.0
6.310124805899731,0.002416951220948249,0.7333333333333333,0.9779208436608314,-5.571404791018957,0.7466392299222865,0.04110852815210819,7500.0,-0.01916300258599222,0.5417348608837971,0.7675531283020973,-0.9958938911557198,-9.475725372805707,1125.0,0.0,0.5198086842894554,5.3809857925051245,-9.53283983643791,-8.926602475588558,0.89,0.0004091851064004004,0.9945872801082544,-1.9086963715450112,9.048040726694632,-12.30154530167431,-12.072585319275724,-3.039752232550499,-0.16975537315011024,-5.152503090575071,3315389.0,-0.8047773847796634,2217.0,0.0882568359375,-8.120462905509488,0.006689453125,-0.998333178460598,-0.08469096776098013,0.6798987478017807,74,0.0,-5.5061933460185255,1222.0,0.0
5.945426437856932,0.002492937655188143,0.8,0.9883803442120552,-5.407199142911638,0.626188321524907,0.040368118323385715,7600.0,-0.020602780999615787,0.4751131221719457,0.7711487874388695,-0.9956365808844566,-9.009294481595973,1140.0,0.0,0.5197604462504387,5.156079957034481,-9.075860964954654,-8.425008864396798,0.98,0.00039157626633823384,0.9977024698449167,-1.8674150040609674,8.539294474084093,-11.530293314190635,-13.81924893526208,-2.1437473336411,-0.17152556106448175,-4.956214517735285,3333565.0,-0.801444765927954,1741.0,0.061669921875,-10.269798842404875,0.0070068359375,-0.9984060198068618,-0.0845404777675867,0.684221975505352,75,0.0,-5.326959166225414,884.0,0.0
5.601658853445062,0.002315539336996153,0.6666666666666666,0.9977733716368675,-5.4418284199082025,0.7384750579710906,0.04020831175148487,7700.0,-0.020506622083485127,0.519051651143099,0.7741927027702331,-0.9962372958660126,-8.601396748375072,1155.0,0.0,0.5199186965823174,5.2713686977053005,-8.699747858353266,-8.115726791622967,0.88,0.0003278771782788681,0.9905073649754501,-1.8239311487570375,8.204652278828442,-11.698392436571071,-12.81060329656745,-3.303190415797455,-0.17299638800323008,-5.021299992023074,3358146.0,-0.8017486820215709,3055.0,0.1104736328125,-9.234117392003135,0.0064453125,-0.9986695200204849,-0.08486647997051477,0.6898497879505158,76,0.0,-5.38942407941378,1181.0,0.0
6.072222730091886,0.0023049052542774007,0.5333333333333333,1.0091891705989837,-5.591614351765218,0.5966252705990263,0.04002275504171848,7800.0,-0.02077183243818581,0.49815157116451014,0.7764267668128013,-0.9962733045220376,-8.828555550380148,1170.0,0.0,0.5217140898108482,5.383990744339561,-8.864564160226497,-8.270822606860097,0.87,0.00033938156157091725,0.9883720930232558,-1.8235556293402624,8.363770613443336,-12.238798699122784,-13.914157503232103,-3.3253163087943634,-0.17384360991418363,-5.156244548711766,3383131.0,-0.7982577800536091,3354.0,0.1162841796875,-10.299702439052869,0.007568359375,-0.998621940612793,-0.08659053146839142,0.694793501496315,77,0.0,-5.542080178586998,1082.0,0.0
6.628199450503549,0.0022461178625235332,0.7333333333333333,1.01988143324852,-5.417755558842719,0.5687700642764576,0.03994648540392518,7900.0,-0.01948160198517144,0.4855156431054461,0.7799478903412819,-0.9964723512530327,-8.589880085928048,1185.0,0.0,0.5232443511486053,5.1550800402367996,-8.649149876436862,-8.034811671796996,0.96,0.0003795286833337741,0.9986518368722616,-1.816812183039292,8.139536584700176,-11.327643424966453,-13.46214650813465,-1.7796553679101972,-0.17531645372509957,-4.960288348837383,3402901.0,-0.7995895502070198,2967.0,0.09873046875,-9.952943558425915,0.006201171875,-0.9984558716416359,-0.08792658429592848,0.7008135125041008,78,0.0,-5.363019720656974,863.0,0.0
6.003136127436056,0.002285412183846347,0.7333333333333333,1.0278704732656478,-5.2163719645801505,0.5493485434080113,0.0399567567743361,8000.0,-0.019370165746659042,0.5204081632653061,0.782162094116211,-0.9963393107056617,-8.31502378638207,1200.0,0.0,0.5240506872534751,4.978438260466942,-8.38702141270699,-7.730646117719037,0.9,0.00034338359473622403,0.980859375,-1.8206241333788058,7.8161099797876235,-11.63054976223002,-10.70486649641968,-2.379927839083444,-0.1752740353345871,-4.7801964192618485,3425087.0,-0.8001030062430801,2560.0,0.129541015625,-10.025173523814328,0.00673828125,-0.9986053794622421,-0.08795680478215218,0.7049051627516747,79,0.0,-5.202211534952771,1078.0,0.0
6.386385811832905,0.00242832395597361,0.7333333333333333,1.0353396385908127,-5.5104266576031184,0.47654576372563506,0.0397393018938601,8100.0,-0.019377269921824335,0.533,0.7845832154154777,-0.9958553805947303,-8.375945691330628,1215.0,0.0,0.5228640168905259,5.2240616878182,-8.456681881408688,-7.767443956441113,0.91,0.00032767162301752253,0.9626802374893978,-1.8036574465517332,7.8676343438733,-10.546859129020262,-14.8827886363415,-1.2092025537726194,-0.17704259641468525,-5.021829404315582,3444630.0,-0.8005587087634922,1179.0,0.1177734375,-9.740511439743909,0.00703125,-0.9986703857779503,-0.0889923058450222,0.7084365025162697,80,0.0,-5.456505603148651,1000.0,0.0
6.186994510782621,0.0022825902327895165,0.8666666666666667,1.042788740992546,-5.722994464821461,0.4238692617754737,0.03977211462333798,8200.0,-0.02055425550788641,0.45691382765531063,0.7871042206883431,-0.9963488712906837,-8.541698383545357,1230.0,0.0,0.5232714757323265,5.4353503884994865,-8.60884777703366,-7.999121818171451,0.94,0.0003421142198931193,0.9750566893424036,-1.7602566499339445,8.124882980456714,-11.437504741289862,-10.099084532201664,-1.7606287528946258,-0.178553307056427,-5.237252141818084,3464873.0,-0.8003423561454838,1323.0,0.125732421875,-10.446209245871636,0.0062255859375,-0.9986106485128403,-0.08991114310920238,0.711875070631504,81,0.0,-5.6849956321883415,998.0,0.0
6.155367683920087,0.0024387485987972467,0.7333333333333333,1.049007034301758,-5.987715274748218,0.47699257996424727,0.03996099960058928,8300.0,-0.02185098910704255,0.4952681388012618,0.7898534268140793,-0.9958200693130493,-8.013453034128464,1245.0,0.0,0.5267195835709572,5.737204845312295,-8.064670048795188,-7.443746175110869,0.91,0.0004036954494949896,0.9626972740315638,-1.7348192766014108,7.534033396703376,-10.695010180530643,-13.015973207734357,-1.4106175591949088,-0.1806602541357279,-5.536442613333188,3484545.0,-0.7985940973965626,1394.0,0.1080810546875,-10.913754569242299,0.00673828125,-0.9983558923006057,-0.09165735952556134,0.7147137999534607,82,0.0,-5.964720143200784,951.0,0.0
6.10543913218794,0.0024140631780028344,0.8666666666666667,1.0557447224855423,-6.211545827771132,0.40675764307849854,0.04036850668489933,8400.0,-0.022419673390686512,0.49042553191489363,0.7908272981643677,-0.995903666317463,-7.601649155068145,1260.0,0.0,0.5307768106460571,5.955730442306189,-7.67937932134352,-7.0225520891369015,0.95,0.00038237619010033085,0.5594405594405595,-1.7198255268838694,7.117725464595681,-10.442742404059507,-11.621425286202662,-1.52408497970818,-0.18056718483567238,-5.750907151532563,3502661.0,-0.7976090660893533,143.0,0.11787109375,-12.056145435295658,0.0071533203125,-0.9984440922737121,-0.09243008624762297,0.7189217254519462,83,0.0,-6.2057850345966505,940.0,0.0
5.708236076111028,0.002419501804979518,0.4666666666666667,1.0629392504692077,-6.1251884070991895,0.6137148416693574,0.03972470751032233,8500.0,-0.02190289497375488,0.4104627766599598,0.7946837678551674,-0.9958852425217628,-6.9962580912057835,1275.0,0.0,0.5317819505929947,5.941767886943811,-7.055143683070725,-6.3470705278276025,0.91,0.00035088129916402975,0.558,-1.6978299548292852,6.480389828273755,-11.180680869018458,-10.529475834106082,-1.165754912135196,-0.18275701031088828,-5.744115444821851,3527968.0,-0.7997839726129314,500.0,0.1009765625,-12.219358929341043,0.0071533203125,-0.9985743746161461,-0.09308120962232351,0.7211993232369422,84,0.0,-6.129733201907432,994.0,0.0
6.283622167996083,0.002386633935384452,0.7333333333333333,1.0713229954242707,-6.409323991899873,0.4721923579179945,0.040243557188659906,8600.0,-0.02178430394269526,0.3631123919308357,0.7964397370815277,-0.9959965407848358,-6.84835299395651,1290.0,0.0,0.5321351066231728,6.183669848221973,-6.892160656582561,-6.15413683369195,0.89,0.00038636098688584755,0.9384615384615385,-1.6870728672045516,6.336417891000235,-11.092432667631364,-10.142584851246252,-1.8034502203569922,-0.18624103516340257,-5.984299125577353,3552674.0,-0.7987951303250156,1430.0,0.1140380859375,-11.942404362530704,0.0068603515625,-0.9984275981783867,-0.09656840227544308,0.7222728580236435,85,0.0,-6.412077363032869,1041.0,0.0
6.447781322294283,0.002491259574890137,0.4666666666666667,1.0803025126457215,-6.226146829618396,0.6729070022018315,0.04015188906341791,8700.0,-0.02193395756185055,0.40076923076923077,0.7993147388100624,-0.9956422656774521,-6.935463684745642,1305.0,0.0,0.5331571370363235,6.012289188425443,-6.958145812197936,-6.185300145992361,0.83,0.00038005322603567037,0.687964338781575,-1.7488190128253336,6.346064413349952,-11.474703341477838,-12.400560799809341,-1.9438219662375156,-0.18725451305508614,-5.814641086724912,3584889.0,-0.8010172302234423,673.0,0.118798828125,-10.094661200611597,0.006103515625,-0.9984536916017532,-0.09792583137750625,0.7241913080215454,86,0.0,-6.183594882083048,1300.0,0.0
6.48910800360643,0.0024833343049976975,0.5333333333333333,1.0878252238035202,-6.12104142256648,0.5976822658863814,0.040509123262017964,8800.0,-0.022659373097121717,0.3661753297129558,0.8004193797707557,-0.995669101178646,-7.48539015256385,1320.0,0.0,0.5371635496616364,5.903988901932051,-7.5912437036183125,-6.9182883285531265,0.81,0.00036042004758201073,0.9535495179666958,-1.7700659558817278,7.0946008122032,-11.352932694774951,-11.699033754461034,-1.9847569683388773,-0.18740070536732673,-5.699348250275897,3617339.0,-0.8003417344512854,2282.0,0.0914794921875,-9.673219248732556,0.0064697265625,-0.9985348999500274,-0.09915778562426567,0.7257091477513313,87,0.0,-6.0758636702023665,1289.0,0.0
6.243518872759702,0.0024806153436657042,0.5333333333333333,1.0943724364042282,-6.391017622649128,0.5385579620743226,0.040746455918997525,8900.0,-0.022813007654622196,0.4383346425765907,0.8024371281266213,-0.9956783175468444,-7.710249143320508,1335.0,0.0,0.5411442190408706,6.1811984594709415,-7.800254360071395,-7.212342995754705,0.84,0.0003455125777691137,0.991304347826087,-1.7749205529340544,7.2834977103272935,-12.22606463963318,-7.524739969884976,-2.5997087222600395,-0.18930093497037886,-5.9767820650681935,3647796.0,-0.8018036852987279,3105.0,0.1117431640625,-11.670231941850421,0.0068359375,-0.9985965773463249,-0.09932378195226192,0.72667136490345,88,0.0,-6.364818859866397,1273.0,0.0
6.020910131517849,0.0024474871170241386,0.4,1.1009519010782243,-6.0798788818266605,0.5250189417054191,0.040787698794156314,9000.0,-0.022737226355820893,0.46175908221797324,0.8071986645460129,-0.9957904860377311,-7.694232323100303,1350.0,0.0,0.5441136553883552,5.910733209337951,-7.774265292036222,-7.147196821182186,0.89,0.0003530642225086922,0.523109243697479,-1.7614720360968932,7.1861308036250335,-11.280697552093573,-12.70705455508316,-1.706292254343788,-0.1894501894712448,-5.660641602870196,3673691.0,-0.8077284925191635,476.0,0.1149658203125,-12.315695081372231,0.0061767578125,-0.9985653400421143,-0.09948613904416562,0.7288587346673012,89,0.0,-6.124288564483887,1046.0,0.0
6.248770446990122,0.002508733532158658,0.6666666666666666,1.1077483683824538,-6.135016915557585,0.581518456706833,0.04209628468379378,9100.0,-0.022438061237335206,0.4374508261211644,0.8074006363749504,-0.9955830916762352,-7.935517701063171,1365.0,0.0,0.5492499753832817,5.90709645360576,-8.010942545021729,-7.374809747421262,0.82,0.0002982904843520373,0.9450301204819277,-1.7870915728373802,7.462675942496654,-11.40571915042079,-12.93025937620356,-1.489771446668713,-0.19106550551950932,-5.741732620332196,3701927.0,-0.8041047206304939,1328.0,0.149365234375,-10.896665079152177,0.0073974609375,-0.9987919256091118,-0.10075713731348515,0.729861019551754,90,0.0,-6.1432286294232785,1271.0,0.0
6.577725490959557,0.002374925569165498,0.6,1.1157934278249741,-5.349496818057872,0.5592277688522012,0.042315016593784095,9200.0,-0.02334125298075378,0.4755700325732899,0.8085218712687492,-0.996036197245121,-7.863681060121148,1380.0,0.0,0.550990255177021,5.069206201775554,-7.9563242945812025,-7.379217036625278,0.98,0.0002965712028526468,0.9932287954383464,-1.7729409326675523,7.467620187421296,-10.697531579547036,-13.19010123841661,-2.4193830369801006,-0.1913906455039978,-4.883047542432733,3723778.0,-0.8042712936021417,2806.0,0.148876953125,-10.994925095164463,0.0076904296875,-0.9987990543246269,-0.10149799883365632,0.730764465034008,91,0.0,-5.2768168896770735,921.0,0.0
6.191259172673083,0.0024891725333873183,0.4,1.1236366778612137,-5.763308833514082,0.6619756492366141,0.042343545611947773,9300.0,-0.024324309080839157,0.43453815261044176,0.8089932516217232,-0.9956493332982064,-8.265194256536486,1395.0,0.0,0.5517319768667222,5.5424728423887135,-8.326484821937015,-7.732762548099524,0.83,0.0003111126061412506,0.9733727810650887,-1.8109118430442321,7.775607822341823,-12.627207015275026,-9.20512795317648,-1.816033039952537,-0.1884729377925396,-5.373056659387186,3754432.0,-0.8068929735218262,3380.0,0.1160400390625,-9.28463713720964,0.0067138671875,-0.998738880455494,-0.10215211194008589,0.7318960130214691,92,0.0,-5.740950541663738,1245.0,0.0
6.605379692721593,0.0025544324598740786,0.5333333333333333,1.1311660021543504,-5.975135016561035,0.619626030027856,0.04231002796441317,9400.0,-0.024567871214821936,0.3488372093023256,0.8097191646695137,-0.9954283356666564,-8.44321455455422,1410.0,0.0,0.5537266343832016,5.754527009178717,-8.508992587913983,-7.87662689081251,0.59,0.00026729864184744657,0.9771573604060914,-1.8575301813420082,7.953027750301443,-12.260375468023991,-10.374220419874058,-1.603731156789354,-0.1900067612528801,-5.561815019417255,3796865.0,-0.8066636283529078,4334.0,0.149365234375,-8.584443771515016,0.00703125,-0.9989201322197914,-0.10346228871494531,0.7344709023833275,93,0.0,-5.938319118069472,1677.0,0.0
6.219093028612302,0.0023536673630587756,0.6666666666666666,1.1396773248910903,-6.299312759202914,0.661449907871093,0.04246372813358903,9500.0,-0.023889201087877156,0.5154639175257731,0.8100240483880043,-0.9961081847548485,-8.87806032485777,1425.0,0.0,0.5567616760730744,6.083574787979272,-8.95944294051015,-8.349274525264274,0.86,0.000312089381259284,0.9178470254957507,-1.8459997014782856,8.408307468905692,-11.382945854788144,-4.721719130303823,-2.090959332738591,-0.1896543476730585,-5.890966900927827,3822524.0,-0.8092906446760025,1059.0,0.1124267578125,-12.061647543715496,0.006787109375,-0.9987348407506943,-0.10428359974175691,0.7375819861888886,94,0.0,-6.2428507737259435,1261.0,0.0
5.897224008550651,0.002417725225677714,0.8666666666666667,1.1470724642276764,-6.339762905167043,0.6434136021011599,0.041809506993740794,9600.0,-0.02329765143804252,0.43908045977011495,0.8115706264972686,-0.9958912655711174,-9.081583376955852,1440.0,0.0,0.5589060589671135,6.126964924042897,-9.211834482726362,-8.58841162285018,0.88,0.0002819663739501266,0.9986702127659575,-1.8243024058923765,8.683054095563403,-11.58268050464892,-8.129886317100118,-2.575105123163919,-0.19030915312469004,-5.91159969532079,3850325.0,-0.8138994352782902,1504.0,0.1710693359375,-10.55197339706655,0.0066650390625,-0.9988594606518746,-0.10547227896749974,0.7409891977906227,95,0.0,-6.276239165575075,1305.0,0.0
6.514002526478981,0.0022289650747552513,0.8666666666666667,1.1541589111089707,-5.957378266714842,0.5806454038871388,0.04198131719604135,9700.0,-0.02349961157888174,0.49230769230769234,0.8108185648918151,-0.9965304523706436,-8.994325122275505,1455.0,0.0,0.5613751992583275,5.745564317588794,-9.07471801101508,-8.414245026899742,0.93,0.00025723372054926586,0.967391304347826,-1.8579705035263032,8.52440161268782,-10.98025797795524,-8.035496077813685,-2.9009340348412325,-0.19121756553649902,-5.543428448758496,3873556.0,-0.8133024556522287,828.0,0.126318359375,-11.575937395379542,0.0068603515625,-0.998961764574051,-0.10662712175399065,0.7417020946741104,96,0.0,-5.940032746152386,1170.0,0.0
6.096155540697961,0.0021709891472710295,0.5333333333333333,1.1612308830022813,-5.909682956363399,0.636552046353954,0.041780295129865405,9800.0,-0.023339101020246743,0.5205205205205206,0.8101096242666245,-0.9967267736792564,-8.844277352368685,1470.0,0.0,0.5664319887757301,5.67054015137605,-8.97176572404295,-8.356182511326315,0.94,0.00028900428042106797,0.9851272015655578,-1.77640947673317,8.49944795134057,-10.356630959915183,-9.254630845500442,-2.8660988331454584,-0.19153226725757122,-5.501153156449895,3896735.0,-0.8107793636660062,2555.0,0.1475341796875,-10.18793553522049,0.0065673828125,-0.9988303348422051,-0.10670171603560448,0.7438221141695976,97,0.0,-5.867919111747466,999.0,0.0
6.079040877812579,0.0021194598346482964,0.6666666666666666,1.1683501034975052,-6.0589383172095905,0.6960605067269103,0.04148280508816242,9900.0,-0.023643197119235994,0.5338491295938105,0.8108549758791923,-0.9969012618064881,-8.459011613915674,1485.0,0.0,0.5699472203850746,5.859038772125875,-8.562765001305351,-7.92854181023244,0.88,0.0002845389928552322,0.9953637660485022,-1.7760136467830308,8.070582256327594,-11.263520296204812,-12.911394609603647,-2.1786813337038566,-0.1919407110661268,-5.650416704668323,3918184.0,-0.8139883274146996,2804.0,0.1410400390625,-10.509919481582545,0.0072265625,-0.9988488212227822,-0.10714121703058481,0.7472069188952446,98,0.0,-5.989404239089135,1034.0,0.0
5.181094965054404,0.0021141380682820456,0.5333333333333333,1.1756121158599853,-5.981309428432622,0.6753424235904955,0.04126668982207775,10000.0,-0.023523496789857747,0.482,0.8135495111346245,-0.9969192773103714,-8.429939760982384,1500.0,0.0,0.5733862817287445,5.7401458942800385,-8.54827509899879,-7.953278433155505,0.93,0.0002437620594719192,0.99502050380785,-1.7493579957379553,8.110673719581447,-10.557047694377637,-11.166558595975262,-1.931823513197037,-0.19259139560163022,-5.570039332108005,3941192.0,-0.8121445133238012,3414.0,0.172021484375,-10.853572243089191,0.006787109375,-0.9990174993872643,-0.10860016252845525,0.7500682815909385,99,0.0,-5.922670523085804,1000.0,0.0
7.294755348702722,0.002093647274887189,0.9333333333333333,1.1821865737438202,-6.107830048047727,0.5636371272153546,0.041052155941724774,10100.0,-0.02363509386777878,0.5166358595194085,0.8149696111679077,-0.9969886794686318,-8.624528740090685,1515.0,0.0,0.5762725055217743,5.865062787646947,-8.720456791837073,-8.175149378704376,0.85,0.00024219441729655955,0.970722781335773,-1.740934179456599,8.407353426320658,-11.150350374112382,-6.038570159045085,-2.285341463535398,-0.1919931948184967,-5.667313927245621,3962125.0,-0.8112306072260254,1093.0,0.146923828125,-9.443380184136968,0.006787109375,-0.9990239888429642,-0.10998735502362252,0.7510610714554786,100,0.0,-6.061670188741802,1082.0,0.0
7.25117597655719,0.0020714669808512554,0.06666666666666667,1.1881132304668427,-5.968547215063533,0.5538227964873077,0.041015700157731774,10200.0,-0.02306967177428305,0.48770491803278687,0.8160436794161796,-0.9970637783408165,-8.669051614439086,1530.0,0.0,0.5790113940834999,5.707893446290717,-8.748603747160919,-8.261960644807075,0.92,0.00022416118590626866,0.9517370016320821,-1.748826492025546,8.423096157034546,-10.812289787197543,-9.17560809762602,-1.673210325150596,-0.19186775237321854,-5.5303297077815845,3989757.0,-0.8115605368988327,4289.0,0.18583984375,-10.72107588349963,0.00673828125,-0.9990985870361329,-0.1105444584041834,0.7540012270212173,101,0.0,-5.918878875499942,976.0,0.0
5.401521640627363,0.002128959714900702,0.9333333333333333,1.1939964056015016,-5.9018067257703395,0.5445685616443262,0.04119506822898984,10300.0,-0.023851049970835446,0.43681747269890797,0.8203987210988999,-0.9968691021203995,-8.087109586958997,1545.0,0.0,0.5823326602578163,5.625970819338488,-8.197558187155618,-7.623967208636332,0.82,0.00023617955957888626,0.9760319573901465,-1.7488144414022826,7.767382985134776,-11.806321457002555,-14.075974815250412,-1.853467045528846,-0.1935746565461159,-5.459203978834731,4015332.0,-0.8137819940828195,751.0,0.163525390625,-10.248367172873136,0.0074462890625,-0.9990488767623902,-0.11081684827804565,0.756910289824009,102,0.0,-5.862969236145686,1282.0,0.0
