ReemS3/reg_curious_hac/data/d4a6886/CausalDependenciesMujocoEnv-o1-v0/alg:chac|eta:0.5|fw:1|fwhidsiz:256,256,256|nlev:2|reg:True|rolbatsiz:1|timsca:27,27|101/progress.csv
train_0/q_grads_std,train_0/avg_q,train_0/q_loss,train_1/reward_-0.0_frac,train_0/mu_loss,train_1/q_loss,epoch,test/episodes,train_0/fw_bonus,train_1/mu_grads,test_1/n_subgoals,train_0/mu_grads,test_0/avg_q,train_1/q_grads,train_1/target_q,train_1/next_q,train_1/reward,train_1/reward_-1.0_frac,train_1/mu_grads_std,train_1/fw_bonus,train_0/fw_loss,train_0/reward,train_0/q_grads,train_1/mu_loss,train_0/mu_grads_std,train_1/current_q,train/episodes,test_1/subgoal_succ_rate,train_0/reward_-1.0_frac,train_1/q_grads_std,test/success_rate,train_0/next_q,train_1/reward_-27.0_frac,test_1/avg_q,train_0/reward_-0.0_frac,train_1/fw_loss,policy/steps,train_1/n_subgoals,train_1/avg_q,train_1/subgoal_succ_rate,train_0/target_q,train_0/current_q,train/success_rate
0.15705337859690188,-1.708049365552305,0.35753069183828273,0.0,2.5054557797953696,6.248072465556795,0,25.0,-0.9990147203207016,0.014070666045881808,4182.0,0.005015999532770365,-1.9046954892411962,0.0018901905248640105,-7.344051739954454,-7.544020988297424,-1.6232256824638172,0.001806640625,0.18142998442053795,-0.9965246051549912,0.00022956586981308645,-0.7142046323577234,0.02909796084277332,6.914374929999552,0.17529342584311963,-7.447665305670034,100.0,0.8787661406025825,0.00029296875,0.24408817216753959,0.08,-2.4968615881683283,0.0,-10.945252490212999,0.0,0.0014766633772524073,63913.0,2681.0,-4.7803108511183785,0.39537486012681833,-2.664880544226358,-2.715415751221212,0.02
0.1877467181533575,-3.4442365671891033,0.421753761611902,0.0,3.0730458793695616,4.758510415931668,1,50.0,-0.9987274646759033,0.011556738312356174,2081.0,0.0013617079617688431,-2.777298173126632,-0.005304526514373719,-7.81829258508874,-7.66630017974888,-1.640838242881,0.00283203125,0.20816898457705973,-0.9945671036839485,0.0002951284212031169,-0.7163193008222152,0.028394500678405165,7.5893109178272935,0.20521883554756642,-7.877120060970141,200.0,0.735223450264296,0.000390625,0.2836358115077019,0.0,-3.0612381108341635,0.0,-11.820473446071171,0.0,0.0018765962595352903,127835.0,2580.0,-9.841849799301135,0.4077519379844961,-3.1811217170971227,-3.255966360899879,0.06
0.1946573991328478,-2.724542791541067,0.3906475053761384,0.0,2.811173622095075,4.676404716935574,2,75.0,-0.9987974762916565,0.008301371685229242,2175.0,-0.003738487750524655,-1.7744662442723766,-0.006978761090431362,-8.299267692681815,-8.119118281113424,-1.5517281758286117,0.0026611328125,0.24393512345850468,-0.9937883853912354,0.00027915062273677906,-0.7184172926405153,0.02677332516759634,8.048624582862566,0.234557481482625,-8.301768839533917,300.0,0.7177011494252874,0.0005126953125,0.30213832929730416,0.0,-2.7652703855592558,0.0,-13.06173761644195,0.0,0.00203569688310381,179647.0,2654.0,-12.360244367401306,0.6386586284853052,-2.9052605377543195,-2.9661701132424683,0.03
0.2024573225528002,-2.5328917827943713,0.37176304086000045,0.0,2.438056509182284,5.407635017957796,3,100.0,-0.9989506810903549,0.003115042217541486,6324.0,-0.0067587985657155515,-1.7109129009983883,-0.004010054911486804,-8.825071064997289,-8.70449903417821,-1.5330817853217014,0.0027587890625,0.2877718165516853,-0.9936293840408326,0.0002441862387058791,-0.7132082468619046,0.023434518184512854,8.481880156035142,0.2556404538452625,-8.814081459612094,400.0,0.9478178368121443,0.000927734375,0.32426201179623604,0.08,-2.399618255856342,0.0,-13.36752024568257,0.0,0.0020681801688624546,237111.0,2679.0,-14.067444006568628,0.5139977603583427,-2.547333651109815,-2.6155740735378217,0.03
0.20916955061256887,-2.2675294139303244,0.3267724947055139,0.0,2.4448823861875137,5.678522919621491,4,125.0,-0.9990682914853096,0.0004205715500575025,6097.0,-0.012305446295067668,-1.8245797505424,-0.002232304512290284,-8.794889954689282,-8.680443532096259,-1.4905092576125754,0.0024169921875,0.3161397226154804,-0.9933964505791664,0.00021734183646913153,-0.7136454748761025,0.022722408547997473,8.381995508876283,0.275389052182436,-8.781875327342195,500.0,0.9439068394292275,0.0004150390625,0.3445604518055916,0.04,-2.4104290950212026,0.0,-10.46176264795745,0.0,0.0021157729730475693,280049.0,2694.0,-14.126853656313804,0.7435040831477358,-2.585461548381596,-2.6523740984317534,0.01
0.21227376945316792,-2.043100505741937,0.41192334019455856,0.0,1.9598537608924929,4.536237221620043,5,150.0,-0.999091961979866,-0.0010835650726221501,2897.0,-0.011465302109718323,-1.3384741778722484,-0.002719385240925476,-8.485318319798518,-8.25342204429766,-1.4101009120800883,0.0018798828125,0.34048409685492514,-0.9912711530923843,0.00021193924876570236,-0.7115454942424548,0.021721070865169168,8.081786463461277,0.2942681089043617,-8.44338417204094,600.0,0.8277528477735588,0.0007080078125,0.3617593593895435,0.12,-1.9219041882111632,0.0,-11.997267876660192,0.0,0.0025499857729300857,326134.0,2697.0,-14.087871619847505,0.6722284019280682,-2.0672423458763958,-2.130668339945038,0.01
0.21278323009610176,-1.6306409695774664,0.41724839667043134,0.0,2.2671261159328155,3.9194521890457934,6,175.0,-0.9991966411471367,-0.0026999642548616977,1569.0,-0.01529028641525656,-3.202516277551381,-0.0033626743592321874,-8.544810709027308,-8.359635906321962,-1.3142741254763677,0.0023193359375,0.347079112380743,-0.9912679776549339,0.0001880487470771186,-0.7105846491576813,0.02134433975443244,8.289710746792187,0.3106231026351452,-8.508829235770648,700.0,0.6003824091778203,0.0008544921875,0.3730475425720215,0.0,-2.2064725018106106,0.0,-18.51697302860558,0.0,0.0025506357604172082,362161.0,2637.0,-16.49795209998269,0.8357982555934774,-2.3141171123299005,-2.386023730347595,0.04
0.22339132837951184,-2.5504576402337067,0.31543723274691304,0.0,2.105193135964498,3.203427415451497,7,200.0,-0.9992742523550987,-0.007389122049789876,8788.0,-0.020984010817483068,-1.7392660925890775,-0.005003149132244289,-8.450129375663904,-8.252477691348734,-1.2619669843712473,0.00244140625,0.36317744478583336,-0.9926107347011566,0.00017034081447491188,-0.7070223689079285,0.02218600632622838,8.241220268859601,0.3212453737854958,-8.414655827811515,800.0,0.9717796995903505,0.0028564453125,0.3883423015475273,0.08,-2.068160901712242,0.0,-15.31686265129984,0.0,0.002276300877565518,402791.0,2605.0,-18.981119628298348,0.7439539347408829,-2.2602191431908247,-2.3071485261780516,0.07
0.23438885770738124,-2.6135656427351956,0.3466913842900033,0.0,2.1848940938421335,2.931476000657552,8,225.0,-0.9993047952651978,-0.012619574391283094,10968.0,-0.027965917019173503,-1.7132576979170209,-0.006737047724891454,-8.799475854479144,-8.620737900189397,-1.1900281563575845,0.0019287109375,0.3920282952487469,-0.99389908015728,0.0001633636111364467,-0.7042300370856538,0.02207613275386393,8.6381803026901,0.3396904207766056,-8.753887023411973,900.0,0.9829504011670314,0.0020751953125,0.40156357660889624,0.08,-2.1229603286453873,0.0,-20.21781532688444,0.0,0.0020130786986555906,437559.0,2665.0,-19.869593903713852,0.825140712945591,-2.298497402980513,-2.359335946875899,0.02
0.24927820824086666,-3.0648046198893115,0.1723114436149172,0.0,2.0606423641262346,2.7730802344302306,9,250.0,-0.9993148759007454,-0.01740965894423425,6013.0,-0.029908248409628867,-3.465334019597961,-0.009155605337582529,-8.718567713723603,-8.52629187033828,-1.158402055073384,0.002294921875,0.42070271372795104,-0.9927318453788757,0.00016106629482237622,-0.7081657341943355,0.024873656360432504,8.524010647029542,0.35214644148945806,-8.66230814645588,1000.0,0.9687344087809746,0.0060302734375,0.41151284277439115,0.16,-2.006250986955877,0.0,-20.142508377572558,0.0,0.00225155571824871,480550.0,2626.0,-19.890324699135377,0.7098248286367098,-2.3542281094143727,-2.37439171874093,0.05
0.25894249603152275,-2.4171954559719304,0.27522443378395317,0.0,2.196780357460752,2.810181825109122,10,275.0,-0.9992682963609696,-0.023833826696500183,2004.0,-0.034085717611014844,-1.4441362076530895,-0.011659967550076544,-8.87145103265421,-8.668882379491885,-1.2204992668092018,0.0019775390625,0.4442003838717937,-0.991926272213459,0.00017169660059153103,-0.7088260393691599,0.027039668709039687,8.699362646684762,0.36556006222963333,-8.818120689201553,1100.0,0.7015968063872255,0.0042724609375,0.4210288390517235,0.04,-2.130877092081178,0.0,-17.186190038800277,0.0,0.0024161412729881704,528551.0,2558.0,-19.83719652140669,0.6563721657544958,-2.4028344510931015,-2.412847863419626,0.09
0.26329139098525045,-1.8204365712900197,0.3066746799734566,0.0,1.8530726310295897,2.7077898435731336,11,300.0,-0.9993462204933167,-0.026632788171991707,2463.0,-0.04015567405149341,-3.3001344156590697,-0.013060393976047635,-8.638396801851579,-8.445434889798985,-1.2578712890623138,0.002392578125,0.465824443846941,-0.9938187509775162,0.00015391082924907096,-0.7117214492602215,0.02696824260056019,8.423680425591366,0.37203125581145285,-8.592704345846716,1200.0,0.8656110434429557,0.008740234375,0.4292456038296223,0.24,-1.8032357651030106,0.0,-16.848400793424652,0.0,0.002029492615838535,590167.0,2538.0,-17.977119897716012,0.3806146572104019,-2.037417747040915,-2.094812473699777,0.12
0.27082561105489733,-3.553008175143373,0.4001905197170935,0.0,1.4278316961014201,2.897691256076255,12,325.0,-0.9993602067232132,-0.03116680490784347,1096.0,-0.043972510192543265,-1.6245489013581405,-0.0139460489153862,-8.646399100633818,-8.459126134240531,-1.2815939237858402,0.00224609375,0.4844283998012543,-0.9925335451960564,0.00015071718298713676,-0.7112279574852437,0.0270098190754652,8.439490437728129,0.38320447877049446,-8.624505871385987,1300.0,0.45894160583941607,0.012939453125,0.4383890345692635,0.12,-1.4068038107079572,0.0,-18.635669911102227,0.0,0.0022920687217265366,629844.0,2531.0,-18.991874031990697,0.7965231133939155,-1.623464277321715,-1.6346643273401806,0.17
0.2767358712852001,-2.1949722722638065,0.5754731500002946,0.0,0.0005941734140327234,2.9047755888460562,13,350.0,-0.9992502704262733,-0.03768881475552917,670.0,-0.046337191574275495,-0.00015892614384449848,-0.014297605026513338,-8.579736843006199,-8.388287665748155,-1.3884342140219814,0.0025390625,0.4988639779388905,-0.9893928408622742,0.00017581125066499226,-0.7170811852935003,0.02672644848935306,8.33462226678661,0.3927593544125557,-8.569478526194533,1400.0,0.01791044776119403,0.005908203125,0.44930330738425256,0.04,-0.000635617039539874,0.0,-15.988375087732738,0.0,0.0029337410465814172,701058.0,2602.0,-17.063452185159097,0.292467332820907,-0.717444250251454,-0.0005476640788156401,0.11
0.28095343708992004,-2.0237538821365577,0.26388173413720917,0.0,1.2003205776117192,3.1801954534471606,14,375.0,-0.9991857692599296,-0.04327038386836648,724.0,-0.0400034979917109,-0.8841101575978577,-0.016143531491979956,-8.657428682096121,-8.495558538924811,-1.5932103613835351,0.0025390625,0.5060062631964684,-0.9879832178354263,0.00019053007672482637,-0.7226153457479085,0.025610218476504087,8.318101582407936,0.4011607483029366,-8.655923351414435,1500.0,0.2058011049723757,0.0075927734375,0.46089979261159897,0.16,-1.1785925618322612,0.0,-14.047448892465395,0.0,0.003221738466527313,783821.0,2612.0,-15.288982787256883,0.07618683001531394,-1.5742058833149533,-1.5353939876354865,0.08
0.2808798119425774,-1.5867455778544997,0.3526650691048651,0.0,1.9196425615640351,3.081289589070809,15,400.0,-0.9991962939500809,-0.04904398042708635,685.0,-0.046619227062910794,-1.6678242503909204,-0.016948227398097516,-8.527392916542217,-8.344313847745918,-1.645030029535701,0.0021240234375,0.5136196196079255,-0.9885952264070511,0.00018812720118148717,-0.7297983443320846,0.025894402991980314,8.192072917311515,0.4030882142484188,-8.520749130323306,1600.0,0.052554744525547446,0.0131103515625,0.4729963853955269,0.04,-1.8517533412676983,0.0,-17.69280267153716,0.0,0.003096702869515866,839481.0,2443.0,-15.81983795366209,0.5341792877609497,-2.0842509354204535,-2.0975848527674836,0.2
0.2829009972512722,-2.833048500368116,0.36845217117314066,0.0,2.1192080186373006,2.859208977800743,16,425.0,-0.9992392808198929,-0.05332513200119138,4005.0,-0.05128071708604694,-3.118178388585802,-0.017704982357099653,-8.439819479612186,-8.26676842674807,-1.5802811231158558,0.0020263671875,0.5229026436805725,-0.9896638125181199,0.00017831657805800205,-0.7340190560113115,0.02542523224838078,8.069391680681498,0.4111624576151371,-8.427455359958259,1700.0,0.9328339575530586,0.0126708984375,0.486511704325676,0.2,-2.0679402510015032,0.0,-16.01961171230217,0.0,0.002878380287438631,887211.0,2554.0,-17.028930774251275,0.7012529365700861,-2.2699652134415924,-2.3170796811995453,0.07
0.2844084076583385,-3.968574659787353,0.36670414228595866,0.0,2.3176161041702144,3.123325048411113,17,450.0,-0.9992689698934555,-0.058325210213661195,3566.0,-0.05696896342560649,-3.1834058236129317,-0.017877996107563375,-8.528607469461155,-8.380429463563123,-1.5412635757384123,0.0027587890625,0.5378282055258751,-0.9903884649276733,0.00017153975568362512,-0.7445197423126956,0.024521286133676767,8.246102719515875,0.422983917593956,-8.52270367848732,1800.0,0.9049355019629838,0.0142578125,0.4997349664568901,0.16,-2.2483282941075218,0.0,-15.38647973837062,0.0,0.0027303243172354997,933500.0,2390.0,-17.493080243994548,0.7196652719665272,-2.4876609124378524,-2.5536599752170726,0.18
0.28406022787094115,-4.352617135065359,0.37711252796885886,0.0,2.3052577615544876,3.0598504064765186,18,475.0,-0.9992400839924812,-0.062264620512723926,5947.0,-0.06142766159027815,-2.063409439499309,-0.019353166129440068,-8.5373136091834,-8.418934863090445,-1.478754931325966,0.0026123046875,0.5545307561755181,-0.9907374009490013,0.00017813439590099733,-0.7534042206250888,0.023934749886393547,8.226928690146812,0.4377958387136459,-8.546292036430719,1900.0,0.9598116697494535,0.0111572265625,0.5086202770471573,0.16,-2.238759053992473,0.0,-16.051793348174364,0.0,0.0026590365858282896,976636.0,2411.0,-16.748098962481272,0.758606387391124,-2.4870727338671452,-2.5265950530626484,0.15
0.2855875097215176,-4.390563746609297,0.30159733535193717,0.0,2.4067838298990853,2.8739789042190482,19,500.0,-0.9993115589022636,-0.06611547730863095,4691.0,-0.06350441668182612,-4.006457129561327,-0.020128985960036518,-8.657856291857964,-8.50675620371842,-1.3282294526208716,0.0026611328125,0.5709668561816216,-0.992298749089241,0.00016182361432584002,-0.7546362428729481,0.02336543849669397,8.345373754402507,0.44833921268582344,-8.649917274095804,2000.0,0.9492645491366446,0.0196044921875,0.5188736543059349,0.28,-2.3065776083978022,0.0,-13.670456160814679,0.0,0.0023400409671012314,1020399.0,2467.0,-18.037976033809098,0.7430077016619375,-2.6111463133257122,-2.6571693175339615,0.16
0.28653177469968794,-4.589935749363399,0.3364682415295939,0.0,2.852538904670376,3.3831888592777957,20,525.0,-0.9993356913328171,-0.07025275658816099,3127.0,-0.07028218619525432,-4.493065087940193,-0.02032071785070002,-8.604655605422858,-8.467151385025605,-1.2350520955391402,0.0031494140625,0.5851877495646477,-0.9927360251545906,0.00015631146434316178,-0.762949100019614,0.022886663628742098,8.349954704144565,0.4603600732982159,-8.598671350304752,2100.0,0.9449952030700352,0.024365234375,0.5301872566342354,0.32,-2.7457932908349783,0.0,-17.130234860467134,0.0,0.0022507010027766226,1063725.0,2402.0,-17.938560744254954,0.7447960033305578,-3.0290690179448303,-3.113407789745694,0.18
0.2902831226587296,-3.1188930085226203,0.6448106744998441,0.0,0.003130504374151444,3.0921328190745108,21,550.0,-0.9992809504270553,-0.07181159351021052,675.0,-0.06895991303026676,-0.003356519732128478,-0.02012143824249506,-8.59049741243394,-8.450730849225012,-1.264465405111696,0.002978515625,0.5955418795347214,-0.9926759272813797,0.00016880779876373708,-0.7717229930094618,0.022786274179816247,8.322945303001342,0.4666925221681595,-8.58248123240713,2200.0,0.0,0.03125,0.5415619805455207,0.0,-0.0027440610793307944,0.0,-15.082952798280822,0.0,0.0022629806306213142,1127670.0,2298.0,-17.64148687520244,0.3951261966927763,-0.7741737778536713,-0.01113239283534525,0.29
0.2906111001968384,-0.25978735768813144,0.6441463418195147,0.0,0.002446418026942818,3.5503130404005923,22,575.0,-0.9992956176400185,-0.07517274357378483,690.0,-0.06882484965026378,-0.0013377550657085156,-0.019990470027551055,-8.615622011257702,-8.526496996207221,-1.3951933240896324,0.003173828125,0.6054556399583817,-0.9917050018906594,0.00016545744656468742,-0.7729266219321289,0.02231631730683148,8.312104243263652,0.46952851489186287,-8.612784295222568,2300.0,0.021739130434782608,0.0344970703125,0.5544142037630081,0.0,-0.00250137461710762,0.0,-15.01779019791272,0.0,0.002461346803465858,1211677.0,2543.0,-15.48809460361747,0.0526936688950059,-0.7752482403000117,-0.023254893714853647,0.1
0.2909944951534271,-0.6465635969806096,0.6553937218728516,0.0,1.536792659671549e-06,12.747817435608845,23,600.0,-0.9993864461779595,-0.07597141098231078,684.0,-0.06827588155865669,-3.9974123894542455e-07,-0.022404772555455567,-9.09341926881468,-10.335006020062341,-1.539007399768161,0.002978515625,0.6123855099081993,-0.9903194844722748,0.0001447315102268476,-0.7702864809740276,0.022372951870784162,10.0213925178725,0.47442713379859924,-9.059606667724834,2400.0,0.013157894736842105,0.0443359375,0.5688425958156585,0.0,-1.3465876907299332e-06,0.0,-12.528656548548353,0.0,0.002744420024100691,1297745.0,2626.0,-14.715147223655348,0.05635948210205636,-0.7702876986559828,-5.86098011911684e-06,0.07
0.2911425828933716,-1.6769327601547174e-06,0.6445160532665184,0.0,2.0873934007307043e-07,18.394393378777615,24,625.0,-0.9995429441332817,-0.080194085650146,675.0,-0.0682740831747651,-3.247808382031287e-08,-0.0240432717371732,-9.542265141505405,-12.934794269237978,-1.7141003057309718,0.0022705078125,0.6198352634906769,-0.9875756099820137,0.00010901074056164361,-0.7630283109516313,0.022735743131488562,12.22627245881992,0.4744168221950531,-9.55045477331694,2500.0,0.0,0.05400390625,0.5824962690472603,0.0,-1.846697810138771e-07,0.0,-13.76619524828185,0.0,0.003305016574449837,1388483.0,2700.0,-13.68794169952972,0.006296296296296296,-0.763028472480453,-1.5163417770345715e-06,0.0
0.29199478030204773,-0.18486948008639104,0.6263743022490627,0.0,3.2438469310387924e-16,14.912052743987232,25,650.0,-0.999637308716774,-0.08205956649035215,687.0,-0.06846975535154343,-1.4056626514748636e-17,-0.024636396439746022,-10.300145967896118,-15.904379043691558,-1.859809850246529,0.0024658203125,0.6242982894182205,-0.9879058241844177,8.747435449549812e-05,-0.7509294961404521,0.0232088565826416,14.957764475790265,0.4748847186565399,-10.23881923462223,2600.0,0.017467248908296942,0.0416015625,0.5955508694052696,0.0,-2.7430505882113757e-16,0.0,-13.562303172157655,0.0,0.0032375491457059978,1479421.0,2700.0,-13.296821868226703,0.0033333333333333335,-0.7509294961404522,-2.415456357401872e-16,0.0
0.29199478030204773,-1.6598349231258955e-13,0.6016238797190507,0.0,3.05031363388804e-15,14.54004959198222,26,675.0,-0.9997615113854408,-0.08015637341886758,682.0,-0.06846975535154343,-7.61792083914833e-13,-0.025587728898972272,-11.772681848308775,-19.349050028804918,-1.9584990348928841,0.0017333984375,0.6281515970826149,-0.9896299123764039,5.912883152632275e-05,-0.7344266531632456,0.0232088565826416,18.41233907333125,0.4748847186565399,-11.651677734462115,2700.0,0.010263929618768328,0.082080078125,0.6081010669469833,0.0,-3.034560361974009e-15,0.0,-14.663187266852345,0.0,0.00288530639372766,1568399.0,2700.0,-13.312635283498656,0.03259259259259259,-0.7344266531632486,-4.3788297158094575e-15,0.0
0.29199478030204773,-1.0996355062243291e-12,0.5844553401474271,0.0,4.316655111486435e-14,12.929569899120589,27,700.0,-0.9998803794384002,-0.08079751897603274,680.0,-0.06846975535154343,-9.070708136305558e-16,-0.026109857484698296,-11.8961582414879,-20.949478015792078,-1.9821462317515397,0.0014404296875,0.6332711175084114,-0.9925151169300079,3.199970637979277e-05,-0.7229748562240275,0.0232088565826416,20.62858760166257,0.4748847186565399,-11.75206876070613,2800.0,0.007352941176470588,0.130029296875,0.6193004488945008,0.0,-4.658145721359936e-14,0.0,-13.657982172161129,0.0,0.0022958343557547777,1657674.0,2700.0,-13.928656813345459,0.02851851851851852,-0.7229748562240731,-1.7496161837224293e-13,0.0
0.29199478030204773,-2.1292966753188975e-13,0.581405407298392,0.0,3.20824287234627e-14,11.806815936007885,28,725.0,-0.999937079846859,-0.0813551688566804,677.0,-0.06846975535154343,-5.831038134923717e-16,-0.0265879028942436,-11.998132701552155,-21.610722150861385,-1.9518891899679147,0.0016357421875,0.6374336361885071,-0.9951602160930634,1.9060842032558866e-05,-0.7209402140331804,0.0232088565826416,21.502321992538615,0.4748847186565399,-11.815965568967389,2900.0,0.0029542097488921715,0.24267578125,0.6308442339301109,0.0,-3.3031148702974136e-14,0.0,-14.252741737951949,0.0,0.0017554191639646889,1746881.0,2700.0,-13.830306636776138,0.02962962962962963,-0.7209402140332127,-4.983843938002506e-14,0.0
0.29199478030204773,-3.7293088585098327e-14,0.5685668443698589,0.0,4.539389157049579e-14,10.331526643473975,29,750.0,-0.9999311074614525,-0.08400935735553502,810.0,-0.06846975535154343,-4.624066847809361e-16,-0.0280416845344007,-11.879027993650926,-21.72468813244629,-1.9495336070358462,0.001611328125,0.6421137109398842,-0.9978709250688553,2.0421321073627043e-05,-0.7123801047397137,0.0232088565826416,21.623421140320012,0.4748847186565399,-11.730393411113207,3000.0,0.1728395061728395,0.1775146484375,0.6415736839175225,0.0,-4.6238556651408527e-14,0.0,-11.748226224844732,0.0,0.0012015992018859834,1835913.0,2700.0,-14.087675895325935,0.03222222222222222,-0.712380104739759,-1.1170333411249612e-13,0.0
0.29199478030204773,-1.81106870228489e-15,0.5669760191914381,0.0,5.961843271617615e-14,8.784220876051501,30,775.0,-0.9999374642968177,-0.08391103316098451,681.0,-0.06846975535154343,-3.4403915093931297e-16,-0.028328303946182132,-11.847796101857407,-21.566137742178267,-1.9334248075152574,0.001611328125,0.6478940308094024,-0.9990273550152778,1.8969427287629514e-05,-0.7113212735588604,0.0232088565826416,21.50818382560926,0.4748847186565399,-11.658392801981002,3100.0,0.00881057268722467,0.2347412109375,0.6545113697648048,0.0,-6.273307211316803e-14,0.0,-14.032986511500436,0.0,0.0009653322049416602,1922378.0,2700.0,-13.673875353091555,0.07,-0.7113212735589218,-1.4122726282858667e-13,0.0
0.29199478030204773,-1.0256067475987256e-12,0.5647772928980878,0.0,6.006300817259084e-14,9.436513323399083,31,800.0,-0.9999356970191002,-0.08665814120322465,689.0,-0.06846975535154343,-1.3161725229725628e-12,-0.030459227226674556,-11.629424161153874,-21.43389279859104,-1.9538190139297513,0.001318359375,0.6517631694674492,-0.9992151856422424,1.9374374869585153e-05,-0.7098555427626707,0.0232088565826416,21.40898777591522,0.4748847186565399,-11.40025787605655,3200.0,0.020319303338171262,0.25859375,0.669619171321392,0.0,-5.952894051736047e-14,0.0,-14.712361425198084,0.0,0.0009269575515645556,2012666.0,2700.0,-14.100996504144812,0.012962962962962963,-0.7098555427627289,-1.231738763794774e-13,0.0
0.29199478030204773,-1.9572657900513996e-12,0.565951947229693,0.0,1.369354488737601e-13,9.410829166641298,32,825.0,-0.9999394074082375,-0.08885918166488409,693.0,-0.06846991926431656,-7.858549532869966e-13,-0.032302412670105696,-11.644134396741501,-21.507403991568843,-1.948011761448288,0.001416015625,0.6544650122523308,-0.9996123909950256,1.8526633516557923e-05,-0.7106386499981454,0.02320891749113798,21.45717458042435,0.47488465905189514,-11.436090067219613,3300.0,0.027417027417027416,0.2579345703125,0.6871622234582901,0.0,-2.0918754074778663e-13,0.0,-13.740328900873175,0.0,0.0008458041105768643,2102662.0,2700.0,-14.223884159745715,0.017777777777777778,-0.7106386499983504,-2.327219862784273e-13,0.0
0.29199478030204773,-4.383530507032174e-13,0.5695410376119664,0.0,1.268834424733704e-13,7.41688328797868,33,850.0,-0.9999609261751174,-0.0893641721457243,678.0,-0.06847003847360611,-5.733267504881351e-13,-0.033824972528964284,-11.695626053426006,-21.55487726913199,-1.9687243525382656,0.0013916015625,0.6599487900733948,-0.9999487027525902,1.3616263913718285e-05,-0.7130297784700815,0.02320898063480854,21.50478718078281,0.47488462924957275,-11.453111525651202,3400.0,0.004424778761061947,0.2951171875,0.7074777156114578,0.0,-1.3531041366111605e-13,0.0,-14.044177495164469,0.0,0.0007770920783514157,2193318.0,2700.0,-13.795866784138585,0.008148148148148147,-0.713029778470214,-1.9743703651844054e-13,0.0
0.29199478030204773,-1.164017050260673e-13,0.5639822008873908,0.0,1.4541722190366442e-13,7.789418845055392,34,875.0,-0.9999697864055633,-0.09109735209494829,675.0,-0.06847022473812103,-3.228042773360163e-13,-0.036370822414755824,-11.89495546742192,-21.44813351802291,-2.006060807225731,0.001513671875,0.6638528048992157,-1.0001343071460724,1.1593465580972407e-05,-0.7093232726569113,0.02320908196270466,21.387003983674283,0.474884569644928,-11.669306750061043,3500.0,0.0,0.3244384765625,0.7264202833175659,0.0,-1.4911036597617767e-13,0.0,-14.511769236115216,0.0,0.0007391717284917831,2283329.0,2700.0,-14.143954082424267,0.017407407407407406,-0.7093232726570574,-1.6798840346629507e-13,0.0
0.2919948101043701,-1.218172722500967e-12,0.5629648958178729,0.0,1.2900924095539586e-13,7.23714071490546,35,900.0,-0.9999591141939164,-0.09128956254571677,675.0,-0.06847044825553894,-6.910815255062633e-15,-0.03931321501731873,-11.835404785815511,-21.687503139438284,-2.0183810441660173,0.0013671875,0.6669529870152473,-1.0001898169517518,1.4030438205736572e-05,-0.7086465468841198,0.023209277959540486,21.59015376750427,0.4748845100402832,-11.596326544009719,3600.0,0.0,0.2821044921875,0.7430802926421165,0.0,-1.456762512009966e-13,0.0,-14.063536181501313,0.0,0.0007278296790900641,2374123.0,2700.0,-14.226603700804501,0.005925925925925926,-0.7086465468842624,-1.5122839642789836e-13,0.0
0.2919948399066925,-1.751847324996634e-12,0.5642880270236056,0.0,3.651384543624035e-13,6.787820264166254,36,925.0,-0.9999652937054634,-0.09216294940561057,678.0,-0.06847066525369883,-5.220686882548034e-15,-0.041394214052706955,-12.087361105353432,-21.726525868523176,-1.9959797822069958,0.0014892578125,0.6684966519474983,-1.0004068285226821,1.2618552352705592e-05,-0.7095285464143671,0.02320967768318951,21.624281005294854,0.4748844802379608,-11.851363124961356,3700.0,0.004424778761061947,0.317041015625,0.7586652651429177,0.0,-3.6756738130850366e-13,0.0,-14.026773402411003,0.0,0.0006834933592472225,2464721.0,2700.0,-13.990753940634248,0.008148148148148147,-0.7095285464147274,-5.521543148424011e-13,0.0
0.2919948399066925,-1.890551972685411e-14,0.564152110004398,0.0,3.7916712669822613e-13,7.198187910747658,37,950.0,-0.9999281942844391,-0.09248634725809098,678.0,-0.06847071647644043,-1.410545254396279e-15,-0.043439123686403035,-11.937653202491669,-21.681874173722345,-1.9699060177605134,0.0010498046875,0.6720462456345558,-1.000700718164444,2.109004535668646e-05,-0.7094367451813014,0.02320987661369145,21.569357167921233,0.4748845100402832,-11.695624412662378,3800.0,0.004424778761061947,0.1753662109375,0.7724532142281533,0.0,-3.8758729743158943e-13,0.0,-13.35935524088594,0.0,0.0006234517190023325,2554996.0,2700.0,-14.118891386159978,0.013333333333333334,-0.7094367451816812,-4.258689755416272e-13,0.0
0.2919937275350094,-4.285985653537992e-12,0.5650679974159754,0.0,4.399895778701623e-13,6.2114993102748555,38,975.0,-0.9999765262007714,-0.09327042736113071,680.0,-0.06847097724676132,-3.804203450700071e-15,-0.04545201603323221,-11.934253551565531,-21.669116156192427,-1.9470139786943037,0.0013916015625,0.6737897470593452,-1.0006685972213745,1.0056548330794612e-05,-0.7100468546508637,0.023209909070283176,21.59380565691348,0.4748844802379608,-11.687178864551006,3900.0,0.007352941176470588,0.3239013671875,0.7885376662015915,0.0,-4.610406182509249e-13,0.0,-14.127020579307597,0.0,0.0006300147972069681,2645858.0,2700.0,-13.85685914839288,0.005555555555555556,-0.7100468546513155,-9.45675623420139e-13,0.0
0.2945752561092377,-9.921246165034704,0.8345820769313537,0.0,9.486539630988045,4.800512522841673,39,1000.0,-0.9999766021966934,-0.09069901704788208,680.0,-0.06874901801347733,-26.780917033786643,-0.04698166493326426,-11.803795582305357,-21.809302658038884,-1.9397193096250702,0.001025390625,0.6760880902409554,-1.0008497536182404,1.0039044991572154e-05,-0.7100224785106548,0.024229122092947364,21.74391475982186,0.4749193489551544,-11.567105895842014,4000.0,0.007352941176470588,0.3281494140625,0.8044573798775673,0.0,-9.519671349434068,0.0,-13.066292347773262,0.0,0.0005930007144343108,2736694.0,2700.0,-14.1165679657529,0.005925925925925926,-9.767251259427677,-9.430888387928016,0.0
0.29793930277228353,-26.532719937702176,0.9341969220346948,0.0,9.513768525528567,5.223099243907418,40,1025.0,-0.9999750763177871,-0.09032427221536636,678.0,-0.06874901801347733,-26.87042065307907,-0.048275997210294005,-11.94430625036887,-21.69204489648356,-1.9875357326993253,0.0013916015625,0.6789796903729439,-1.00087713599205,1.0389037595359695e-05,-0.710094954330998,0.02430414343252778,21.659998650035117,0.4749193489551544,-11.694220742739185,4100.0,0.004424778761061947,0.333056640625,0.8184332579374314,0.0,-9.521984319722787,0.0,-14.385789534255942,0.0,0.0005874074820894748,2826934.0,2700.0,-13.692287735348517,0.014444444444444444,-9.870501143481567,-9.432951501753829,0.0
0.30568461716175077,-26.69904646528457,0.8203344255693044,0.0,9.651968571622541,5.680203652476747,41,1050.0,-0.9999742448329926,-0.0913148932158947,676.0,-0.06874901801347733,-26.93787263354523,-0.05056478697806597,-11.769340685238603,-21.725970552706446,-1.9572489832578868,0.0013427734375,0.683649368584156,-1.0011434704065323,1.057588618778027e-05,-0.7108025524117693,0.024565637996420264,21.683674441307364,0.4749193489551544,-11.535587921961323,4200.0,0.0014792899408284023,0.3450927734375,0.8316808849573135,0.0,-9.650958561321286,0.0,-14.556515318673718,0.0,0.0005329909501597286,2916687.0,2700.0,-14.238588533741956,0.022222222222222223,-10.041914153621365,-9.57411420299663,0.0
0.31030615121126176,-26.973175786064292,0.9564871190555506,0.0,9.588643622271231,5.511520711085684,42,1075.0,-0.9999683991074562,-0.09116164296865463,675.0,-0.06874901801347733,-26.98473083718226,-0.052973049134016036,-11.812076283924677,-21.666842747731817,-1.9170451186626452,0.001025390625,0.6875361770391464,-1.00110684633255,1.1906580618870067e-05,-0.7106165318233252,0.024468887178227306,21.652133173376047,0.4749193489551544,-11.554441697089965,4300.0,0.0,0.3212646484375,0.8442541867494583,0.0,-9.590900708562199,0.0,-14.576862541751439,0.0,0.0005404755254858173,3007760.0,2700.0,-14.162847661527197,0.0007407407407407407,-10.010219790251483,-9.523702650186062,0.0
0.3140925332903862,-26.981076440737212,1.0795548015421188,0.0,9.703906889872355,5.091956622874934,43,1100.0,-0.999960869550705,-0.09167678728699684,675.0,-0.06874901801347733,-26.99979492380181,-0.05527854925021529,-11.760210204758033,-21.61246613612342,-1.9897755074060115,0.0010986328125,0.6905787751078606,-1.0013039499521255,1.3626564259539009e-05,-0.711735810717073,0.024246210837736724,21.59974124727355,0.4749193489551544,-11.48774405581263,4400.0,0.0,0.310888671875,0.8550909027457237,0.0,-9.700172520874887,0.0,-14.082456848698145,0.0,0.0005002052334020845,3098885.0,2700.0,-14.129177261970472,0.0,-10.124408732475818,-9.630405517524908,0.0
0.3163011446595192,-26.978058729088968,0.9146163713555364,0.0,9.742940648751475,6.590477313842136,44,1125.0,-0.9999717757105827,-0.09041511192917824,675.0,-0.06874901801347733,-26.980486873622286,-0.05612357761710882,-11.792188590461384,-21.63244636961114,-1.9531181911297608,0.001513671875,0.6924849912524224,-1.0012803375720978,1.1139986565922299e-05,-0.7119487775853486,0.024119249358773232,21.626852769171183,0.4749193489551544,-11.52150796893785,4500.0,0.0,0.3378662109375,0.8654581755399704,0.0,-9.731848518235624,0.0,-14.050547090550396,0.0,0.0005050306877819821,3189964.0,2700.0,-14.052982439723882,0.0007407407407407407,-10.161149369136254,-9.664546866246072,0.0
0.318939308822155,-26.98602719999221,1.0291886413026634,0.0,9.610235112765796,4.7150007902351785,45,1150.0,-0.9999868422746658,-0.09162838850170374,675.0,-0.06874901801347733,-26.99914376250574,-0.058143737353384496,-11.720235964305592,-21.720441605274416,-1.9648073594078597,0.001123046875,0.6939597889780998,-1.001318797469139,7.699993659571192e-06,-0.7092585600359598,0.023808227386325598,21.717070668418806,0.4749193489551544,-11.453280813711611,4600.0,0.0,0.359765625,0.8749694332480431,0.0,-9.60686090739178,0.0,-14.062107630808574,0.0,0.0004971664755430538,3281008.0,2700.0,-14.011213821743322,0.0014814814814814814,-10.034108482239555,-9.53246728866842,0.0
0.32017752379179,-26.98427162738915,0.6494726079915776,0.0,9.697702858882996,4.269278395112561,46,1175.0,-0.9999706462025643,-0.09084828291088343,675.0,-0.06874901801347733,-26.999999996223256,-0.05988155091181398,-11.742050060827925,-21.753846952086374,-1.9807400740544836,0.0008544921875,0.695142051577568,-1.0014703661203384,1.1396170384614379e-05,-0.710959447069763,0.02351975655183196,21.747843770802085,0.4749193489551544,-11.48410161886622,4700.0,0.0,0.3312744140625,0.8819011360406875,0.0,-9.690531946337705,0.0,-13.91912097158355,0.0,0.0004662008439481724,3372099.0,2700.0,-14.076058228870833,0.0007407407407407407,-10.14435202658349,-9.639407016637339,0.0
0.32153446823358534,-26.99999957620705,0.8290976786871991,0.0,9.625365581357393,4.50348832465784,47,1200.0,-0.999975772202015,-0.09115829225629568,675.0,-0.06874901801347733,-27.0,-0.06062148753553629,-11.59540380000613,-21.793629208325388,-1.9909824154783564,0.0012939453125,0.6960071548819542,-1.0014472395181655,1.0229663973859716e-05,-0.7090821198857157,0.023558370163664223,21.78670955340834,0.4749193489551544,-11.329255955208245,4800.0,0.0,0.34619140625,0.889171913266182,0.0,-9.613620410357337,0.0,-14.487105632523186,0.0,0.0004709264678240288,3463224.0,2700.0,-14.041027567911692,0.0,-10.060786192718174,-9.558182590800683,0.0
0.3230501674115658,-26.999999999999996,0.7432123150748625,0.0,9.612606303669654,5.069600005541185,48,1225.0,-0.9999605745077134,-0.09143774472177028,675.0,-0.06874901801347733,-27.0,-0.06135074989870191,-11.564237346829955,-21.799194570182728,-1.9647835670977656,0.0009765625,0.6966412097215653,-1.0014421224594117,1.3698180237042833e-05,-0.70847637637562,0.02354330914095044,21.79000002346192,0.4749193489551544,-11.29176256539446,4900.0,0.0,0.3182861328125,0.895523051917553,0.0,-9.604345718410784,0.0,-14.602614327084758,0.0,0.00047197197636705823,3554349.0,2700.0,-14.133631602908189,0.0,-10.045245101928275,-9.544079321497625,0.0
0.3240201108157635,-26.995842001330132,0.9488762111386706,0.0,9.576342777215132,3.717633540244269,49,1250.0,-0.9999800980091095,-0.09142745826393366,675.0,-0.06874901801347733,-26.999115383435644,-0.06249381937086582,-11.600776269401553,-21.718384590416626,-1.9699593954683223,0.000927734375,0.6967925399541854,-1.0016619622707368,9.238857023774471e-06,-0.709499329522805,0.023628061497583987,21.709001030567137,0.4749193489551544,-11.338437157637609,5000.0,0.0,0.352490234375,0.9022496566176414,0.0,-9.601509790762233,0.0,-13.854751733205113,0.0,0.00042706089589046315,3645474.0,2700.0,-14.177057337130693,0.0,-10.051580907998783,-9.546963464987684,0.0
0.32535488680005076,-26.997596973292097,0.9375725246395765,0.0,9.672480269985389,5.827325723113203,50,1275.0,-0.9999777674674988,-0.0913984090089798,675.0,-0.06874901801347733,-26.999999955474387,-0.06266918666660785,-11.587432159278467,-21.723343707217197,-1.9738169631680649,0.000927734375,0.6968136116862297,-1.0018087387084962,9.769922371560824e-06,-0.7097423066203191,0.023717670515179635,21.77239087498768,0.4749193489551544,-11.306789142716271,5100.0,0.0,0.328466796875,0.9073522195219994,0.0,-9.67041965403884,0.0,-14.403465422510722,0.0,0.0003970735393522773,3736599.0,2700.0,-13.95580542513856,0.0,-10.108692807737635,-9.607190290826635,0.0
0.3271693423390388,-26.99999999972565,0.7536023221608539,0.0,9.670689001383133,5.124501267276191,51,1300.0,-0.9999757617712021,-0.090096334554255,675.0,-0.06874901801347733,-26.999997601066344,-0.06255617467686533,-11.696378520256019,-21.76829964817328,-1.9941006519613438,0.0009765625,0.699216715991497,-1.0017511039972304,1.0230765929009067e-05,-0.709497156303405,0.024160789884626867,21.742465495739744,0.4749193489551544,-11.414414876924942,5200.0,0.0,0.36767578125,0.9132438883185386,0.0,-9.677977367686344,0.0,-14.258250162097042,0.0,0.0004088462927029468,3827724.0,2700.0,-14.132359329849214,0.0,-10.12636453583097,-9.624991425464511,0.0
0.32896674498915673,-26.995775475750467,0.9327986346075061,0.0,9.729276349295587,5.159733216910285,52,1325.0,-0.9999853223562241,-0.08978398200124502,675.0,-0.06874901801347733,-26.99999332908988,-0.06390054654330016,-11.838865860613371,-21.745631009971294,-1.9721220520572387,0.000732421875,0.6996897339820862,-1.001885685324669,8.0460924664294e-06,-0.7091601454478222,0.024122932413592934,21.72893543905411,0.4749193489551544,-11.558895402788412,5300.0,0.0,0.367529296875,0.9198999434709549,0.0,-9.730599716649987,0.0,-14.476848362240142,0.0,0.00038134678106871434,3918849.0,2700.0,-14.083847939622402,0.0,-10.158329385191191,-9.658935887963999,0.0
0.33053864762187,-26.99948015566663,0.8125070236252551,0.0,9.75353577754672,7.144607586194207,53,1350.0,-0.9999846190214157,-0.08913197033107281,675.0,-0.06874901801347733,-26.999999999990372,-0.06513334494084119,-11.875510540924619,-21.78233971180091,-1.9803286734269931,0.000830078125,0.7019454181194306,-1.0020147740840912,8.21085030793256e-06,-0.7115157415857538,0.024840327352285384,21.735409179544654,0.4749193489551544,-11.586236645398092,5400.0,0.0,0.3753662109375,0.9268287986516952,0.0,-9.761520645865314,0.0,-13.898920946196261,0.0,0.00035497850549290886,4009974.0,2700.0,-14.19769256210571,0.0,-10.20717960565003,-9.703181322038583,0.0
0.33248575553298,-26.999999965038253,0.8682608178032701,0.0,9.776764758521065,4.130874355092457,54,1375.0,-0.9999854996800422,-0.08920835442841053,675.0,-0.06874901801347733,-26.99999999999539,-0.06521250940859318,-11.702044262459953,-21.77151950189587,-1.979235062940279,0.00068359375,0.7039201214909554,-1.0018783390522004,8.006841153473942e-06,-0.7117603293874708,0.024920221883803606,21.73619571087904,0.4749193489551544,-11.447452622660839,5500.0,0.0,0.377783203125,0.9355030104517936,0.0,-9.791126038041197,0.0,-14.147733714055077,0.0,0.00038285408591036684,4101099.0,2700.0,-13.985692482589814,0.0,-10.232083914610788,-9.725930997087415,0.0
0.3338695473968983,-26.99999999946364,1.017240092243569,0.0,9.653122411546285,4.139148926933872,55,1400.0,-0.9999663770198822,-0.08822461254894734,675.0,-0.06874901801347733,-26.999999999677435,-0.06577165555208922,-11.833793347981707,-21.78613861147069,-2.002457372091885,0.0009521484375,0.7071057811379433,-1.001814168691635,1.2371120800480639e-05,-0.7117019401368452,0.024520491156727074,21.74837748921125,0.4749193489551544,-11.567359586050161,5600.0,0.0,0.349658203125,0.9453392520546913,0.0,-9.650691794503867,0.0,-13.88800309056289,0.0,0.00039596444185008295,4192224.0,2700.0,-14.039175115585369,0.0,-10.092319484242008,-9.59004586035539,0.0
0.3346999198198318,-26.999996867903914,0.6560207835912268,0.0,9.590382199857952,3.823848873140752,56,1425.0,-0.9999741196632386,-0.08489615153521299,675.0,-0.06874901801347733,-26.99999999988079,-0.06805719174444676,-12.047333811532045,-21.729950815572348,-1.9985935147866258,0.0008544921875,0.7106895089149475,-1.0017768800258637,1.0602665668102418e-05,-0.708043705050659,0.024653309769928456,21.696820183881222,0.4749193489551544,-11.775333024544494,5700.0,0.0,0.3409423828125,0.953545731306076,0.0,-9.585956143131279,0.0,-14.163199075079563,0.0,0.00040358237092732454,4283349.0,2700.0,-13.975751312337099,0.0,-10.03311048183591,-9.528657187140293,0.0
0.3371996693313122,-26.999999809816448,0.6829820957301991,0.0,9.674944518880173,3.9774400114732473,57,1450.0,-0.9999777466058731,-0.08004398588091136,675.0,-0.06874901801347733,-26.999999993216527,-0.06999139301478863,-11.905205483843938,-21.7387107384484,-1.9849135441225372,0.000830078125,0.7132346019148826,-1.0019804120063782,9.774658008154801e-06,-0.7107921008500853,0.02532119881361723,21.71567462982715,0.4749193489551544,-11.62503477103656,5800.0,0.0,0.361669921875,0.96249158680439,0.0,-9.669048473188095,0.0,-14.1719043238564,0.0,0.000361998471635161,4374474.0,2700.0,-14.04159014294872,0.0,-10.127357829696031,-9.620502061899018,0.0
0.3397636696696281,-26.999999205772287,0.9067137545095623,0.0,9.563965760157496,4.5102029437876325,58,1475.0,-0.9999810591340065,-0.07881128899753094,675.0,-0.06874901801347733,-26.999999998183814,-0.07140413038432598,-11.9053506489763,-21.727388624407627,-1.986338230943511,0.000830078125,0.7146980330348015,-1.0019733548164367,9.019744516081118e-06,-0.7100247116475658,0.02520948206074536,21.677368533059667,0.4749193489551544,-11.635874612330388,5900.0,0.0,0.3658935546875,0.9698657289147377,0.0,-9.562097642564982,0.0,-13.987715381883087,0.0,0.0003634431879618205,4465599.0,2700.0,-14.104307558169527,0.0,-10.016371580708116,-9.510348566963192,0.0
0.341343192756176,-26.999999866435818,0.8002382232972132,0.0,9.445761101932225,3.049857449161586,59,1500.0,-0.999977944791317,-0.07851341366767883,675.0,-0.06874901801347733,-26.999977519954097,-0.07211993597447872,-11.813161984988207,-21.69526827789468,-2.006441315152915,0.00087890625,0.716054804623127,-1.0019451349973678,9.732311218613176e-06,-0.7115734434359183,0.024796572281047702,21.65252435662918,0.4749193489551544,-11.54180287459292,6000.0,0.0,0.3694580078125,0.9765572533011436,0.0,-9.458409321943165,0.0,-14.051186494276534,0.0,0.0003692056066938676,4556724.0,2700.0,-14.024428653429059,0.0,-9.94407126032657,-9.428693894883953,0.0
0.34366160482168195,-26.9995461360985,0.9212052874936358,0.0,9.63041533016393,3.628112251441121,60,1525.0,-0.9999588951468468,-0.07848690785467624,675.0,-0.06874901801347733,-27.0,-0.07405923698097468,-11.773026198693454,-21.74594041845263,-1.9632873854265198,0.001025390625,0.7174655333161354,-1.0018677443265915,1.4079030449920538e-05,-0.7125893116914085,0.024638938857242464,21.726238011935088,0.4749193489551544,-11.513154484953386,6100.0,0.0,0.32880859375,0.9824911385774613,0.0,-9.628895755268479,0.0,-13.95748381203076,0.0,0.00038501746021211145,4647849.0,2700.0,-14.034905729718972,0.0,-10.088423222696813,-9.575294938181298,0.0
0.3466262839734554,-26.999998967913964,0.8439933350291667,0.0,9.580169280166924,3.8116343599798066,61,1550.0,-0.9999821841716766,-0.07781477700918912,675.0,-0.06874901801347733,-26.999999994284824,-0.07537828981876374,-11.748990149579944,-21.81090895639938,-1.9565537909162232,0.0008056640625,0.7176722049713135,-1.001950353384018,8.763984430970595e-06,-0.7084017368521017,0.02465083971619606,21.833981357708254,0.4749193489551544,-11.46828172352445,6200.0,0.0,0.3575439453125,0.9891797080636024,0.0,-9.585103246912425,0.0,-14.140608122933438,0.0,0.00036813834303757177,4738974.0,2700.0,-13.996422557963708,0.0,-10.014800930992012,-9.511925628105264,0.0
0.349353189766407,-26.999999983694686,0.7667304442507898,0.0,9.707108073878954,4.224990104218271,62,1575.0,-0.9999905169010163,-0.07785372566431761,675.0,-0.06874901801347733,-27.0,-0.0772067228332162,-11.847753974801861,-21.782850014492208,-2.005007792296965,0.00068359375,0.7176823809742927,-1.0019833624362946,6.863277258162271e-06,-0.7107740651073982,0.024729475565254688,21.81639500258524,0.4749193489551544,-11.57218608123354,6300.0,0.0,0.375927734375,0.9945007562637329,0.0,-9.70519482228277,0.0,-13.959349567565761,0.0,0.0003613956971094012,4830099.0,2700.0,-14.089460093177602,0.0,-10.147948869589694,-9.64204547503292,0.0
0.35196527987718584,-27.0,0.9348949921279729,0.0,9.72529510561514,6.374844129340102,63,1600.0,-0.999976459145546,-0.07793979346752167,675.0,-0.06874901801347733,-27.0,-0.07868567109107971,-11.690430476244467,-21.824790325687466,-1.9800715305922494,0.000830078125,0.7176179885864258,-1.00211081802845,1.0072855275211623e-05,-0.7103397873994254,0.024445965234190226,21.81656876858239,0.4749193489551544,-11.41630339579722,6400.0,0.0,0.3218017578125,1.0012188255786896,0.0,-9.710330752975425,0.0,-13.905546430428958,0.0,0.00033535103866597635,4921224.0,2700.0,-14.023192938409117,0.0,-10.149846646106841,-9.643360748979925,0.0
0.3556527577340603,-27.0,0.8827409876379566,0.0,9.581986390722705,4.465556753444828,64,1625.0,-0.9999727979302406,-0.07622927371412516,675.0,-0.06874901801347733,-27.0,-0.07896556723862887,-11.828286006953615,-21.830154438086595,-2.0152028044285544,0.000732421875,0.7209103733301163,-1.0020852923393249,1.09053563278394e-05,-0.7092881588236196,0.02402441422455013,21.79853982179148,0.4749193489551544,-11.575715894243775,6500.0,0.0,0.3623291015625,1.0095469564199449,0.0,-9.59096158552517,0.0,-13.977558416121981,0.0,0.00034056882068398406,5012349.0,2700.0,-13.983328603303434,0.0,-10.035492771369107,-9.526506542214216,0.0
0.3581176847219467,-26.999999999999993,0.9008153498530742,0.0,9.58615907459488,4.000134938333841,65,1650.0,-0.9999795451760292,-0.07628092654049397,675.0,-0.06874901801347733,-27.0,-0.08044499233365059,-11.804676367067092,-21.817210774711764,-1.987277459865436,0.000927734375,0.7221774965524673,-1.0020451486110686,9.36477796926738e-06,-0.7077900693373522,0.023802383104339242,21.80232183359565,0.4749193489551544,-11.53387430293572,6600.0,0.0,0.3737060546875,1.0159705221652984,0.0,-9.598700293918366,0.0,-13.97287652244966,0.0,0.00034876976496889256,5103474.0,2700.0,-13.987252608597288,0.0,-10.030792723770915,-9.528016164372778,0.0
0.36128430962562563,-27.0,0.7247705495387574,0.0,9.648142951301441,6.13673743032638,66,1675.0,-0.9999812200665474,-0.07607020288705826,675.0,-0.06874901801347733,-27.0,-0.08158097602427006,-11.774628676463962,-21.731914905626944,-2.0123615735203204,0.00078125,0.7227007016539574,-1.0020668983459473,8.985665806449105e-06,-0.7089505675750842,0.02326490208506584,21.676397833301735,0.4749193489551544,-11.487563209188078,6700.0,0.0,0.334130859375,1.0242126435041428,0.0,-9.657913804331134,0.0,-13.848264085815808,0.0,0.0003443280373176094,5194599.0,2700.0,-14.001594906428023,0.0,-10.094910010107549,-9.591511708205223,0.0
0.3655071444809437,-27.0,0.7385016525959249,0.0,9.72451675036812,5.120475330760201,67,1700.0,-0.9999868720769882,-0.07465345747768878,675.0,-0.06874901801347733,-27.0,-0.08313219733536244,-11.703377548463632,-21.784826005788368,-1.9765229650955007,0.000732421875,0.7254126325249672,-1.0020449489355088,7.69224061514251e-06,-0.7121394364679873,0.022279118420556188,21.71369665861087,0.4749193489551544,-11.438359234278332,6800.0,0.0,0.3800048828125,1.0329883456230164,0.0,-9.715013659770474,0.0,-14.072954067785128,0.0,0.00034881109168054535,5285724.0,2700.0,-13.977543907190134,0.0,-10.164298224779074,-9.65746028703102,0.0
0.3688525542616844,-27.0,0.6517528258482475,0.0,9.413843336781962,3.645298034765478,68,1725.0,-0.9999865874648094,-0.07340288646519184,675.0,-0.06874901801347733,-27.0,-0.08479976486414671,-11.690688022873271,-21.7169310657562,-2.0184436164207,0.00068359375,0.7263324081897735,-1.00207277238369,7.76098704591277e-06,-0.7068048132983676,0.021567871142178775,21.675047654866013,0.4749193489551544,-11.41517382081906,6900.0,0.0,0.3569091796875,1.0395754843950271,0.0,-9.406012484847883,0.0,-14.011255494690356,0.0,0.0003431261400692165,5376849.0,2700.0,-14.020569930753847,0.0,-9.864001108504912,-9.355593856615986,0.0
0.370668076723814,-27.0,0.800143258050495,0.0,9.741123408657607,4.288151585847244,69,1750.0,-0.9995189934968949,-0.07364524900913239,675.0,-0.06874901801347733,-27.0,-0.08637836724519729,-11.88606693908048,-21.662979440442086,-2.0020278497904656,0.0009521484375,0.7271519303321838,-0.9973174184560776,0.00011447589693034388,-0.7110632126976271,0.020647260500118135,21.642063098730194,0.4749193489551544,-11.638060808731433,7000.0,0.0,0.3139404296875,1.047561025619507,0.0,-9.73103450096953,0.0,-13.993053494126125,0.0,0.0013146851910278202,5467974.0,2700.0,-14.05056478168496,0.0,-10.179466675040828,-9.673239357899442,0.0
0.3729023352265358,-27.0,1.0186456569886357,0.0,9.663872838386151,5.158060181039703,70,1775.0,-0.9997917979955673,-0.07364524900913239,675.0,-0.06874901801347733,-27.0,-0.08650230672210454,-11.947090935335348,-21.79086683120183,-1.98819147451577,0.0012939453125,0.7271519303321838,-0.9983556061983109,5.221481444550591e-05,-0.7076961944367213,0.02001461503095925,21.77724113993695,0.4749193489551544,-11.717622708972044,7100.0,0.0,0.3120361328125,1.0545347094535829,0.0,-9.663032709501131,0.0,-13.955749081493597,0.0,0.001102575247932691,5559099.0,2700.0,-14.010503718680035,0.0,-10.090077133116193,-9.595329829615187,0.0
0.37449957728385924,-27.0,1.2109814749794765,0.0,9.659258344310029,5.496416296799465,71,1800.0,-0.9994791209697723,-0.07364524900913239,675.0,-0.06874901801347733,-27.0,-0.08780317045748234,-12.048078582294798,-21.798207970795033,-2.0266308286605637,0.000830078125,0.7271519303321838,-0.999208927154541,0.00012357870683672446,-0.7095540125163098,0.01937777381390333,21.790039051364232,0.4749193489551544,-11.78030520887177,7200.0,0.0,0.3384521484375,1.0604112446308136,0.0,-9.654400995761279,0.0,-14.017956753268512,0.0,0.0009282350569264963,5650224.0,2700.0,-13.991014946394042,0.0,-10.081340663751938,-9.585149279123259,0.0
0.3754140496253967,-27.0,0.900460532241846,0.0,9.6818911184073,3.5471928188564803,72,1825.0,-0.999395526945591,-0.07364531457424164,675.0,-0.06874901801347733,-27.0,-0.08762619532644748,-11.868031983674365,-21.871759726895522,-1.9898297351515795,0.0009765625,0.7271518707275391,-0.9996790155768395,0.00014265680669041104,-0.7095366311586986,0.01917244796641171,21.874103543070113,0.4749193489551544,-11.617911170609156,7300.0,0.0,0.317431640625,1.0648649215698243,0.0,-9.666818631624192,0.0,-14.033056631947552,0.0,0.0008321944493218325,5741349.0,2700.0,-14.030956202737064,0.0,-10.098418590361916,-9.598164601214632,0.0
0.3774224042892456,-27.0,0.7823592599319531,0.0,9.471982778512437,3.857028003497246,73,1850.0,-0.9996508106589317,-0.07364656031131744,675.0,-0.06874901801347733,-27.0,-0.08800179939717054,-11.937380059515544,-21.838945191770858,-2.008930915036035,0.000927734375,0.7271501421928406,-0.9998686656355857,8.439174131353866e-05,-0.7096154486564046,0.018461248418316246,21.84465755479073,0.4749193489551544,-11.689553582233994,7400.0,0.0,0.333935546875,1.0704656273126603,0.0,-9.478933001118873,0.0,-14.034000721650992,0.0,0.0007934446228318847,5832474.0,2700.0,-14.020483505922565,0.0,-9.933054853141503,-9.423756952979257,0.0
0.3786137618124485,-27.0,0.9247497656062823,0.0,9.660142539541207,3.2344129308853056,74,1875.0,-0.9999840468168258,-0.0736466646194458,675.0,-0.06874901801347733,-27.0,-0.08817993812263011,-11.859299876063876,-21.8342331135161,-2.005699846143398,0.0010986328125,0.7271488308906555,-1.0002913028001785,8.339167698068195e-06,-0.7100872379262,0.017973729223012925,21.840090381021835,0.4749193489551544,-11.588784524409656,7500.0,0.0,0.3459716796875,1.075963106751442,0.0,-9.652551614871253,0.0,-14.099734536261105,0.0,0.0007070983978337608,5923599.0,2700.0,-14.048310039222716,0.0,-10.084595076364499,-9.590680368144039,0.0
0.38070452213287354,-27.0,0.5341439054220614,0.0,9.272082047169173,4.778029864388699,75,1900.0,-0.9999781221151351,-0.07364681363105774,675.0,-0.06874901801347733,-27.0,-0.08812865503132343,-11.59662432013545,-21.813981765601646,-1.9933140852961515,0.0011474609375,0.727148711681366,-1.000251217186451,9.691286709312408e-06,-0.707948045113153,0.0180571710690856,21.818220426676838,0.4749193489551544,-11.326139526213575,7600.0,0.0,0.334130859375,1.07882040143013,0.0,-9.287075314392851,0.0,-13.950242906617031,0.0,0.0007152858219342306,6014724.0,2700.0,-14.15942014813791,0.0,-9.77274747001451,-9.252221453962438,0.0
0.3805190086364746,-27.0,0.6182673234139553,0.0,9.367263593498784,2.7796558032045477,76,1925.0,-0.9999899700284004,-0.0736469179391861,675.0,-0.06874901801347733,-27.0,-0.0878505812957883,-11.54110465309941,-21.830993218041865,-1.9798581630180707,0.0009521484375,0.7271485924720764,-1.000219264626503,6.986403184328082e-06,-0.7080027993048134,0.0174585634842515,21.83336540737917,0.4749193489551544,-11.266209840471372,7700.0,0.0,0.34560546875,1.082982313632965,0.0,-9.375598599200845,0.0,-13.97673898412195,0.0,0.000721816168515943,6105849.0,2700.0,-13.99491532365996,0.0,-9.828745075987388,-9.324245501845603,0.0
0.37632899135351183,-27.0,0.6854165159295688,0.0,10.189540001509481,4.078777605691866,77,1950.0,-0.9999715328216553,-0.0736493319272995,675.0,-0.06874901801347733,-27.0,-0.08646724075078964,-11.772613033402184,-21.865919731456987,-1.997502977203112,0.00107421875,0.727146565914154,-1.0004014566540718,1.1195649938144924e-05,-0.7100931869761553,0.01790219028480351,21.863747758144694,0.4749193489551544,-11.513873954782602,7800.0,0.0,0.335595703125,1.086288532614708,0.0,-10.172072940845798,0.0,-13.997081849434506,0.0,0.0006845899421023205,6196974.0,2700.0,-13.977575227026731,0.0,-10.29603978371585,-10.112644875635985,0.0
0.3744238458573818,-27.0,0.6350971813201978,0.0,10.355096291996295,4.595613703728384,78,1975.0,-0.9999757900834083,-0.0736493319272995,675.0,-0.06874901801347733,-27.0,-0.0879399299621582,-11.78123022997505,-21.872719528363376,-2.0144114279355563,0.001025390625,0.727146565914154,-1.000258395075798,1.0222994978903443e-05,-0.7111329154169652,0.018573410995304584,21.823138585455155,0.4749193489551544,-11.500152385365777,7900.0,0.0,0.346240234375,1.0920981794595719,0.0,-10.340958643725862,0.0,-14.917503523206106,0.0,0.0007138181987102144,6288099.0,2700.0,-14.04915548022589,0.0,-10.462019741113124,-10.29384300790046,0.0
0.3739025168120861,-27.0,0.7788874724512406,0.0,10.227720599573455,2.9316645797051337,79,2000.0,-0.9999733179807663,-0.0736493319272995,675.0,-0.06874901801347733,-27.0,-0.09001899119466543,-11.92604013212277,-21.860447212407983,-1.9765136298985453,0.000830078125,0.727146565914154,-1.0003661334514617,1.0785643212329887e-05,-0.7106434016903223,0.018967687012627722,21.864687260501608,0.4749193489551544,-11.652014085730583,8000.0,0.0,0.3295166015625,1.0974398523569107,0.0,-10.21394677162947,0.0,-14.005380954075049,0.0,0.0006918094426509924,6379224.0,2700.0,-14.443241663843278,0.0,-10.348554455723706,-10.175248511845616,0.0
0.3742970071732998,-27.0,0.6442581099000796,0.0,10.293507566273925,4.3585911237199735,80,2025.0,-0.9999834105372429,-0.0736493319272995,675.0,-0.06874901801347733,-27.0,-0.09138537421822548,-11.923159130933833,-21.87798792978275,-1.9715849611253362,0.0012451171875,0.727146565914154,-1.0002744138240813,8.481469103571726e-06,-0.7116494262008928,0.018526184279471634,21.88523008028658,0.4749193489551544,-11.633830196281597,8100.0,0.0,0.3343017578125,1.1044912964105607,0.0,-10.293677577425544,0.0,-14.428506190363443,0.0,0.0007105467520887032,6470349.0,2700.0,-14.071415055266623,0.0,-10.445636130316588,-10.249409379900698,0.0
0.3753886081278324,-27.0,0.6155955754000806,0.0,10.397290112383539,4.0795585956292,81,2050.0,-0.9999870955944061,-0.0736493319272995,675.0,-0.06874901801347733,-27.0,-0.09117827322334052,-11.960817282426191,-21.87442543047513,-1.9798885063049965,0.001025390625,0.727146565914154,-1.0002555072307586,7.645514472187642e-06,-0.7123104374833928,0.01896842154674232,21.867160702188606,0.4749193489551544,-11.698046431385203,8200.0,0.0,0.360595703125,1.1108141154050828,0.0,-10.366325401608165,0.0,-14.309484849158023,0.0,0.0007144053583033383,6561474.0,2700.0,-14.153606938018156,0.0,-10.48315385023469,-10.322599578912476,0.0
0.3755913518369198,-27.0,0.6582774043990297,0.0,10.269250239686675,3.7432445818696665,82,2075.0,-0.9999842628836632,-0.0736493319272995,675.0,-0.06874901801347733,-27.0,-0.09069109745323659,-11.88958045622643,-21.886288341490083,-1.9934413505550765,0.0012451171875,0.727146565914154,-1.0002371937036514,8.290370612940023e-06,-0.710075138193497,0.019249107362702488,21.884714156597653,0.4749193489551544,-11.62365755583464,8300.0,0.0,0.3593994140625,1.1169732809066772,0.0,-10.25424383743352,0.0,-14.249380155625103,0.0,0.0007181510809459724,6652599.0,2700.0,-14.113261363186526,0.0,-10.373438700135996,-10.208377713655745,0.0
0.37648230567574503,-27.0,0.6054459337460276,0.0,10.281568717186582,3.9201183093897116,83,2100.0,-0.999980865418911,-0.0736493319272995,675.0,-0.06874901801347733,-27.0,-0.09041564967483282,-11.829141292262225,-21.810801037740767,-2.0258119771177006,0.001171875,0.727146565914154,-1.0003055796027183,9.06429796714292e-06,-0.7106349657311511,0.019045715034008027,21.802316075309093,0.4749193489551544,-11.54155115141123,8400.0,0.0,0.35166015625,1.1239190518856048,0.0,-10.274242456263138,0.0,-13.995156857764755,0.0,0.0007041767225018702,6743724.0,2700.0,-14.003677215354504,0.0,-10.42934199645966,-10.246143148796955,0.0
0.3782151289284229,-26.999999999999993,0.7047227507460543,0.0,10.27649444702902,4.205036551574313,84,2125.0,-0.9999882191419601,-0.0736493319272995,675.0,-0.06874901801347733,-27.0,-0.09112857244908809,-11.909318556961276,-21.811861127703775,-2.0258706825108677,0.0006591796875,0.727146565914154,-1.0002521082758904,7.38410217877572e-06,-0.7112978266581195,0.018884175131097435,21.79305428077863,0.4749193489551544,-11.619128961497017,8500.0,0.0,0.36591796875,1.1297506630420684,0.0,-10.25629742869506,0.0,-14.09338258188104,0.0,0.0007151044585043565,6834849.0,2700.0,-14.001555039906375,0.0,-10.405501004691963,-10.224362952982252,0.0
0.37903917133808135,-27.0,0.5667769800746749,0.0,10.21845242278798,3.2261306739746125,85,2150.0,-0.9999865725636482,-0.0736493319272995,675.0,-0.06874901801347733,-27.0,-0.0902773866429925,-11.773857084916166,-21.777544042167477,-1.992417821577692,0.0013427734375,0.727146565914154,-1.0001432612538337,7.75925873313099e-06,-0.709893195812765,0.019042960600927472,21.756688544907483,0.4749193489551544,-11.491162595918881,8600.0,0.0,0.360546875,1.138141480088234,0.0,-10.182795443261227,0.0,-13.966861326839355,0.0,0.0007373427128186449,6925974.0,2700.0,-14.051395522413111,0.0,-10.336081841369676,-10.157180940594003,0.0
0.3801089361310005,-27.0,0.6383207866019147,0.0,10.319068470540108,3.7180471992689563,86,2175.0,-0.9999787315726281,-0.0736493319272995,675.0,-0.06874901801347733,-27.0,-0.09009715914726257,-11.647399713899887,-21.8294861645062,-2.0055956494717977,0.001220703125,0.727146565914154,-0.9999852493405342,9.549808476094768e-06,-0.7104141754702141,0.018826447380706667,21.816411529631488,0.4749193489551544,-11.368230934374438,8700.0,0.0,0.366650390625,1.145643800497055,0.0,-10.301436870960528,0.0,-13.879697534042073,0.0,0.0007696263157413342,7017099.0,2700.0,-14.000097826409892,0.0,-10.437169130478702,-10.270207485973547,0.0
0.38201508298516273,-27.0,0.744070364087784,0.0,10.173255974088201,2.804184007876057,87,2200.0,-0.9999846160411835,-0.07367458678781987,675.0,-0.06874901801347733,-27.0,-0.0912911530584097,-11.627796744318841,-21.792551039671928,-1.984223055189068,0.001220703125,0.7271449267864227,-1.0001599729061126,8.209049497054366e-06,-0.708769163468969,0.018297938536852597,21.79149733128142,0.4749193489551544,-11.362473444846934,8800.0,0.0,0.3569580078125,1.1508463382720948,0.0,-10.139771190887563,0.0,-13.978118793079009,0.0,0.0007339271920500323,7108224.0,2700.0,-13.989503030270495,0.0,-10.289441448775015,-10.111217692625754,0.0
0.3839315205812454,-27.0,0.7937922294726156,0.0,10.469531320033434,3.452360693115503,88,2225.0,-0.9999807253479958,-0.07367497682571411,675.0,-0.06874901801347733,-27.0,-0.09133458454161883,-11.540487795183477,-21.81582299851028,-1.959171782577323,0.0010009765625,0.7271448969841003,-1.000252754986286,9.098266536966548e-06,-0.7129420199125889,0.018550609471276402,21.82794620549236,0.4749193489551544,-11.254710785034828,8900.0,0.0,0.3688720703125,1.154964229464531,0.0,-10.445088249810516,0.0,-13.945154673186307,0.0,0.0007149738958105445,7199349.0,2700.0,-14.00722201596625,0.0,-10.563905776401313,-10.409207642271994,0.0
0.3863480225205421,-27.0,0.6385518034747802,0.0,10.21073288765117,2.7222491636721378,89,2250.0,-0.9999866485595703,-0.07214074525982142,675.0,-0.06874901801347733,-27.0,-0.09177257101982832,-11.417645925520727,-21.8940350655051,-1.9498085678169446,0.00107421875,0.7279847428202629,-1.000276318192482,7.746886660697783e-06,-0.7099542583506263,0.01806843588128686,21.878711274944347,0.4749193489551544,-11.144974081380147,9000.0,0.0,0.366650390625,1.159345382452011,0.0,-10.191094823083585,0.0,-14.012677750337854,0.0,0.0007101583629264496,7290474.0,2700.0,-13.998156420738281,0.0,-10.349575792998367,-10.160689437908507,0.0
0.38788353055715563,-27.0,0.6956482356234496,0.0,10.25991775166767,2.575773971177248,90,2275.0,-0.9999882221221924,-0.07149551138281822,675.0,-0.06874901801347733,-27.0,-0.09233073405921459,-11.401528741932763,-21.846833902633335,-1.972878921728261,0.00087890625,0.7284830048680305,-1.0002744391560554,7.382672208677832e-06,-0.7106142355733027,0.018054053653031588,21.846133160795105,0.4749193489551544,-11.119088197657058,9100.0,0.0,0.368115234375,1.1639363437891006,0.0,-10.227615234665938,0.0,-13.965034140782416,0.0,0.0007105406431946904,7381599.0,2700.0,-14.005803929604868,0.0,-10.391002881906687,-10.200717984568296,0.0
0.3895268298685551,-27.0,0.8506164205084431,0.0,10.231022713189946,3.677963405547955,91,2300.0,-0.999986144900322,-0.0703384205698967,675.0,-0.06874901801347733,-27.0,-0.0917463056743145,-11.538408368312139,-21.75059633033728,-1.9428007841503132,0.0010498046875,0.7290005683898926,-1.0004453033208847,7.858491767365194e-06,-0.7092093848077639,0.01787081705406308,21.750678870729065,0.4749193489551544,-11.249333859607843,9200.0,0.0,0.359326171875,1.1686421632766724,0.0,-10.223376121155633,0.0,-14.00502617148921,0.0,0.0006756296410458162,7472724.0,2700.0,-14.061975007181927,0.0,-10.36409539168216,-10.195370306792643,0.0
0.39045323580503466,-27.0,0.6207813222664358,0.0,10.398648623101769,4.1673419069743645,92,2325.0,-0.9999946907162667,-0.0703384205698967,675.0,-0.06874901801347733,-27.0,-0.0915269486606121,-11.584990550678809,-21.769348266444318,-1.9844831035516108,0.001025390625,0.7290005683898926,-1.0002406239509583,5.910644671303089e-06,-0.7117527143651387,0.017786894040182234,21.7700244169804,0.4749193489551544,-11.308320385362652,9300.0,0.0,0.3807861328125,1.1718913614749908,0.0,-10.360455787777912,0.0,-13.980037542812518,0.0,0.0007174510188633576,7563849.0,2700.0,-13.996127217434799,0.0,-10.506949040772891,-10.324272503420907,0.0
