ReemS3/reg_curious_hac/data/d4a6886/CausalDependenciesMujocoEnv-o1-v0/alg:chac|eta:0.25|fw:1|fwhidsiz:256,256,256|nlev:2|reg:True|rolbatsiz:1|timsca:27,27|101/progress.csv
train_0/avg_q,test_0/avg_q,train_1/target_q,train_0/q_grads_std,train_1/current_q,train_1/reward,test_1/n_subgoals,train_1/mu_grads_std,train_1/next_q,train_1/avg_q,train/episodes,train_0/next_q,train_0/mu_grads,test_1/subgoal_succ_rate,train_0/mu_loss,train_1/reward_-27.0_frac,test_1/avg_q,train_0/reward_-1.0_frac,train_1/fw_loss,train_0/mu_grads_std,train_0/q_grads,train_0/reward,epoch,train_0/q_loss,train_0/target_q,train_0/current_q,train_1/q_grads,train_1/q_grads_std,train_1/n_subgoals,test/episodes,test/success_rate,train_1/reward_-0.0_frac,train_0/reward_-0.0_frac,train_1/fw_bonus,train_1/mu_loss,train_1/mu_grads,train_0/fw_loss,train_0/fw_bonus,train/success_rate,policy/steps,train_1/subgoal_succ_rate,train_1/reward_-1.0_frac,train_1/q_loss
-2.2490800431403426,-3.685642189476988,-7.567790865085522,0.14790587238967418,-7.57249816259899,-1.47845242733747,1581.0,0.1323999110609293,-7.619966248588389,-4.730852851826985,100.0,-3.21968420308029,-0.006549196178093552,0.5939278937381404,3.2126503087534446,0.0,-9.77529367788812,4.8828125e-05,0.0013763794850092381,0.1630187064409256,0.015210024104453624,-0.8675429530805558,0,0.8099359657055913,-3.4308635675938404,-3.35083405688351,0.013967933342792093,0.18540380634367465,2700.0,25.0,0.0,0.0,0.0,-0.9981741890311241,7.710649919734513,-0.002384721057023853,0.00022978579836490097,-0.9991799905896187,0.0,84253.0,0.12,0.001904296875,3.715504244904082
-14.437122963576208,-2.355967034041814,-6.225099953393197,0.19035656452178956,-6.232301857591476,-1.4637706205467111,675.0,0.1374832347035408,-6.369125097698314,-8.701941375623651,200.0,-4.829468839615229,-0.003920362616190687,0.0,4.785361577107901,0.0,-7.678152262812859,0.0001220703125,0.0012659162079216913,0.2086580254137516,0.022758836997672914,-0.8650885874885716,1,1.0045178123294325,-5.041001406167337,-4.765829650814661,0.009504661639221012,0.20246944017708302,2700.0,50.0,0.0,0.0,0.0,-0.9985935732722282,6.383725347639611,-0.0013258333085104824,0.0001875842262961669,-0.9993336230516434,0.0,168945.0,0.10333333333333333,0.0017822265625,2.4537703867237775
-11.373020710589936,-18.928792961425575,-5.7465792269788505,0.20614757463335992,-5.7430280251720145,-1.469855268970423,1198.0,0.14681944027543067,-5.9183698485276635,-7.9113490545246234,300.0,-5.24624263979104,-0.0056570933316834274,0.4532554257095159,5.271324941664375,0.0,-11.568082821872691,7.32421875e-05,0.0012575374334119261,0.216995420306921,0.02185619226656854,-0.8626739945539157,2,0.280943818768293,-5.484299399870062,-5.3998409144359245,0.005668153532315046,0.23765551000833512,2700.0,75.0,0.0,0.0,0.0,-0.9986253798007965,5.971967369244541,0.0003036712769244332,0.00016434908429800997,-0.999418193101883,0.0,258076.0,0.03222222222222222,0.0013427734375,1.7775970354114066
-20.67821576644585,-26.99999999979661,-5.425287411578604,0.230851536616683,-5.454008426524366,-1.4672971649211832,675.0,0.15929975993931295,-5.517950174060742,-8.475445716038221,400.0,-12.455475896335304,-0.006391181459184736,0.0,12.519864480135215,0.0,-7.2899803031099255,0.000439453125,0.0012149229092756285,0.2239258587360382,0.02327428525313735,-0.8609780415616115,3,4.602506100681855,-10.904251033253152,-10.770566266187554,0.005443731066770851,0.2725105285644531,2700.0,100.0,0.0,0.0,0.0,-0.998787172138691,5.6277941426028395,0.0003868719119054731,0.0001349839523754781,-0.9995250925421715,0.0,347531.0,0.02666666666666667,0.0015380859375,1.2025708871435585
-26.999747356907356,-27.0,-2.8928431294497052,0.24177101776003837,-2.8515293471057284,-1.4654729719288297,675.0,0.1717354167252779,-2.1463498960869503,-7.221767803375535,500.0,-12.118386980276616,-0.0063914339756593105,0.0,12.23405926747561,0.0,-6.741204296833635,0.0001220703125,0.0012725324952043593,0.22392573952674866,0.024432068411260843,-0.8608938994861092,4,4.015766642784795,-10.9751092654259,-10.789466931227732,-0.003014893422368914,0.29397955983877183,2700.0,125.0,0.0,0.0,0.0,-0.9985684514045715,2.118032072988849,0.0017886374582303688,0.00012556253914226546,-0.9995593741536141,0.0,438656.0,0.0,0.0013671875,0.8139167000855512
-27.0,-27.0,-2.76949685501575,0.24930101670324803,-2.7445069283473833,-1.4652215818859986,675.0,0.17296713925898075,-2.132202698339763,-7.211993019263239,600.0,-11.991526324558887,-0.006391529820393771,0.0,12.088381160596287,0.0,-8.17275274859794,0.0005859375,0.0012686480826232583,0.22392570972442627,0.024669757438823582,-0.8601869544290821,5,3.08043753170123,-11.09590036408807,-10.947971955248066,-0.002857223863247782,0.29674008712172506,2700.0,150.0,0.0,0.0,0.0,-0.9985832199454308,2.066509524468574,0.004084368597250432,0.0001229375793627696,-0.9995689317584038,0.0,529781.0,0.0,0.0011962890625,0.7316487782751175
-26.871992052573052,-27.0,-2.4483329490747856,0.25633206963539124,-2.4509847448288737,-1.5037255773379001,675.0,0.17208097614347934,-1.6311595051386019,-7.056896950061084,700.0,-12.55900713834249,-0.006394851615186781,0.0,12.668525325733706,0.0,-7.438393304730258,0.0004638671875,0.001130400063993875,0.22392495945096016,0.02545848595909774,-0.8650872915575747,6,3.0766057513477985,-11.896209983358299,-11.750237427579936,-0.0049614148796536025,0.303817443549633,2700.0,175.0,0.0,0.0,0.0,-0.999108062684536,1.6183737599825605,-0.0005464777495944872,9.192670440825169e-05,-0.9996818214654922,0.0,620906.0,0.0,0.001171875,0.4946959561508216
-26.82556486432432,-26.99754930227032,-1.9382089239815063,0.26134507432579995,-1.941058033548036,-1.4856401064243983,675.0,0.17636107839643955,-0.7894307752773563,-7.434909690003974,800.0,-12.531161239675086,-0.006415730982553214,0.0,12.650883956301175,0.0,-7.677608133280445,0.0009033203125,0.0010213435787591151,0.22391984537243842,0.025906057702377437,-0.8655127458332572,7,2.5258063603391485,-11.981617695172407,-11.790775183481207,-0.005505421943962574,0.30997535660862924,2700.0,200.0,0.0,0.0,0.0,-0.9995220944285392,0.769253952343049,0.0005380734801292419,7.693351553825778e-05,-0.9997363939881325,0.0,712031.0,0.0,0.0010986328125,0.25520806771498694
-26.996437910919223,-27.0,-1.8414790748990348,0.2754088297486305,-1.8448712365748396,-1.501927332303603,675.0,0.1796799398958683,-0.6499060445542342,-7.455915932142272,900.0,-17.282490990865192,-0.00993290077894926,0.0,17.340792101302657,0.0,-7.424359808480513,0.00419921875,0.0009130960970651358,0.22918112576007843,0.022641569562256336,-0.8637964324909262,8,6.1066960782681425,-11.704276011551224,-11.407728147517156,-0.006658983742818236,0.31502798944711685,2700.0,225.0,0.0,0.0,0.0,-0.9999330714344978,0.6403409332198684,-0.00028706107477773914,7.514671997341794e-05,-0.9997429057955742,0.0,803156.0,0.0,0.00068359375,0.1237690279565847
-26.696500800017976,-26.90571995787286,-4.72433543676779,0.28296399414539336,-4.651394915108317,-1.523075836703356,675.0,0.17935402244329451,-4.90552671248185,-7.290132155192633,1000.0,-15.795400455221676,-0.00993290077894926,0.0,15.913783103465175,0.0,-4.931109796279046,0.004296875,0.000844564642466139,0.22918112576007843,0.022433403041213752,-0.8647987185540842,9,4.520948010648057,-11.8523853767643,-11.543529191308304,-0.009263853868469596,0.33233497217297553,2700.0,250.0,0.0,0.0,0.0,-1.0001932308077812,4.930873744437194,-0.0024887059058528393,7.466708575520897e-05,-0.9997446566820145,0.0,892848.0,0.023703703703703703,0.00068359375,3.4261406522415596
-26.196068825486343,-26.999999996099596,-4.703792835092948,0.2910254172980785,-4.337135040084366,-1.5139760002100957,675.0,0.18138691112399102,-4.477741225916235,-6.774514084168604,1100.0,-15.162828824521153,-0.00993290077894926,0.0,15.281025437524557,0.0,-3.755980642049252,0.00546875,0.000878683825430926,0.22918112576007843,0.022292282059788705,-0.8672507741255686,10,3.7748178867820186,-11.944535414872501,-11.648323170997378,-0.007931451313197613,0.34658692479133607,2700.0,275.0,0.0,0.0,0.0,-1.0000636965036391,4.348322986929176,-0.0029864414827898145,7.300207125808811e-05,-0.9997506976127625,0.0,982388.0,0.028888888888888888,0.000732421875,2.5223495485828247
-26.941776552600572,-27.0,-6.759757405516586,0.2974763005971909,-6.624788402087255,-1.4995534087720443,675.0,0.1799211334437132,-7.391687973878237,-6.284188730688537,1200.0,-14.100225010346781,-0.00993290077894926,0.0,14.256870188864795,0.0,-6.5371345030284065,0.0006103515625,0.0021690968482289464,0.22918112576007843,0.022417435608804225,-0.8608964382547128,11,4.589283222946831,-11.470318594977766,-11.244338107708447,-0.005571573250927031,0.35692235380411147,2700.0,300.0,0.0,0.0,0.0,-0.9951646372675895,7.624005669569596,0.000631584243819816,0.00011569008220249088,-0.9995953187346458,0.0,1072356.0,0.02259259259259259,0.0006591796875,3.807353991470818
-27.0,-27.0,-4.284001881317391,0.3041111074388027,-4.293566885929009,-1.5202173640012915,675.0,0.17864129096269607,-4.067095691891181,-7.3846040937944455,1300.0,-13.131892501389354,-0.00993290077894926,0.0,13.187748980478592,0.0,-8.02926268014928,0.006689453125,0.001636247496935539,0.22918112576007843,0.022021143091842534,-0.8634986735371057,12,3.749646560375106,-11.570778549501531,-11.370563194290204,-0.0059530577273108065,0.35938322395086286,2700.0,325.0,0.0,0.0,0.0,-0.9971875891089439,4.133497375009007,-0.00014964223446440884,6.795880126446719e-05,-0.9997690588235855,0.0,1163481.0,0.0,0.0005615234375,0.6534821919028968
-26.995205911805574,-26.999999999999943,-3.8902387240032765,0.30931113958358764,-3.8367002539377695,-1.5014732730756806,675.0,0.18302564397454263,-3.4181228930674195,-7.737854431794015,1400.0,-11.858647890831657,-0.00993290077894926,0.0,11.958549038650727,0.0,-7.1450739627841795,0.006591796875,0.0013040652556810528,0.22918112576007843,0.021409950265660883,-0.8627108542808856,13,3.6706965521035797,-11.344081207461873,-11.131605234997945,-0.006618100986815989,0.36851928755640984,2700.0,350.0,0.0,0.0,0.0,-0.9984487488865852,3.474569480278967,0.0009331698340247386,8.601450308560743e-05,-0.9997033447027206,0.0,1254586.0,0.00037037037037037035,0.000830078125,0.5037446865842028
-26.964896827839787,-26.715696966034454,-3.97709055860014,0.3141905263066292,-3.968723521976007,-1.4874962727975798,678.0,0.1855050977319479,-3.7640731182619924,-7.383075544006666,1500.0,-11.38077413280398,-0.00993290077894926,0.004424778761061947,11.465533618006408,0.0,-7.475713039507362,0.006640625,0.0010939793326542712,0.22918112576007843,0.02097604488953948,-0.863103927254997,14,3.2881651953222204,-11.254125947559439,-11.03114240251676,-0.007420406944584101,0.37579610720276835,2700.0,375.0,0.0,0.0,0.0,-0.9992463514208794,3.7954069265843176,0.0013045899657299742,9.629598207538947e-05,-0.9996659129858017,0.0,1345678.0,0.0011111111111111111,0.0010009765625,0.35270301644636587
-26.864198667248353,-26.99939960692581,-3.900773598709921,0.3184287942945957,-3.896586972120697,-1.4843214971158887,675.0,0.18956511169672013,-3.48731757792991,-7.523934582721269,1600.0,-11.578534446678145,-0.00993290077894926,0.0,11.6404738989354,0.0,-7.628802777946427,0.0105224609375,0.0008949614726589062,0.22918112576007843,0.020316198654472827,-0.8635956441743474,15,3.4006371415412184,-11.40902413057422,-11.1316619317291,-0.006284211843740195,0.38708395063877105,2700.0,400.0,0.0,0.0,0.0,-1.0000019088387488,3.449367526679641,0.0013615454692626372,9.503755140940484e-05,-0.9996704876422882,0.0,1436766.0,0.0011111111111111111,0.000732421875,0.18850399552055483
-26.988002758757716,-27.0,-1.5033487282303946,0.32263252288103106,-1.5023726674210978,-1.503311995076365,675.0,0.19214904196560384,-7.122514881858416e-05,-7.36933113100364,1700.0,-12.17214905660706,-0.00993290077894926,0.0,12.24297555966421,0.0,-7.493044860983906,0.027001953125,0.0006990339796175248,0.22918112576007843,0.020084784366190434,-0.8622327176766703,16,2.3270815083445298,-11.379169915975247,-11.199906104122345,-0.011485876142978668,0.3916972503066063,2700.0,425.0,0.0,0.0,0.0,-1.0007457464933396,0.0002847827607280969,0.0038745555386412887,4.20572258917673e-05,-0.9998633518815041,0.0,1527801.0,0.0014814814814814814,0.0009521484375,0.02435184955714124
-27.0,-27.0,-1.4943054377211125,0.3272495403885841,-1.493550449866125,-1.4941114231784014,675.0,0.19290117360651493,-0.00031745981821598295,-7.463368484684701,1800.0,-13.005877377167845,-0.014462447096593677,0.0,13.068556117255905,0.0,-7.573699910333011,0.0155029296875,0.000702081448980607,0.23546043410897255,0.01867910157889128,-0.8651849186600884,17,4.547530124142606,-11.336555989362004,-11.074874401426296,-0.012088371254503728,0.3943306103348732,2700.0,450.0,0.0,0.0,0.0,-1.0007341861724854,0.00037119422595983107,0.0045903105870820585,4.275336400496599e-05,-0.999860805273056,0.0,1618926.0,0.0,0.000830078125,0.017384893723010466
-27.0,-27.0,-1.497169000941705,0.330556382983923,-1.4974603294252316,-1.497164001238707,675.0,0.1938126940280199,-1.2688379458808607e-05,-7.514283761478517,1900.0,-11.424043808347555,-0.014322209823876619,0.0,11.490082276725648,0.0,-7.469991834031556,0.0207763671875,0.0007017932817689143,0.23980974331498145,0.01860370272770524,-0.8697866922026151,18,1.9898223008633031,-11.372021111621516,-11.119874190669737,-0.013102265098132193,0.3987804614007473,2700.0,475.0,0.0,0.0,0.0,-1.000735267996788,1.4980340173949e-05,0.005210439849179238,4.061932804688695e-05,-0.9998685851693153,0.0,1710051.0,0.0,0.000830078125,0.011054129646618107
-27.0,-27.0,-1.5046522275896816,0.33204948231577874,-1.5047566910506167,-1.504651528717659,675.0,0.1941645435988903,-1.4817839954867085e-06,-7.487828146769944,2000.0,-11.024156817501435,-0.015228238212876022,0.0,11.050761989629228,0.0,-7.4905901038915275,0.0400390625,0.0007044588273856789,0.24276673160493373,0.017764395847916604,-0.8671703872925718,19,1.6849917103074354,-10.996631241909503,-10.796363231968382,-0.014528579520992934,0.40753769874572754,2700.0,500.0,0.0,0.0,0.0,-1.000725159049034,1.4398833046713536e-06,0.005677979765459895,3.537764605425764e-05,-0.999887666106224,0.0,1801176.0,0.0,0.000927734375,0.011315735229489374
-27.0,-27.0,-1.4871338897429116,0.3340294972062111,-1.4875392729753323,-1.4871338891185588,675.0,0.19417076818645002,-1.3464077217161598e-09,-7.492571298561121,2100.0,-11.171001791647345,-0.014613830903545021,0.0,11.249432116512605,0.0,-7.513735997359751,0.0268310546875,0.0007132262748200446,0.25096139758825303,0.016930270241573453,-0.8664053965519998,20,1.7199610215511207,-11.150054615103752,-10.969245623303486,-0.015082872798666358,0.4182549424469471,2700.0,525.0,0.0,0.0,0.0,-1.000691869854927,3.612063562675609e-09,0.005692447745241224,4.0600227657705544e-05,-0.9998686507344245,0.0,1892301.0,0.0,0.0006591796875,0.00533136144795184
-27.0,-27.0,-1.4875216229150123,0.3343890137970448,-1.4879965792925063,-1.4875216223459575,675.0,0.19417303912341594,-2.07827691601378e-09,-7.498362875314408,2200.0,-9.563989236388064,-0.011855571973137557,0.0,9.56725427048061,0.0,-7.481574925672157,0.0607177734375,0.0006928062619408592,0.25947275534272196,0.01543290235567838,-0.8667620584456017,21,0.19877565415339546,-9.845405770916539,-9.675590250401651,-0.01548326334450394,0.4197085417807102,2700.0,550.0,0.0,0.0,0.0,-1.0007693946361542,2.6814848752214727e-09,0.005694843095261604,3.2919775503614804e-05,-0.999896602332592,0.0,1983426.0,0.0,0.001025390625,0.0028654099704670186
