ReemS3/reg_curious_hac/data/d4a6886/CausalDependenciesMujocoEnv-o1-v0/alg:chac|eta:0.25|fw:1|fwhidsiz:256,256,256|nlev:2|reg:False|rolbatsiz:1|timsca:27,27|101/progress.csv
train_1/reward_-27.0_frac,train_0/fw_bonus,train_1/mu_grads_std,train_0/reward_-0.0_frac,train_0/target_q,train_1/q_grads_std,test/episodes,train_1/fw_loss,train_0/avg_q,train_1/fw_bonus,train_0/next_q,train_0/mu_loss,train_1/mu_grads,train_0/q_grads_std,train_1/q_loss,train_1/n_subgoals,train_0/q_grads,policy/steps,train_0/reward_-1.0_frac,train_1/reward,train_0/reward,train/success_rate,test_1/n_subgoals,train/episodes,train_0/mu_grads_std,epoch,train_0/q_loss,train_1/target_q,train_0/mu_grads,train_1/avg_q,train_1/mu_loss,train_1/current_q,train_1/next_q,train_1/reward_-0.0_frac,train_1/subgoal_succ_rate,test/success_rate,train_1/q_grads,train_1/reward_-1.0_frac,train_0/current_q,test_1/subgoal_succ_rate,test_1/avg_q,test_0/avg_q,train_0/fw_loss
0.0,-0.9992026507854461,0.08488490525633097,0.0,-2.7296533978019104,0.21648258045315744,25.0,0.0012745709071168676,-4.369768841520083,-0.9984359309077263,-2.5681778800681174,2.5920785602272813,0.021415244741365313,0.1573342751711607,22.71553864072652,2682.0,0.0347665605135262,87672.0,0.0003173828125,-1.487327913250192,-0.8715699614258483,0.02,675.0,100.0,0.16455272436141968,0,0.60125670297782,-9.752326446682835,-0.011120435013435782,-5.59287700299723,11.808166685834745,-9.666939157968088,-11.788630807117261,0.0,0.049962714392244596,0.0,0.02567337956279516,0.002099609375,-2.763662937871641,0.0,-6.537333587272579,-1.50365612696349,0.00021819506873725912
0.0,-0.9989473193883895,0.08571872152388096,0.0,-6.178623964930862,0.290445289760828,50.0,0.0013415425171842798,-5.975440408934182,-0.99817553460598,-5.96191666842107,6.008905392223943,0.022312111034989358,0.16893710792064667,21.169321446113244,2634.0,0.03879189258441329,172023.0,0.0001953125,-1.4816943899219042,-0.8772439333770308,0.05,2322.0,200.0,0.2022893290966749,1,0.2741370095509975,-11.872984024034634,-0.014785591280087829,-7.735020611688972,16.081447228686034,-11.841496494589325,-16.08314356820535,0.0,0.10022779043280182,0.0,0.017332239635288717,0.0015625,-6.2152827476240216,0.7403100775193798,-9.158195872817508,-2.057553918985128,0.00028613211361516733
0.0,-0.9987508744001389,0.08599121440201998,0.0,-5.087424054184181,0.3155704490840435,75.0,0.001594593035406433,-7.262617217836756,-0.9971916615962982,-4.875245921350223,4.91097291947842,0.02254337500780821,0.18458339534699916,14.400595373077476,2612.0,0.04012431427836418,249387.0,0.000341796875,-1.4540277766020153,-0.8860138381831348,0.08,675.0,300.0,0.22741824798285962,2,0.42999048289871433,-12.320541465213903,-0.020250520622357725,-9.154969504118606,15.604871385483682,-12.2157022675862,-15.577980377352537,0.0,0.23392036753445636,0.0,0.015023036277852952,0.0020751953125,-5.162703260390115,0.0,-9.476988327737654,-2.7108472194437394,0.0003383980474609416
0.0,-0.9986724689602852,0.08599848449230194,0.0,-5.000543003924371,0.3308128222823143,100.0,0.0018436198501149193,-5.9752787717785605,-0.9962234333157539,-4.760295767301721,4.83337570712577,0.02255333629436791,0.19319589473307133,13.709172798223188,2530.0,0.0401347266510129,320574.0,2.44140625e-05,-1.428979098716809,-0.8882011169596808,0.12,14575.0,400.0,0.24835559278726577,3,0.386042127193661,-12.493026321837306,-0.028270098054781555,-9.921045768892885,15.382169241768372,-12.393704475297415,-15.375216357188364,0.0,0.29209486166007903,0.0,0.013983698678202927,0.00205078125,-5.075621987479476,0.99073756432247,-10.22047915658927,-1.6325424442129912,0.00035926278069382535
0.0,-0.9986910745501518,0.11875556148588658,0.0,-5.355218486690627,0.3404359586536884,125.0,0.0021863483503693714,-7.489726745714601,-0.9948908984661102,-5.139684601116153,5.216428504322214,0.01408983615692705,0.20525255240499973,10.266242979139188,2538.0,0.0389734797179699,391411.0,0.0004150390625,-1.434437212505145,-0.8903452108250349,0.12,4330.0,500.0,0.2766699083149433,4,0.43628581216594603,-8.750635468800175,-0.0343249399214983,-10.094447605908565,10.020224365192382,-8.630139716507696,-10.030220447140845,0.0,0.2986603624901497,0.0,0.0129272541962564,0.0022216796875,-5.419128521562273,0.8840646651270208,-1.682038939433154,-1.8489020175115671,0.00035430802236078305
0.0,-0.998580327630043,0.16184150762856006,0.0,-4.367773332926173,0.34012299627065656,150.0,0.0019528689183061943,-12.297884743029941,-0.9957986742258071,-4.057465966118729,4.146493966439085,0.009307474689558148,0.23449486084282398,4.091143234850292,1739.0,0.04123398680239916,448748.0,0.000244140625,-1.426817263511475,-0.8921298281420604,0.66,2070.0,600.0,0.2957421250641346,5,0.47945520346865356,-3.9855223065986136,-0.03862674469128251,-3.356773946490504,4.0055043362772995,-3.8984796740644327,-4.013053650136291,0.0,0.21564117308798159,0.0,0.00911428916733712,0.0023681640625,-4.284430036219308,0.7,-2.24218596934821,-1.530651680865624,0.00038377298624254764
0.0,-0.9985119760036468,0.19922390319406985,0.0,-5.975400143103149,0.35130511671304704,175.0,0.001952748349867761,-10.47028669675474,-0.9957991361618042,-5.628367648420538,5.728510267796443,0.005573760496918112,0.2538232631981373,4.189494333876951,2169.0,0.04276816323399544,518578.0,9.765625e-05,-1.4128039424933376,-0.8965646524462499,0.46,675.0,700.0,0.3131507493555546,6,0.47148986347030064,-5.902239457312069,-0.04702666588127613,-3.3502055294121784,5.687956970230191,-5.8546765866603865,-5.702583551671511,0.0,0.16459197786998617,0.0,0.008421280630864203,0.00224609375,-5.94991585776774,0.0,-1.6451359980162554,-1.5489750932164255,0.0004019573556433897
0.0,-0.9985453456640243,0.22650945894420146,0.0,-5.412085141590154,0.3654099673032761,200.0,0.001905071976943873,-10.511751188900263,-0.9959845125675202,-5.12316633584841,5.217938511937804,0.001946970823337324,0.270059734582901,3.7657431358573676,1956.0,0.043713312689214946,583887.0,7.32421875e-05,-1.4143467761794455,-0.8994217074432527,0.53,4504.0,800.0,0.3309398084878922,7,0.5965053726445546,-7.783647726070333,-0.052527740225195886,-3.8784416099506527,7.7191090196158285,-7.704188515776941,-7.712304348871763,0.0,0.1278118609406953,0.12,0.005460203508846462,0.0025146484375,-5.421559692678048,0.8878774422735346,-3.974198841466103,-1.3876415649922669,0.00039308027262450194
0.0,-0.9985491648316384,0.24441151767969133,0.0,-6.0730519420451285,0.37708049044013026,225.0,0.0018018096801824869,-10.215430850858457,-0.996385994553566,-5.7799877867692855,5.934007514249146,-0.0011919699318241328,0.2855941288173199,3.9994056866705043,2120.0,0.044013125170022246,652947.0,0.000244140625,-1.4241632725141244,-0.9039228595211171,0.47,667.0,900.0,0.3503554828464985,8,0.4966338342690193,-8.857241043537003,-0.06050022579729557,-4.686787699776926,9.116607670269358,-8.768452938936596,-9.121512369607228,0.0,0.15849056603773584,0.04,0.001923096925020218,0.0022705078125,-6.111077729731669,0.004497751124437781,-1.7196804293616637,-2.39457352844377,0.000392065235064365
0.0,-0.9985851719975471,0.26072787269949915,0.0,-6.0968082838915665,0.38817533627152445,250.0,0.0017201716749696062,-13.710841926730913,-0.9967034056782722,-5.823908187240955,5.943739886790068,-0.002754378435201943,0.30188010782003405,4.24864013952489,2204.0,0.043902709428220985,724907.0,0.0011474609375,-1.4384760384593391,-0.9019601211708504,0.32,653.0,1000.0,0.37236721590161326,9,0.6565102344511865,-8.386910480696212,-0.06441291403025388,-4.426797774807404,8.44880231321889,-8.3195826413628,-8.429871516380187,0.0,0.12522686025408347,0.04,0.00015225708211801247,0.0021728515625,-6.11795434553067,0.004594180704441042,-2.8769980255461647,-2.6050647957111885,0.00038248422715696505
0.0,-0.9986118912696839,0.2857788622379303,0.0,-6.643718785679167,0.39903737008571627,275.0,0.0017094641661969945,-11.556870770780751,-0.9967450276017189,-6.421507489988909,6.578798514596483,-0.006430996779818088,0.3112112618982792,3.5101335452002145,2063.0,0.04480752907693386,793364.0,0.000732421875,-1.4569276717375033,-0.9037684952432755,0.47,675.0,1100.0,0.38821164071559905,10,0.5766391149470541,-8.620309205545084,-0.06941526532173156,-4.7575296187379825,8.679961145646743,-8.562678112620082,-8.696099963951653,0.0,0.1303926320891905,0.0,-0.00266951082739979,0.002099609375,-6.703847232727147,0.0,-2.8975912801960098,-2.1252442911195346,0.00037537365860771386
0.0,-0.99874676913023,0.29726854562759397,0.0,-6.566596076508835,0.408651814609766,300.0,0.0016101013083243743,-12.659182753388393,-0.9971313595771789,-6.222898971844164,6.368924564391394,-0.010843442007899284,0.32130380868911745,3.135195008037133,1696.0,0.04524398576468229,849615.0,0.0016357421875,-1.4505157563588,-0.9050720350031043,0.7,675.0,1200.0,0.4000160351395607,11,0.37066405432241434,-6.190750517653277,-0.0760221928358078,-4.423712738737828,5.750159345675916,-6.131272819416871,-5.723058434876112,0.0,0.2275943396226415,0.0,-0.00850401206407696,0.0021728515625,-6.554872976575711,0.0,-1.95439044416879,-1.7246263498244863,0.00033949163334909824
0.0,-0.9987635746598243,0.3129086196422577,0.0,-5.226657702519868,0.42026943787932397,325.0,0.0015458441397640855,-11.794803889159523,-0.9973811954259872,-4.894768499958731,5.095368240083392,-0.01597753670066595,0.3243615999817848,3.267301130378203,1883.0,0.04407469071447849,910411.0,0.002099609375,-1.4620251537678997,-0.9062015860312386,0.6,675.0,1300.0,0.4118265837430954,12,0.7042103095619605,-7.670741715768786,-0.080443518422544,-4.438902551735644,7.479202730518739,-7.667214296582003,-7.511766194989998,0.0,0.22623473181093998,0.0,-0.009930925141088665,0.0027099609375,-5.151733620159034,0.0,-0.7556535780118581,-3.481164332985933,0.00033501903235446664
0.0,-0.9988604426383972,0.3213322877883911,0.0,-6.156361064309422,0.4325063146650791,350.0,0.0015961459488607944,-11.519618496390033,-0.9971856191754341,-5.848584620909142,6.002894844394921,-0.017218683520331977,0.33097731322050095,4.085968858871156,2089.0,0.04549000272527337,977635.0,0.003857421875,-1.4381174858179293,-0.9063413763360586,0.53,675.0,1400.0,0.42218342870473863,13,0.4150725450550479,-8.78423911974221,-0.08541785329580306,-3.908296091911354,8.867492386393355,-8.704982247444189,-8.876045111458875,0.0,0.17568214456677836,0.0,-0.010085090971551835,0.003173828125,-6.1829105306608785,0.0,-2.4094640727865797,-1.6925365430209787,0.00030924583770683964
0.0,-0.9989091575145721,0.3343163639307022,0.0,-5.551259282714669,0.4441559225320816,375.0,0.0014383093337528407,-12.186850860861448,-0.9977992892265319,-5.125140434524768,5.295483339201768,-0.016901976056396963,0.3373052030801773,2.7787846404492527,1948.0,0.04618920339271426,1040574.0,0.0034912109375,-1.4460789614735403,-0.9078183455421822,0.56,675.0,1500.0,0.4314080484211445,14,0.47033780450587803,-9.318173670210868,-0.08657812941819429,-4.731218964987428,9.474658484424358,-9.26717472571183,-9.491311239418208,0.0,0.21149897330595482,0.0,-0.010215316247195006,0.0024658203125,-5.444648711456068,0.0,-2.464777656581528,-1.8033659008754166,0.00029628338306793013
0.0,-0.9989645853638649,0.3440995059907436,0.0,-6.314545633305936,0.4506723195314407,400.0,0.001416878611780703,-12.71111152344421,-0.9978826195001602,-5.973993916162462,6.138206395445836,-0.01793785863555968,0.341307482868433,2.7352094846782427,1875.0,0.04686971046030521,1102925.0,0.0041259765625,-1.4458606929940288,-0.9097153862021514,0.53,675.0,1600.0,0.4405399739742279,15,0.5347099252416994,-9.67766504695317,-0.08836491629481316,-4.734569831844619,9.893723323823698,-9.583340305326299,-9.904876516803618,0.0,0.1808,0.0,-0.0103673912351951,0.00244140625,-6.299500067403685,0.0,-2.9772640989944863,-1.086439309013378,0.0002815357191138901
0.0,-0.9990695208311081,0.34757369831204415,0.0,-7.046805711079979,0.4594152271747589,425.0,0.0014026418910361826,-11.20819283770091,-0.9979379594326019,-6.914416084074506,7.094838404177539,-0.01826382027938962,0.3450027547776699,2.610865192480231,2149.0,0.04726689960807562,1171949.0,0.00517578125,-1.4326392688628402,-0.9105692323311814,0.43,675.0,1700.0,0.449604020267725,16,1.069345261725056,-9.444186162642051,-0.09010262042284012,-5.231701394414293,9.636121430488421,-9.362419437513715,-9.634867791205753,0.0,0.18613308515588645,0.0,-0.009137329924851657,0.0025634765625,-7.1529500610552175,0.0,-2.469741943934325,-1.9599810348822106,0.0002536169118684484
0.0,-0.999046516418457,0.3555504359304905,0.0,-4.9612723456823264,0.46754288896918295,450.0,0.001479633743292652,-10.34413529598973,-0.9976386144757271,-4.565291820443069,4.6817478584858865,-0.01841930071823299,0.34845596700906756,2.3641946172405937,2277.0,0.047073130309581754,1244916.0,0.0046630859375,-1.4269460079522105,-0.9121450002901839,0.35,675.0,1800.0,0.4619920067489147,17,0.7396355595894384,-8.209061572132299,-0.09345288965851069,-4.709751214623779,8.0664520892024,-8.107618985614149,-8.051444492653479,0.0,0.1629336846728151,0.0,-0.01142576104030013,0.0023193359375,-4.888155315264484,0.0,-1.9046385399513828,-0.827737288871586,0.0002597362210508436
0.0,-0.9991670817136764,0.36281776502728463,0.0,-6.073638909489387,0.4724263183772564,475.0,0.0013349501154152677,-7.553601340153651,-0.9982011675834656,-5.696644026694815,5.856974166310866,-0.019271172350272536,0.3522360108792782,2.0690724383220696,2078.0,0.047611950617283585,1311884.0,0.01259765625,-1.4282468144621816,-0.9136209150034119,0.41,663.0,1900.0,0.4718081995844841,18,0.41853523552101973,-4.130328172364716,-0.09758280646055936,-4.173863398710242,3.2048474542769383,-4.089420491126772,-3.2116894039236312,0.0,0.1766121270452358,0.16,-0.01973519562743604,0.002392578125,-6.073033681924533,0.00904977375565611,-2.1319630674271837,-2.2259945410929696,0.00022766085057810415
0.0,-0.9992499113082886,0.37555769830942154,0.0,-7.168800770873108,0.483600165694952,500.0,0.0013204151735408231,-13.116951761242737,-0.998257665336132,-6.77668496527067,6.978185749046976,-0.0208165327552706,0.35889403745532034,3.12647255629012,2098.0,0.04798440709710121,1377225.0,0.0234619140625,-1.4134210360542057,-0.9137868008925579,0.41,669.0,2000.0,0.47681995704770086,19,0.3587331800587887,-10.001169469978507,-0.09920333940535783,-4.050960019485613,10.225169080894768,-9.901935587816407,-10.239746324941091,0.0,0.2440419447092469,0.08,-0.01881281677633524,0.0023681640625,-7.2028339565242305,0.004484304932735426,-1.938976838173055,-1.9305052206736633,0.00020562155077641364
0.0,-0.9991722494363785,0.3878339476883411,0.0,-4.75966486467591,0.49388340562582017,525.0,0.0012847630656324326,-11.891333153214974,-0.9983962833881378,-4.527370339900637,4.664337823108253,-0.022594730788841843,0.36337462067604065,2.583620297804264,2037.0,0.04974813861772418,1442381.0,0.011083984375,-1.4187007789223571,-0.9139787867257837,0.52,675.0,2100.0,0.4820508323609829,20,0.7537445876741782,-5.051312243459313,-0.10222527962177992,-4.458569719102236,4.2143383022728385,-5.130633582908031,-4.2377465700855845,0.0,0.21993127147766323,0.0,-0.020643887389451266,0.00244140625,-4.836757225104511,0.0,-1.2585116045981324,-2.4679578146626238,0.0002262887872348074
0.0,-0.9992013797163963,0.40348585695028305,0.0,-6.334297036536276,0.5049941837787628,550.0,0.0012142346036853268,-8.833830711066863,-0.9986704930663108,-5.950598641002534,6.154555778194194,-0.02338424017652869,0.3692663863301277,2.7277280051275787,1824.0,0.05013019219040871,1501826.0,0.0134033203125,-1.4178017065685709,-0.9162772525887704,0.61,658.0,2200.0,0.4870109550654888,21,0.4181982004324302,-7.662094793121999,-0.10424436889588833,-3.5309354362936345,7.262793534238654,-7.635182876435596,-7.265838377947749,0.0,0.20888157894736842,0.12,-0.023699377290904523,0.0030517578125,-6.367133972170496,0.007598784194528876,-2.373971158179453,-1.9588494094385078,0.0002185358705901308
0.0,-0.9992322772741318,0.40794888883829117,0.0,-6.711189977388964,0.5169609174132347,575.0,0.0012129703041864558,-11.560802445262956,-0.998675411939621,-6.361825154909006,6.498982095435878,-0.024470698507502674,0.37457955777645113,3.008726775090634,1840.0,0.04921446032822132,1561688.0,0.0158447265625,-1.4322341032806434,-0.9149576605166658,0.59,675.0,2300.0,0.49292997270822525,22,0.4913099805521144,-9.08279493323953,-0.10472711585462094,-4.368039444325878,9.04951951727894,-8.990197670667282,-9.065070942109468,0.0,0.22608695652173913,0.0,-0.026225661300122736,0.0025146484375,-6.726735296864081,0.0,-2.134327401674626,-0.7285196864130556,0.0002103122213156894
0.0,-0.9992975115776062,0.41808212772011755,0.0,-6.167911114689078,0.5252290800213814,600.0,0.0011273616386461073,-11.108757553738442,-0.9990082606673241,-5.8478351171671985,5.993986753313081,-0.024428620096296073,0.38120361492037774,3.0785164574786954,2033.0,0.04917986104264856,1625002.0,0.028125,-1.4124397952662548,-0.9161052068389836,0.45,1394.0,2400.0,0.4952062301337719,23,0.5578543253812116,-9.445421589328589,-0.11212883852422237,-4.467561203887773,9.518606209338733,-9.276951366999187,-9.439883850113596,0.0,0.2439744220363994,0.0,-0.02717578983865678,0.0018798828125,-6.201888906567296,0.5351506456241033,-4.226194276319142,-2.1651076829440843,0.00019296011996630113
0.0,-0.9992638513445854,0.42611399218440055,0.0,-5.6878929429734315,0.530168867111206,625.0,0.0011454658670118079,-12.058050404113054,-0.9989378735423088,-5.335845829543229,5.545453637000435,-0.024646915169432758,0.38608134612441064,2.109035302607742,2048.0,0.049321623239666226,1690477.0,0.0172607421875,-1.4160124912581522,-0.9182772344487603,0.46,677.0,2500.0,0.4988268420100212,24,0.5337293768568941,-7.961652885684626,-0.11096545029431581,-5.1657596875957275,7.5550832131717325,-7.838725361680102,-7.543387909791133,0.0,0.21435546875,0.0,-0.027339514857158066,0.002392578125,-5.740219270737906,0.0029542097488921715,-2.940494230273479,-2.3046138654829766,0.00020191337280266451
0.0,-0.9993576437234879,0.4316252782940865,0.0,-6.631403648686051,0.5356272175908089,650.0,0.0010488761807209812,-11.145841282676002,-0.999313423037529,-6.2786414806621575,6.4558271581050635,-0.026001077657565475,0.39193678423762324,2.1444533462994797,2129.0,0.04946748474612832,1758572.0,0.0310302734375,-1.399594930668536,-0.9189274127347744,0.4,675.0,2600.0,0.5016764536499977,25,0.5175971743298257,-7.883106869602616,-0.11167697384953498,-4.364443812393727,7.513149815387578,-7.75660970719081,-7.524658189787402,0.0,0.19633630812588068,0.0,-0.028463811706751586,0.0021240234375,-6.668037763903418,0.0,-2.2122298065185575,-2.189874376006692,0.00017695860406092835
0.0,-0.999329648911953,0.4383315935730934,0.0,-6.4983150338847295,0.5375827834010124,675.0,0.0009903691287036053,-12.025480256780124,-0.9995408982038498,-6.149382670546269,6.314474101265146,-0.027305019646883012,0.397315526008606,2.24089957947158,2156.0,0.04927295232191682,1826351.0,0.02109375,-1.4106420035328484,-0.9185951362116611,0.39,675.0,2700.0,0.5066695243120194,26,0.4923762868222402,-8.919349588635196,-0.11300816684961319,-4.290727723431739,8.798644941264737,-8.825914756145707,-8.806750324845526,0.0,0.20871985157699444,0.0,-0.02958860285580158,0.00244140625,-6.537268235508788,0.0,-2.3985956476817107,-2.0780819414021847,0.00018440740641381125
0.0,-0.9993513494729995,0.44860507026314733,0.0,-6.371435698083474,0.5414153233170509,700.0,0.0010100296218297443,-11.550039034456907,-0.9994644612073899,-5.897650995000094,6.075120880340514,-0.026633277256041765,0.40521893873810766,1.7637193547970582,2092.0,0.04978552469983697,1892466.0,0.0318603515625,-1.425928911520168,-0.9181719564759987,0.51,1264.0,2800.0,0.513044522702694,27,0.3220472026969599,-4.036466044211724,-0.11289842892438173,-4.492423044214462,3.3249715512630935,-3.8066022795048724,-3.3026445137816602,0.0,0.22179732313575526,0.0,-0.029741465486586093,0.0020263671875,-6.370997390779993,0.4849683544303797,-3.1292276795102665,-1.7363093522874455,0.00017863446519186254
0.0,-0.9993903651833534,0.4578976906836033,0.0,-6.683343952248526,0.5466645330190658,725.0,0.0009183814021525904,-11.262308388829267,-0.9998207882046699,-6.370847696823892,6.525149843484513,-0.02447970802895725,0.4086627632379532,2.029319305135521,1996.0,0.049805921781808135,1955115.0,0.03427734375,-1.418865837949852,-0.9186162628553575,0.55,671.0,2900.0,0.518053263425827,28,0.5592593032650681,-8.553026215834834,-0.11724385526031256,-4.523632184798155,8.330731826004161,-8.478845640468307,-8.31415549287571,0.0,0.251503006012024,0.04,-0.028916545677930117,0.001953125,-6.7310789317965005,0.0029806259314456036,-2.015564410935697,-1.9172425328664997,0.00016825182756292635
0.0,-0.9994241118431091,0.46302277147769927,0.0,-6.779241018746402,0.5532698884606362,750.0,0.000911656575044617,-13.018933385146077,-0.9998469308018685,-6.463491359451685,6.6330632273681,-0.02601719619706273,0.41451031938195226,2.248448257416315,2133.0,0.05108076008036733,2022666.0,0.02451171875,-1.4186779279858457,-0.9171340036293258,0.44,675.0,3000.0,0.5232652768492698,29,0.5296507863262813,-9.012929648277707,-0.11862581111490726,-4.776074249902421,8.836110388578476,-8.920673564960788,-8.818332179880805,0.0,0.21518987341772153,0.0,-0.029569632140919566,0.0022705078125,-6.821805215909352,0.0,-2.7528194088473343,-1.9562496204416713,0.0001592733919096645
0.0,-0.9994134426116943,0.4707299008965492,0.0,-6.70930668965719,0.5610923737287521,775.0,0.0008693214826053008,-13.289013493549875,-1.0000115469098092,-6.409533414946497,6.567581643233739,-0.026801363192498685,0.418453062325716,2.1150421347462887,2177.0,0.0509854931384325,2092228.0,0.03046875,-1.4224024526251013,-0.9181025572557701,0.41,675.0,3100.0,0.5310417979955673,30,0.672158718591333,-9.5041997208185,-0.11640191115438939,-5.000750722989446,9.434265071911398,-9.422974990212362,-9.430993542856891,0.0,0.19016995865870465,0.0,-0.029466892965137957,0.0023193359375,-6.735887465825433,0.0,-2.9516731493706674,-1.0951367388653444,0.00016211455222219228
0.0,-0.9994512021541595,0.4767369955778122,0.0,-6.397744042657604,0.5657121375203132,800.0,0.0009602288118912838,-9.879788363192871,-0.9996580794453621,-6.080834633672489,6.252104416099872,-0.02734620594419539,0.42114381641149523,2.2808165499608712,2148.0,0.05126108443364501,2162188.0,0.0437255859375,-1.4237853129874565,-0.9171176927615307,0.42,675.0,3200.0,0.5386667877435685,31,0.524325573091391,-9.707139314150727,-0.12038762848824262,-4.878801369815772,9.671274339780826,-9.631886105170178,-9.678082788696901,0.0,0.159683426443203,0.0,-0.030091954069212078,0.00234375,-6.455099890962552,0.0,-1.2007676484588685,-1.5869052428813166,0.00015206836251309143
0.0,-0.9994126096367836,0.48137196004390714,0.0,-6.3520692312154745,0.5717050671577454,825.0,0.000925812014611438,-9.567313194341601,-0.9997918993234635,-6.059228758356657,6.236166781856886,-0.027729549584910272,0.4242939926683903,2.1657384158450097,2154.0,0.05159742599353194,2229787.0,0.0301513671875,-1.42202410131722,-0.9177113041834672,0.48,675.0,3300.0,0.5421764105558395,32,0.6482221754746392,-8.883789694422388,-0.12363685108721256,-4.232738272653411,8.654244803373695,-8.820236524593671,-8.638845552345419,0.0,0.21773444753946147,0.0,-0.029828883428126573,0.002001953125,-6.3832266721583455,0.0,-2.448422063782525,-2.1024117468070007,0.000162337368237786
0.0,-0.9994409859180451,0.4852779783308506,0.0,-7.001647327950397,0.5778463438153267,850.0,0.0009837959878495894,-12.401468000610135,-0.9995664477348327,-6.658484095415778,6.812817820937646,-0.028660911740735172,0.4319130353629589,2.821551999885814,2172.0,0.051640561781823635,2299336.0,0.03232421875,-1.4380659560265485,-0.9162921609982732,0.4,675.0,3400.0,0.5465259179472923,33,0.5234570425575932,-9.542185351174592,-0.12335738763213158,-4.771829311517566,9.400332138235562,-9.45489345144534,-9.407128459133585,0.0,0.1841620626151013,0.0,-0.02985976068302989,0.0019287109375,-7.024249190165024,0.0,-1.8548250700211726,-1.9291236064278592,0.00015478594395972322
0.0,-0.9994188085198402,0.4874976731836796,0.0,-5.981595416072247,0.5877111688256264,875.0,0.0010093273551319726,-12.88613428092695,-0.9994671806693077,-5.644780740746038,5.813971911284202,-0.029608438024297357,0.43395735025405885,2.308493518313612,2136.0,0.05213749371469021,2368005.0,0.0275390625,-1.4220796408888419,-0.9166417398359045,0.45,675.0,3500.0,0.5509360015392304,34,0.5588764842318708,-9.373808398436248,-0.12499658446758985,-4.370469276149343,9.244277178763552,-9.20938768755527,-9.225518935618103,0.0,0.18773408239700373,0.0,-0.03030877741985023,0.0022216796875,-6.021863280552774,0.0,-1.3675945835985417,-1.5673718490955972,0.00016068612821982243
0.0,-0.9994202122092247,0.49053479358553886,0.0,-6.886838743664472,0.5968909829854965,900.0,0.0009434277133550494,-10.946952038982106,-0.9997234031558037,-6.582207275920726,6.730568083747395,-0.030816220864653587,0.43842885047197344,2.381093499281311,2208.0,0.05211975267156958,2438016.0,0.04443359375,-1.4479981238924666,-0.9162704757254687,0.37,728.0,3600.0,0.5546378821134568,35,0.568551009433573,-9.535509453512734,-0.12123902216553688,-4.495101622361304,9.427615057946014,-9.488004798348081,-9.42312550749762,0.0,0.19701086956521738,0.04,-0.03078733370639384,0.002001953125,-6.937640660825164,0.08241758241758242,-1.6741149357409268,-2.208647841318463,0.00016031358427426312
0.0,-0.9994841381907463,0.49474307894706726,0.0,-6.452145540415432,0.6084957689046859,925.0,0.0009074108194909059,-13.459913089487404,-0.9998634457588196,-6.153728611694077,6.312770587430744,-0.03138395249843597,0.443131435662508,2.7286074880874955,1985.0,0.05273131188005209,2501586.0,0.056591796875,-1.431306275720999,-0.9174414703680668,0.53,675.0,3700.0,0.5588824927806855,36,0.6032308449601317,-9.490580665545018,-0.12313334103673697,-4.351286470026788,9.344918089542281,-9.402819227058725,-9.351882266196373,0.0,0.2141057934508816,0.0,-0.032317081559449436,0.002099609375,-6.493922324821232,0.0,-3.1461099422987022,-1.9916680400924638,0.00014330406029330333
0.0,-0.9994480028748512,0.49772212728857995,0.0,-5.428290056486641,0.6152280807495117,950.0,0.0008593231308623217,-11.346913341944044,-1.0000503987073899,-5.083432295780844,5.211141903935747,-0.030826497264206408,0.44405872747302055,2.3321663549293477,1961.0,0.05143625009804964,2565100.0,0.0794189453125,-1.4282909835266764,-0.916968818436726,0.51,675.0,3800.0,0.5662943556904793,37,0.5195140933440963,-8.662753404141327,-0.12561651840806007,-5.192968192795557,8.35148102413968,-8.520231803068121,-8.330215680763244,0.0,0.21009688934217235,0.0,-0.033807237166911364,0.00205078125,-5.490154269501081,0.0,-3.58925275235906,-1.8431175516513387,0.00015291618183255196
0.0,-0.9994049414992332,0.5003738820552825,0.0,-5.817756683652597,0.623974159359932,975.0,0.0009519898288999684,-9.686542108423064,-0.9996901229023933,-5.331132267975979,5.452896857243063,-0.029998453427106143,0.44763547256588937,2.9416238458060318,1636.0,0.05172235686331987,2620137.0,0.03134765625,-1.4223261840917985,-0.9165764158096863,0.7,675.0,3900.0,0.571770490705967,38,0.6724902929401606,-9.125371010285466,-0.127744822204113,-4.5483948477898695,9.030048509772536,-8.97056550299719,-8.992400033354299,0.0,0.23166259168704156,0.0,-0.03597162337973714,0.00205078125,-5.676320644705709,0.0,-1.9833258924342678,-1.5496403851148428,0.00016437294289062265
0.0,-0.9993963181972504,0.503367866575718,0.0,-5.896709802750411,0.631790192425251,1000.0,0.00096960431401385,-10.268498577953146,-0.9996216401457787,-5.564777294403116,5.73782339016491,-0.03132435465231538,0.4491866149008274,2.513088867766706,1878.0,0.05207010926678777,2680333.0,0.0427978515625,-1.4349579255271236,-0.9162037351372418,0.54,663.0,4000.0,0.5742966294288635,39,0.5441407520575534,-9.75678315143486,-0.12708132676780223,-4.94998269289984,9.82398471188794,-9.721262484730547,-9.826097478512668,0.0,0.24653887113951012,0.04,-0.03645859034731984,0.001904296875,-5.948540620205522,0.0030165912518853697,-3.4020151539660644,-1.8916234105447447,0.0001666680174821522
0.0,-0.9994050174951553,0.5071338385343551,0.0,-5.878096180096515,0.6367781341075898,1025.0,0.0009491545963101089,-10.973551015859096,-0.9997011482715606,-5.541952507921755,5.710951549411701,-0.032469498086720706,0.452129827439785,3.769545783700333,1990.0,0.052351970411837104,2743166.0,0.0442626953125,-1.4048356727813371,-0.9169854014966404,0.51,675.0,4100.0,0.5789687216281891,40,0.7053083991836054,-6.1716111554272235,-0.12943514212965965,-5.173236746060358,5.629161509730426,-6.064629073204626,-5.510781875124293,0.0,0.2547738693467337,0.0,-0.03845011666417122,0.0016845703125,-5.864338717076694,0.0,-3.6742739236529944,-2.2218139010734235,0.0001643551015149569
0.0,-0.9993802368640899,0.5095632389187813,0.0,-6.1470837375969944,0.6451593413949013,1050.0,0.0010041318149887958,-10.851481116237416,-0.9994873896241188,-5.847031544631126,6.001212453219995,-0.03310466036200523,0.4551626920700073,2.0964022553660433,2169.0,0.05284409392625093,2809469.0,0.04912109375,-1.4070313147938578,-0.9177541721175657,0.47,661.0,4200.0,0.5846857771277427,41,0.5759478684806469,-8.563947335546112,-0.1280992578715086,-5.36824285558918,8.382893390839445,-8.481124521271918,-8.35596443949321,0.0,0.24665744582757032,0.16,-0.03671882329508662,0.001806640625,-6.204588491204576,0.02723146747352496,-2.711030420211798,-2.1152112285520976,0.00017094742106564808
0.0,-0.9993368342518807,0.5142201215028763,0.0,-6.459135677395638,0.6544003397226333,1075.0,0.0009912267123581842,-11.57130353583504,-0.999537567794323,-6.112378913816717,6.292209956633258,-0.03436544304713607,0.4587853915989399,1.939534073036866,2231.0,0.05304452003911138,2879657.0,0.058984375,-1.3972056643979158,-0.9157684987279936,0.37,675.0,4300.0,0.5895025610923768,42,0.5524241429655351,-9.111935991086096,-0.12915382348001003,-5.543291749380524,9.091845580532974,-9.018428312564215,-9.041894572729593,0.0,0.20708202599731063,0.0,-0.036909142322838304,0.0020751953125,-6.474226154192702,0.0,-6.767223447435042,-2.6582179230818306,0.00018249402455694508
0.0,-0.9993181601166725,0.518813006579876,0.0,-6.3312737233549345,0.6576046019792556,1100.0,0.0009167170806904324,-13.143747986296201,-0.9998272731900215,-5.989610759881545,6.173901258869728,-0.033193009719252584,0.45956693664193154,1.3205407598754477,2119.0,0.053140650037676096,2945462.0,0.043505859375,-1.3971116577755311,-0.9153760715169483,0.43,1302.0,4400.0,0.5925286307930946,43,0.6329516566973208,-3.950891279562682,-0.12880160920321942,-6.67075041046441,3.258904490057111,-3.679247801437705,-3.2290728506262356,0.0,0.21708352996696556,0.2,-0.03670790567994118,0.0018798828125,-6.337735210997051,0.5360983102918587,-6.106230587171678,-1.4967175608762122,0.0001874637269793311
0.0,-0.9993414536118508,0.5205767884850502,0.0,-6.579828908334941,0.6630672127008438,1125.0,0.000942757043230813,-12.086534354900088,-0.9997260183095932,-6.21890514673853,6.376902488697695,-0.03527874257415533,0.4615966886281967,4.082679841292953,2039.0,0.05314204692840576,3008642.0,0.0365234375,-1.3918416323445855,-0.915448475262383,0.49,769.0,4500.0,0.597508105635643,44,0.4821792491639454,-5.083830844559936,-0.13059291578829288,-5.830131369033917,4.340354506450972,-5.010933665347499,-4.283994540999246,0.0,0.2491417361451692,0.12,-0.036840823013335466,0.00166015625,-6.582489478785549,0.15214564369310793,-0.45002583430341875,-2.0279232716198408,0.00018126552749890833
0.0,-0.9993921890854836,0.5231944248080254,0.0,-6.758988849406305,0.667442587018013,1150.0,0.0008814117274596356,-12.436014050002987,-0.9999645218253136,-6.41524726834785,6.591658685602686,-0.03699211813509464,0.46414018198847773,3.085244708277447,2060.0,0.053657153714448215,3073992.0,0.058251953125,-1.3960610446811188,-0.9158649431425147,0.44,2828.0,4600.0,0.602766889333725,45,0.4669939913204266,-8.512032585449273,-0.1323389545083046,-3.638908503237307,8.327245336392178,-8.488433231673293,-8.327066874958032,0.0,0.21796116504854368,0.12,-0.03495546383783221,0.00166015625,-6.8084515522910225,0.7966760961810466,-4.63115203827736,-1.7975484129547648,0.00016776732154539787
0.0,-0.9993563458323479,0.526324725151062,0.0,-6.896991903590196,0.6726921126246452,1175.0,0.0008676316880155355,-12.986158516015301,-1.0000181138515472,-6.526087851456038,6.684662938353858,-0.03681600904092193,0.46771111860871317,2.9649228838811164,1902.0,0.05364761902019381,3134662.0,0.03740234375,-1.4052381903878994,-0.9161676525778603,0.55,1655.0,4700.0,0.6073350176215172,46,0.4696295440738464,-9.071373017176851,-0.13387533389031886,-4.262795207147458,8.87814226310798,-9.030145130878697,-8.906338412571474,0.0,0.2434279705573081,0.12,-0.03484445801004767,0.0022705078125,-6.913143119106389,0.6235649546827795,-1.707485129888311,-1.841414614602868,0.00017730316030792893
0.0,-0.999380074441433,0.5296196207404137,0.0,-6.2507352982169975,0.6816496804356575,1200.0,0.000835572807409335,-12.380730415553451,-1.0001427590847016,-5.94149991164219,6.156683573680265,-0.03647122336551547,0.46806700676679613,2.3683758868470512,1908.0,0.05327628469094634,3196856.0,0.0545654296875,-1.4082918799904292,-0.915739883101196,0.58,675.0,4800.0,0.6117664933204651,47,0.6390680626422474,-9.298336559893531,-0.13671698719263076,-4.420769097792197,9.293794790073495,-9.229798694373537,-9.312939469633102,0.0,0.22536687631027252,0.0,-0.03383212126791477,0.00234375,-6.314219023239012,0.0,-2.941819595924588,-2.5467577370805237,0.00017099306714953854
0.0,-0.9993970453739166,0.5355845525860786,0.0,-6.413177995781217,0.6920996621251106,1225.0,0.0008566593809518963,-12.023886146379539,-1.000060786306858,-6.054210984128722,6.21165661004662,-0.03608049228787422,0.46880908608436583,2.3629021643973402,2105.0,0.05294463336467743,3262423.0,0.061328125,-1.4046903515336453,-0.9159967526633409,0.41,653.0,4900.0,0.6160855680704117,48,0.6229295523086487,-10.101416483042769,-0.1389563761651516,-4.948677331537469,10.188951547401237,-10.002483109784986,-10.214171212025127,0.0,0.23705463182897862,0.28,-0.03418897772207856,0.0018310546875,-6.440394987387194,0.007656967840735069,-2.6710697863422777,-1.4124871332079818,0.00016647752927383407
0.0,-0.9993910759687423,0.5385222509503365,0.0,-6.060802949774181,0.6981591388583184,1250.0,0.0008578987384680658,-10.926129894996812,-1.0000559523701669,-5.757802195319364,5.94929860239562,-0.03644838212057948,0.46974133253097533,2.3240871639037564,1871.0,0.05252883806824684,3322564.0,0.0623779296875,-1.396465301734861,-0.9161143484685453,0.55,654.0,5000.0,0.6197748705744743,49,0.6060584102701922,-8.7877198840485,-0.13964321836829185,-4.682848009752583,8.64524664813907,-8.679771195146637,-8.65534704215747,0.0,0.24532335649385356,0.04,-0.033850702177733186,0.001953125,-6.142963446469919,0.0015290519877675841,-2.7852757036095994,-2.7707794372280348,0.0001680648940237006
0.0,-0.9993736103177071,0.5420800492167472,0.0,-6.288605855897854,0.7005265414714813,1275.0,0.0008249839171185158,-11.81871494396922,-1.0001839220523834,-5.964669166300987,6.155835787167659,-0.03693422554060817,0.470564404129982,2.2562053913393108,1902.0,0.05240068277344108,3383251.0,0.05224609375,-1.384195560021908,-0.9159120458818506,0.55,650.0,5100.0,0.6237638846039772,50,0.547205889458775,-10.161873568423061,-0.14139262437820435,-4.86188499614009,10.235722601665845,-10.0527229913851,-10.248376220523577,0.0,0.2444794952681388,0.08,-0.03271428449079394,0.001953125,-6.351195637290519,0.0015384615384615385,-2.6713456727430858,-2.352841865752155,0.0001727097696857527
0.0,-0.9993466690182686,0.5467458754777909,0.0,-7.34861546326002,0.7053584635257721,1300.0,0.0008666916808579117,-11.91271754617681,-1.0000217631459236,-7.018896966435596,7.191158734365788,-0.037552314531058076,0.47370298728346827,2.5930515751108807,1832.0,0.05224226405844092,3443361.0,0.0647216796875,-1.399845423916122,-0.9174421438758145,0.62,667.0,5200.0,0.6280691683292389,51,0.5575626643664855,-10.198509897778873,-0.14097418300807477,-4.55983872309686,10.312616674110327,-10.07418197081793,-10.31305884259601,0.0,0.2177947598253275,0.04,-0.032535978872328994,0.0020751953125,-7.37768591061798,0.0029985007496251873,-2.9772551715418745,-1.5597435726751996,0.00017987402206927073
0.0,-0.9993698418140411,0.5533955588936805,0.0,-6.522572373791206,0.7106327027082443,1325.0,0.000884491071337834,-13.535887832844487,-0.9999525725841523,-6.282036655980892,6.497644296711917,-0.038062282186001536,0.47521476820111275,2.9877349459981546,1694.0,0.052528442908078433,3498548.0,0.06259765625,-1.3957896136955241,-0.9180210339211043,0.69,1112.0,5300.0,0.63240747153759,52,0.7696441045949645,-9.599441865993747,-0.14308824576437473,-4.614656779960789,9.636497903354893,-9.480430245552105,-9.667122143456663,0.0,0.26741440377804016,0.08,-0.03216439066454768,0.0024658203125,-6.596300568857856,0.41636690647482016,-1.2034160750718865,-2.7752581626556236,0.00017371317953802646
0.0,-0.9993237599730491,0.5555053025484085,0.0,-6.5389128845607845,0.7169330760836601,1350.0,0.0009072220476809889,-11.732578614832626,-0.9998641774058342,-6.196879730846145,6.3749529229295545,-0.03881904482841492,0.4768935553729534,2.7783930910066816,1655.0,0.05284298555925489,3552902.0,0.0677734375,-1.3873248917167076,-0.9185785113193561,0.75,675.0,5400.0,0.6347318857908248,53,0.5386027741421726,-9.382795775553298,-0.14485937245190145,-4.08865729066167,9.384664674625288,-9.269652160828286,-9.427171922016303,0.0,0.2797583081570997,0.0,-0.030994392186403274,0.0017822265625,-6.562722132914393,0.0,-1.7316748973248781,-2.4807915484513963,0.00018597464877530002
0.0,-0.999339935183525,0.5592043831944465,0.0,-6.290745105541479,0.7244196861982346,1375.0,0.000870432380179409,-12.951971502000077,-1.0000072181224824,-5.883618324328252,6.0925551532707685,-0.03966996818780899,0.4794661596417427,2.9765409544309804,1605.0,0.052880068123340604,3606998.0,0.0546875,-1.3894036073223106,-0.9168999625384459,0.71,675.0,5500.0,0.6382312923669815,54,0.526267117284556,-9.5714617513616,-0.1451741736382246,-4.118730079296968,9.710732658548235,-9.42980187967899,-9.737803590090815,0.0,0.2498442367601246,0.0,-0.030559886945411563,0.001904296875,-6.226835143416295,0.0,-2.8130061208023736,-2.1744469151843084,0.0001816732921724906
0.0,-0.999327403306961,0.5641364946961402,0.0,-6.574433506237094,0.7280370548367501,1400.0,0.0008703469968168065,-12.876373669976003,-1.0000075533986093,-6.18997449036207,6.340479548880942,-0.04006532216444612,0.4816724620759487,2.5653414080561516,1620.0,0.0532887164503336,3659464.0,0.0633056640625,-1.377624071635364,-0.9179586788450251,0.8,674.0,5600.0,0.6424027562141419,55,0.6069679349692934,-9.333939863395566,-0.14716671779751778,-3.962870146848243,9.329990914707817,-9.22466869250545,-9.360257918747353,0.0,0.29074074074074074,0.2,-0.030523465061560274,0.0021728515625,-6.529221444657091,0.017804154302670624,-2.7926638822658667,-2.0618113985977478,0.000185007552136085
0.0,-0.9993343532085419,0.5677082657814025,0.0,-6.8297009605102375,0.7315209254622459,1425.0,0.000860430859029293,-12.80178187430387,-1.0000460982322692,-6.418858225367882,6.571655701729959,-0.04037605347111821,0.48372500389814377,2.7918796071573113,1543.0,0.05359725384041667,3709477.0,0.0546875,-1.354429110311321,-0.9203869870965719,0.73,1235.0,5700.0,0.6471074014902115,56,0.7667478606557415,-8.801537080515754,-0.14756897799670696,-4.028204766918249,8.753437791192678,-8.651767897235013,-8.742873029876591,0.0,0.304601425793908,0.2,-0.030510287918150424,0.002392578125,-6.758693050656175,0.5052631578947369,-4.159676613065156,-1.9069913550456397,0.0001831584617320914
0.0,-0.9992872640490532,0.5738697201013565,0.0,-6.562540171296514,0.734642793238163,1450.0,0.0008346351998625324,-12.310781917295648,-1.0001463875174523,-6.2443926765102225,6.423306639807606,-0.03979276884347201,0.4849561400711536,2.2037390151482783,1555.0,0.053729329351335765,3761341.0,0.035302734375,-1.3578368507543928,-0.9194361534493509,0.8,657.0,5800.0,0.651633994281292,57,0.5604502440285482,-8.343635357897574,-0.14823185987770557,-4.673133401349822,8.212689513278113,-8.247610056868165,-8.234364379405662,0.0,0.2733118971061093,0.12,-0.03097600475884974,0.001806640625,-6.629340362735283,0.0091324200913242,-3.3914095157209707,-2.2736209992607463,0.00019568339339457453
0.0,-0.9992435649037361,0.5800631985068321,0.0,-6.53030769191156,0.736595906317234,1475.0,0.0008342323999386281,-12.303471776105175,-1.0001479491591454,-6.244117350509298,6.462402720618053,-0.03868110151961446,0.48638836964964866,2.824006603808795,1652.0,0.05389063004404306,3814280.0,0.0218017578125,-1.3617808962866547,-0.9203189092615502,0.71,651.0,5900.0,0.6555664330720902,58,0.9246492724366651,-8.417711364952277,-0.15134531408548355,-4.4926057377531805,8.40116516061472,-8.26757391625886,-8.378913298063882,0.0,0.2838983050847458,0.32,-0.030760868173092603,0.0017578125,-6.546615656436522,0.013824884792626729,-3.5956400854171338,-1.8635819766227888,0.0002073090599878924
0.0,-0.9993022054433822,0.5863141238689422,0.0,-6.589689580157142,0.735109205543995,1500.0,0.0008167482010321692,-11.478950813653357,-1.0002159461379052,-6.2807907772019345,6.452093364652347,-0.038934029545634984,0.48782873079180716,2.81644267586711,1714.0,0.05378381703048944,3869659.0,0.0305908203125,-1.3564974077933585,-0.9203201692012953,0.7,673.0,6000.0,0.6605611488223075,59,0.6008000242888263,-5.11690360072614,-0.15172484740614892,-4.575778523587068,4.545597223485001,-5.083446969531261,-4.511980412415829,0.0,0.2864644107351225,0.04,-0.032975686341524126,0.001904296875,-6.659045478842158,0.004457652303120356,-2.1965039437389833,-2.599709774669427,0.0001917054716614075
0.0,-0.9993259146809578,0.5892287969589234,0.0,-6.534189008035821,0.7377530202269554,1525.0,0.000826276559382677,-10.545864805521232,-1.0001788884401321,-6.215318599878169,6.39845266586281,-0.04023515526205301,0.48917254954576495,3.199063512997361,2094.0,0.053864848148077724,3933335.0,0.0409423828125,-1.3364073666147305,-0.9195688962558052,0.43,1552.0,6100.0,0.6645875096321106,60,0.570585664722245,-8.109373534555434,-0.15379077494144439,-3.8546318055109103,8.06373839325262,-8.037148733290158,-8.034053577163172,0.0,0.27889207258834764,0.08,-0.0329240545630455,0.00205078125,-6.6017420198622885,0.6076030927835051,-3.288413668402181,-2.500256809475848,0.0001854015947174048
0.0,-0.9993688598275184,0.5912052825093269,0.0,-6.381766942445688,0.7427486762404442,1550.0,0.0008210081839933991,-10.53058550391071,-1.000199368596077,-6.036401919867391,6.226140459277849,-0.040733414329588415,0.48984154462814333,2.4416712917888774,2119.0,0.0538136581890285,3996878.0,0.0587646484375,-1.342044067682582,-0.9203213311557192,0.46,6972.0,6200.0,0.669664753973484,61,0.5166590516196198,-7.871134039316563,-0.15561369843780995,-3.9741976654826234,7.706008884765675,-7.802983222282558,-7.692748804114956,0.0,0.2864558754129306,0.2,-0.03314323350787163,0.0018310546875,-6.430581875655628,0.9443488238668961,-1.7093559697229377,-2.51838494596724,0.00017397152878402268
0.0,-0.9993894562125206,0.5943232238292694,0.0,-6.1313684723976545,0.744124422967434,1575.0,0.0008176061674021184,-10.070395035363369,-1.0002125948667526,-5.778838289627558,5.949377151746523,-0.0419669333845377,0.4900713451206684,2.5340438322901333,2048.0,0.053716757055372,4057493.0,0.06416015625,-1.3428840663575101,-0.919988871802343,0.53,7476.0,6300.0,0.6742498680949212,62,0.5556224682794385,-8.247700395982264,-0.1568844188004732,-3.8128706771316363,8.09111946290118,-8.140998442159269,-8.08917582100816,0.0,0.3271484375,0.0,-0.033567138109356166,0.001904296875,-6.179264112559433,0.9460941680042804,-3.154048472247623,-2.4786708450010133,0.00016849379699124256
0.0,-0.9993770569562912,0.5973476439714431,0.0,-6.229605059508062,0.7456999003887177,1600.0,0.0008439564902801066,-10.652201735571492,-1.00011016279459,-5.854288073483569,6.061625527658087,-0.04319061497226358,0.49062084779143333,2.235424063597205,2130.0,0.053554251603782174,4118956.0,0.05419921875,-1.331363136258733,-0.9220913859462598,0.47,9788.0,6400.0,0.6790392443537712,63,0.6752332095329814,-8.46694408027004,-0.1575002271682024,-4.047563906827697,8.357777879484704,-8.370223230945578,-8.349408243883756,0.0,0.33380281690140845,0.08,-0.03320210641250014,0.0016845703125,-6.246043946318023,0.9711892112791173,-3.632533787742989,-2.8179806516052155,0.00017179375099658501
0.0,-0.9994547292590141,0.5998885795474053,0.0,-5.876862612167646,0.7509848192334175,1625.0,0.0008355045778444037,-10.125437198725132,-1.0001430273056031,-5.405552315903379,5.5866655270119185,-0.043871686421334745,0.4924441009759903,2.512043947807391,2221.0,0.052985170669853685,4183253.0,0.0604248046875,-1.3474217170180054,-0.9209594632702647,0.37,8874.0,6500.0,0.6809660479426384,64,0.49648805858564904,-9.100525380029381,-0.1564500540494919,-4.239001699309029,9.067584016546018,-8.989516098584918,-9.046803182834015,0.0,0.32958126969833407,0.08,-0.03437213441357016,0.0019287109375,-5.844273758371484,0.9617985125084516,-3.5807539016756684,-1.0778425907470617,0.00015112503788259347
0.0,-0.9994998335838318,0.6004229485988617,0.0,-6.674934634049109,0.7557577684521675,1650.0,0.0007848893495975062,-11.238631210895877,-1.0003398060798645,-6.238270503406274,6.448126017103583,-0.04384043011814356,0.494937364757061,2.3507742372981117,2131.0,0.05288284756243229,4246731.0,0.1155029296875,-1.3406113056567848,-0.9225924012280302,0.44,4848.0,6600.0,0.6818586751818657,65,0.44040508101787273,-9.375418933081635,-0.15725774206221105,-4.843352241216155,9.310596757789828,-9.276957150679909,-9.302618769847603,0.0,0.2900046926325669,0.16,-0.03361406298354268,0.0020751953125,-6.690124344578021,0.8995462046204621,-3.730390473033755,-2.0521465308163434,0.0001391284045894281
0.0,-0.9995158314704895,0.5993442147970199,0.0,-6.606095806862146,0.7592845320701599,1675.0,0.0007638152936124242,-12.150485676951718,-1.0004217505455018,-6.187890851436949,6.40067271585391,-0.0442581681534648,0.49579438343644144,2.700918074331587,2117.0,0.0521936378441751,4308897.0,0.11728515625,-1.3451283243106444,-0.9213898080197396,0.43,1677.0,6700.0,0.683716955780983,66,0.41959305341671327,-9.64013804217997,-0.15738877430558204,-4.590559887397437,9.559351142783118,-9.529656875380478,-9.595134829205085,0.0,0.32026452527161076,0.04,-0.03373610274866223,0.0017578125,-6.629054861695209,0.6290995825879547,-3.4910010930084616,-1.8278479702999013,0.00013486914576787967
0.0,-0.9994984328746795,0.5999613612890243,0.0,-6.708601989342165,0.7641214817762375,1700.0,0.0007958938876981847,-12.097233127869869,-1.000297050178051,-6.2854101822692785,6.499116164203111,-0.04456305997446179,0.49631799533963206,2.7934513296386845,2164.0,0.05205325623974204,4374545.0,0.0630859375,-1.3475433273109956,-0.9229941905185115,0.44,1524.0,6800.0,0.6851306468248367,67,0.42961975101079497,-10.045351505487284,-0.15828677862882615,-4.366417988359453,9.959866739539759,-9.91943039275173,-9.9552184904035,0.0,0.27171903881700554,0.16,-0.03347612461075187,0.0018310546875,-6.751083755053793,0.6062992125984252,-2.987015896855047,-2.5130276706204193,0.00013949830608908086
0.0,-0.9995436266064643,0.6024343326687813,0.0,-7.00798537533461,0.7679220706224441,1725.0,0.0008262279152404517,-10.795374553747143,-1.0001790776848793,-6.65909441172018,6.847926214492207,-0.045330644119530916,0.49478180557489393,2.2606183800023443,2187.0,0.05193076189607382,4441532.0,0.0882568359375,-1.3494141004543052,-0.9238947813064442,0.43,2234.0,6900.0,0.6879409417510033,68,0.5721566107215551,-9.821540851037614,-0.15989315286278724,-4.0984751589379655,9.738553446786403,-9.692283422030144,-9.72322738015247,0.0,0.26108824874256975,0.0,-0.034339357540011405,0.0022216796875,-7.0284109702211826,0.7273948075201433,-2.708156788084345,-2.2888615586950496,0.00012747526179737178
0.0,-0.9994978457689285,0.6080997049808502,0.0,-6.484848319103333,0.7723237425088882,1750.0,0.0007958192858495749,-12.791227222574824,-1.0002973183989525,-6.055805600386913,6.1471529878189015,-0.04608731614425778,0.49298683628439904,2.646448391060473,1860.0,0.05002921912819147,4498980.0,0.083935546875,-1.3644808001976343,-0.9232073763691006,0.58,7628.0,7000.0,0.6910594820976257,69,0.5852719557352036,-9.665302911371452,-0.1634705662727356,-4.491668560719506,9.603598839850454,-9.568260277910081,-9.582419147940065,0.0,0.2779569892473118,0.12,-0.03508998118340969,0.0017333984375,-6.420331607742787,0.9504457262716308,-4.06490318631419,-1.0332201644738632,0.00013965342714072904
0.0,-0.9994798138737678,0.6101324364542962,0.0,-5.594418287574561,0.7810652926564217,1775.0,0.0008641721942694858,-11.459124453581804,-1.0000315576791763,-5.16793839867892,5.32572004647779,-0.04609819119796157,0.4923304721713066,2.640392855769161,1645.0,0.04945290870964527,4549819.0,0.0955322265625,-1.3534965692604601,-0.9234074631560361,0.7,776.0,7100.0,0.6922288715839386,70,0.4252740369416424,-9.047055574854243,-0.16457377783954144,-4.203994609199166,8.83410933226217,-8.938836976755706,-8.850779568841958,0.0,0.3161094224924012,0.2,-0.03501921035349369,0.0015869140625,-5.639747700044883,0.1791237113402062,-2.07908560476859,-1.8854888189281944,0.00014445540218730458
0.0,-0.9994458079338073,0.6146207958459854,0.0,-4.580134946023601,0.7875698581337929,1800.0,0.0012034764004056342,-7.606066634187278,-0.9987123399972916,-4.179524562021161,4.280540990177405,-0.04557319609448314,0.4928597159683704,3.347564133921439,2356.0,0.048886630591005086,4626006.0,0.11220703125,-1.3816331258392893,-0.9205255197332007,0.25,684.0,7200.0,0.6935976833105088,71,0.5167205795659104,-9.44602922479439,-0.16152556985616684,-3.9094666068063146,9.413294525915802,-9.298427386437572,-9.39800172802351,0.0,0.13539898132427844,0.0,-0.035574198514223096,0.0022216796875,-4.600083572743078,0.013157894736842105,-1.7554761151349645,-1.0099545547220494,0.00015350091671280098
0.0,-0.9994591996073723,0.6191289439797402,0.0,-4.403267345522176,0.7895681083202362,1825.0,0.001084927367628552,-5.823871121840031,-0.9991732686758041,-4.043221854449971,4.170921724040141,-0.04586335401982069,0.4947544477880001,2.9198421749168424,2340.0,0.04901145854964852,4701949.0,0.100537109375,-1.415578671284311,-0.9164462065018597,0.24,675.0,7300.0,0.6937006831169128,72,0.48805174663845907,-9.40204433677541,-0.1613584466278553,-3.9633209515827996,9.372137430662082,-9.306073381225405,-9.37776100584366,0.0,0.12863247863247862,0.0,-0.03545302590355277,0.002197265625,-4.4592377462634225,0.0,-1.6903892895603971,-1.8649867593106153,0.00014993842523836065
0.0,-0.9993042513728142,0.6242738783359527,0.0,-5.156617844073807,0.7938466727733612,1850.0,0.0031675498583354058,-5.582339152379718,-0.9910759389400482,-4.8101917342455405,4.963127322913434,-0.04732463834807277,0.49452456310391424,3.0073728073084167,1897.0,0.04909869991242886,4764435.0,0.0254150390625,-1.4330469531327252,-0.9174835614729091,0.56,675.0,7400.0,0.6961727917194367,73,0.5379177899175425,-9.355404881109587,-0.15920591689646243,-4.098579450645543,9.43360980846388,-9.228250426404134,-9.431701568697601,0.0,0.19557195571955718,0.0,-0.035443443432450296,0.00185546875,-5.20035668273792,0.0,-1.995231992108542,-1.2034139026772885,0.00019116382973152212
0.0,-0.9994286924600602,0.6338336750864982,0.0,-5.641455667659516,0.797096848487854,1875.0,0.0010502548480872064,-7.745905103781966,-0.9993080630898475,-5.302615067876746,5.490275344423906,-0.047917826753109696,0.4945185586810112,3.4579646413290335,1909.0,0.0494107186794281,4825138.0,0.0750244140625,-1.442114104088978,-0.915080554940505,0.56,1152.0,7500.0,0.6962833046913147,74,0.47036101457320073,-9.320505547020563,-0.15998170375823975,-4.26270236291516,9.368432245901378,-9.195429188859912,-9.388357783436419,0.0,0.23363017286537455,0.16,-0.0361233982257545,0.001953125,-5.6775289037896615,0.4600694444444444,-3.2667260488888274,-1.832790618014068,0.00015805445273144869
0.0,-0.9993798270821571,0.6421685770154,0.0,-5.39849031606189,0.7982801422476768,1900.0,0.0010377256796346046,-8.00993836228046,-0.9993567794561387,-5.042056313140109,5.197838542419725,-0.04922539424151182,0.4944856531918049,2.959191272928682,2104.0,0.04902511006221175,4890087.0,0.0760009765625,-1.4222348677860281,-0.916252404601255,0.52,1363.0,7600.0,0.6962577402591705,75,0.4680793236826298,-9.3526926256386,-0.1603830263018608,-4.322579282962643,9.50649825531516,-9.251217460561,-9.50614788820759,0.0,0.26948669201520914,0.08,-0.03714061751961708,0.001708984375,-5.454255216762461,0.5297138664710198,-3.032735270340681,-1.7058213075016373,0.00017105482420447514
0.0,-0.9994297102093697,0.6504474148154259,0.0,-5.687904073042124,0.7994439676403999,1925.0,0.0009721286129206419,-8.766271207126925,-0.999611821770668,-5.346446411172647,5.507174027704872,-0.04956852663308382,0.49469395354390144,2.9653856159410297,2190.0,0.049300273228436706,4957437.0,0.0859619140625,-1.4257098411573679,-0.915801540396933,0.41,2829.0,7700.0,0.696968124806881,76,0.47652106688208884,-9.824964072276213,-0.15949646458029748,-4.558028354771691,9.994689460028935,-9.695086967753086,-10.001278613360004,0.0,0.27077625570776254,0.0,-0.038102749921381476,0.0018310546875,-5.735611964107997,0.7907387769529869,-3.7820703836498106,-1.565875378623968,0.00015778100914758396
0.0,-0.9994731068611145,0.6542896658182145,0.0,-5.73809230427882,0.8023127436637878,1950.0,0.0009535510951536707,-9.180652559978595,-0.999684052169323,-5.420970669066523,5.594116393117978,-0.04747682847082615,0.49600384160876276,2.935907364704139,2236.0,0.04930208837613463,5023649.0,0.0922607421875,-1.421412207999674,-0.9167007766256574,0.39,2060.0,7800.0,0.6986824154853821,77,0.5138398189235724,-7.144730102130438,-0.15989419333636762,-4.434618675255012,6.775069665756744,-7.116643264026472,-6.766113025573645,0.0,0.30366726296958857,0.04,-0.040748316515237096,0.0017333984375,-5.818322733088922,0.7053398058252427,-2.238643355455248,-2.190128663829283,0.0001462384467231459
0.0,-0.9994472622871399,0.6604244589805603,0.0,-5.463643325084112,0.8061564460396766,1975.0,0.0009071557622519321,-9.060452180680075,-0.9998644411563873,-5.11424829809156,5.272713068859937,-0.04731337819248438,0.496349198371172,2.813178844768686,2138.0,0.04896393176168203,5088748.0,0.103759765625,-1.4105916875210824,-0.9175847131278715,0.46,3449.0,7900.0,0.7015272960066795,78,0.4891510185717422,-8.992965055730025,-0.1602158986032009,-3.906975719677555,8.798462300200455,-8.902982263979565,-8.81905965109462,0.0,0.26800748362956034,0.04,-0.04061677400022745,0.0016357421875,-5.5303081832967935,0.8414033053058858,-4.212952482643353,-1.884250443109172,0.00015311489460145822
0.0,-0.9995119646191597,0.6679912492632866,0.0,-5.36242884343573,0.8135309904813767,2000.0,0.0008676399869727902,-8.594913768759342,-1.0000180691480636,-5.053508524271704,5.22125777435777,-0.05016115056350827,0.4961546830832958,3.3063568628555613,2117.0,0.04913292909041047,5153475.0,0.11591796875,-1.3849500810320023,-0.920117367063358,0.42,5122.0,8000.0,0.7032444685697555,79,0.5966908941500154,-6.262676896621014,-0.16000537984073163,-4.596335598283218,5.454119361572294,-6.097741857607845,-5.657998660530912,0.0,0.2730278696268304,0.0,-0.04146848507225513,0.0017333984375,-5.45590875837107,0.9045294806716127,-0.8902153104277689,-1.6447210017782923,0.00013590132712124615
0.0,-0.9995140314102173,0.6713915601372719,0.0,-5.587133932718868,0.8160583049058914,2025.0,0.0007561960839666427,-8.417962046123906,-1.0004513800144195,-5.2719590528447355,5.464190931177908,-0.04891166258603334,0.49785647094249724,2.7455766070529064,2127.0,0.049210451636463405,5218617.0,0.116845703125,-1.3602750531877974,-0.9200884013334871,0.44,910.0,8100.0,0.7040852561593056,80,0.58160884585005,-9.516587699667255,-0.16022039391100407,-3.2737416045633645,9.326190872084274,-9.436641547684294,-9.34588863074813,0.0,0.2538787023977433,0.08,-0.04140027025714517,0.0015380859375,-5.677407123590032,0.3131868131868132,-2.4700601424462887,-1.66867455816986,0.00013535084053728497
0.0,-0.9995103016495704,0.6762948364019394,0.0,-5.635784093352653,0.8218283236026764,2050.0,0.0007781683205394074,-9.385033842658705,-1.0003659427165985,-5.297154980812037,5.468229726582612,-0.048220596835017206,0.5015048116445542,2.748453567404193,2048.0,0.04909207364544273,5282419.0,0.1188720703125,-1.3799558545535546,-0.9212269669413218,0.46,5561.0,8200.0,0.7066328197717666,81,0.5785991181476366,-10.280100085071897,-0.161233302205801,-4.648592347897887,10.25841165405338,-10.154909578649262,-10.262808464798313,0.0,0.26904296875,0.0,-0.041466175392270085,0.002197265625,-5.705654002827717,0.9138644128753821,-3.6330734427145948,-1.3084474647184339,0.0001363413000945002
0.0,-0.999466934800148,0.6818029701709747,0.0,-5.600680962353085,0.8231198891997338,2075.0,0.0007509645380196162,-9.63262158788133,-1.0004717022180558,-5.300284937856236,5.463100920328559,-0.04949221778661013,0.5050435543060303,3.351568627259353,2198.0,0.04893730394542217,5347147.0,0.0867919921875,-1.3695737556947278,-0.9199554296079441,0.42,879.0,8300.0,0.7086767464876175,82,0.64746362752531,-7.7252397870898335,-0.1602023396641016,-4.729945092539569,7.259288088877625,-7.618861305686113,-7.26884300150841,0.0,0.2684258416742493,0.32,-0.041651892475783825,0.0014892578125,-5.693629038567371,0.30489192263936293,-1.0750014053929773,-1.7453530974923375,0.0001478790411056252
0.0,-0.9994779959321022,0.6861692696809769,0.0,-5.272419350285048,0.8299793750047684,2100.0,0.0008607680720160715,-7.775096484716002,-1.0000447988510133,-4.9897867745036155,5.154643734048366,-0.04834520192816853,0.5073458045721054,3.135448158746088,2188.0,0.04781594928354025,5416423.0,0.11201171875,-1.3926300312232343,-0.9192618100016261,0.45,675.0,8400.0,0.7119517922401428,83,0.6861331828748481,-8.69433576012021,-0.15978721007704735,-3.0565212089797407,8.525315497182785,-8.607161932670014,-8.523093192773473,0.0,0.2070383912248629,0.0,-0.04193306416273117,0.001708984375,-5.3670532308515915,0.0,-1.6121066070863135,-1.8184345292147432,0.0001449400413548574
0.0,-0.9994505181908607,0.6896325409412384,0.0,-4.075811718796212,0.8382678672671318,2125.0,0.0008559376234188676,-7.296929738358917,-1.0000635847449302,-3.703802939908079,3.7990182302629534,-0.0491112188436091,0.50855752825737,2.931702920248919,2236.0,0.04699405720457435,5487948.0,0.1028076171875,-1.3869312262060702,-0.9156523345125607,0.37,683.0,8500.0,0.7152792364358902,84,0.5672779835468165,-7.977355477680392,-0.1596560787409544,-3.8917199383053838,7.791266630157065,-7.827479844150838,-7.7274397865251645,0.0,0.1721824686940966,0.0,-0.04174821684136987,0.00224609375,-4.116431886008129,0.01171303074670571,-3.3577343567898557,-0.5413344808168901,0.00015225079405354336
