ReemS3/reg_curious_hac/data/d4a6886/CausalDependenciesMujocoEnv-o1-v0/alg:chac|eta:0.5|fw:1|fwhidsiz:256,256,256|nlev:2|reg:False|rolbatsiz:1|timsca:27,27|100/progress.csv
train_0/avg_q,train_0/q_loss,train_1/reward_-0.0_frac,train_1/avg_q,test_1/avg_q,train_1/n_subgoals,test_1/subgoal_succ_rate,train/success_rate,train_0/current_q,train_1/fw_bonus,policy/steps,train_1/q_grads,train_1/reward_-1.0_frac,train_0/reward,train_0/q_grads_std,train_1/q_grads_std,train_1/mu_grads_std,train_1/current_q,train_1/mu_loss,train_1/subgoal_succ_rate,train_1/target_q,test_1/n_subgoals,train_0/next_q,train_0/fw_loss,test/episodes,train_0/mu_grads_std,train_0/mu_loss,train_1/mu_grads,train_0/target_q,train_0/q_grads,train_1/next_q,epoch,train_1/q_loss,train_0/mu_grads,test/success_rate,train/episodes,train_1/reward_-27.0_frac,train_1/reward,train_0/fw_bonus,train_1/fw_loss,train_0/reward_-0.0_frac,train_0/reward_-1.0_frac,test_0/avg_q
-2.0005803935752025,0.44674093203444254,0.0,-9.227092083273797,-11.664467130711866,2690.0,0.10294117647058823,0.01,-4.990098725728542,-0.995404988527298,87013.0,0.043068331107497214,0.0048583984375,-0.7505360896117054,0.12965468354523182,0.22672009877860547,0.08655303437262774,-12.941735834370514,15.363098882015425,0.06654275092936802,-12.965888674101901,748.0,-4.816086754540508,0.0002498152207408566,25.0,0.17382191866636276,4.814457126117726,0.01985492170788348,-5.014758660154007,0.027836732985451817,-15.311574467491004,0,29.534847012298655,-0.004204758058767766,0.0,100.0,0.0,-2.006577007033775,-0.998948159813881,0.0015993293316569179,0.0,0.0001708984375,-2.406622464899901
-5.540134497928973,0.5817664301831333,0.0,-14.149395075655391,-16.4742830156799,2617.0,0.0,0.06,-2.4744873980272493,-0.995004978775978,170403.0,0.042579478770494464,0.004931640625,-0.7716182294432656,0.1486704982817173,0.28612698167562484,0.08685755115002394,-16.05640319987878,19.17063146116909,0.11119602598395109,-16.12690247260371,675.0,-2.2868176264947797,0.0003234796407923568,50.0,0.21707176081836224,2.2622689533489626,0.019948460906744004,-2.667967599146973,0.027029498713091016,-19.132629311145145,1,32.78065688150523,-0.022032971726730466,0.0,200.0,0.0,-2.0035571739426814,-0.9986319616436958,0.0016954687918769196,0.0,9.765625e-05,-0.2886812862940024
-4.806450091542587,0.6456678860052214,0.0,-15.669130957829337,-11.776563205277409,2631.0,0.0029542097488921715,0.05,-4.746069324527225,-0.993439470231533,251368.0,0.039100450742989776,0.004736328125,-0.7856781862479693,0.1614970937371254,0.31968130394816396,0.08689396232366561,-15.870150894754797,18.249271400511418,0.1645762067654884,-15.920937802975246,677.0,-4.524993745252884,0.0003417282081500161,75.0,0.2511577866971493,4.53655058710581,0.019958658469840886,-4.788764841882281,0.025365151884034275,-18.23711422432149,2,16.381719572351848,-0.03061166275292635,0.0,300.0,0.0,-2.0091464915371033,-0.9985536381602287,0.002071720617823303,0.0,0.0001220703125,-1.1037252268854378
-7.13041681200902,0.4488868070027717,0.0,-14.461117942216761,-17.482490695446877,2589.0,0.6659517426273458,0.09,-5.283931429419974,-0.9939453169703484,322608.0,0.036974755115807056,0.0050537109375,-0.7907641193254676,0.1784967642277479,0.34071881994605063,0.08689817041158676,-15.689157650595098,17.963386609796185,0.32483584395519505,-15.792487198870646,1865.0,-4.973779881268842,0.00036652942362707107,100.0,0.28725055009126665,5.062666261894348,0.019959809258580208,-5.204641639626336,0.02418970256112516,-17.912259548803416,3,11.242076407375638,-0.038324616476893426,0.0,400.0,0.0,-1.9002075226337183,-0.998447185754776,0.0019501451606629416,0.0,9.765625e-05,-2.3568333379203468
-8.808759350024982,0.6367857999186318,0.0,-16.449313991761684,-16.261413923472798,2605.0,0.7025715672003882,0.11,-4.406895399174867,-0.9932757213711738,391271.0,0.03537406288087368,0.0045166015625,-0.7951063574517321,0.20042233876883983,0.35325550362467767,0.08689817041158676,-16.05009559082556,18.157328505278922,0.381957773512476,-16.17384008793877,2061.0,-4.1192564397057225,0.0003624561497417744,125.0,0.3121997855603695,4.1259503565653475,0.019959809258580208,-4.390389415714209,0.02222545528784394,-18.14877137894281,4,7.613185491739682,-0.049331944715231654,0.0,500.0,0.0,-1.879242837991478,-0.9984646752476692,0.002111076400615275,0.0,9.765625e-05,-0.6514922821497617
-7.287793742493939,0.49483788119467675,0.0,-15.741826846512433,-17.773108853036955,2674.0,0.09152086137281291,0.03,-4.627985878258849,-0.992815163731575,468320.0,0.03324008332565427,0.0048583984375,-0.7978821736818645,0.21756322383880616,0.36252406463027,0.08689817041158676,-15.928643698986054,17.784559540796675,0.26514584891548243,-16.085228044673254,743.0,-4.311444964700479,0.000371585941320518,150.0,0.3337436579167843,4.380513291366357,0.019959809258580208,-4.672730894132712,0.024155656481161712,-17.764484301259255,5,6.2339224184231385,-0.05738418325781822,0.0,600.0,0.0,-1.8546595313258876,-0.9984254717826844,0.0022217665507923813,0.0,0.0001953125,-1.2634154669052982
-7.388305746746897,0.5107019733901845,0.0,-15.703057301609057,-16.941411799766595,2658.0,0.997965707643127,0.04,-4.906026957976086,-0.9928318321704864,547155.0,0.030943932151421903,0.00419921875,-0.8039924995071488,0.2289560955017805,0.3746150828897953,0.08689817041158676,-15.82307647055227,17.460954215998417,0.2200902934537246,-15.984556685726062,17205.0,-4.562151470696156,0.00037978846157784576,175.0,0.35208177864551543,4.686448543076113,0.019959809258580208,-4.81515462881859,0.025636327778920533,-17.42909438415078,6,5.374988275088851,-0.0660526042804122,0.0,700.0,0.0,-1.7721483405963228,-0.9983902767300605,0.0022177572129294275,0.0,2.44140625e-05,-1.6352044173453664
-8.932672979588371,1.469320534683869,0.0,-16.00203985732049,-15.084167115269109,2642.0,0.9914096375685184,0.05,-4.401311926168832,-0.9927997410297393,617749.0,0.02904615392908454,0.0044189453125,-0.8111061228970357,0.2452831819653511,0.38443332985043527,0.08689817041158676,-15.441733422628584,16.967313022177738,0.3735806207418622,-15.59599388298794,12223.0,-4.3119280768221895,0.0003641579023678787,200.0,0.37472695484757423,4.4610253455745905,0.019959809258580208,-4.2677191532798275,0.026588269462808966,-16.97272213758819,7,5.826776290724793,-0.07054994218051433,0.0,800.0,0.0,-1.720740696455323,-0.9984573557972908,0.002225468936376274,0.0,0.0001708984375,-2.30622720985171
-9.990462305567943,0.44132178040193093,0.0,-15.206876494612631,-17.16501233016914,2652.0,0.8691641039977634,0.03,-5.768885767145659,-0.9930936425924302,686896.0,0.02691536652855575,0.0046630859375,-0.8094234695505292,0.2583432212471962,0.39368835389614104,0.08689817041158676,-15.307142891466409,16.98606716507957,0.3902714932126697,-15.48553128206089,3577.0,-5.35755378003893,0.00033482533690403215,225.0,0.39328746125102043,5.520600514978001,0.019959809258580208,-5.663189041359227,0.025432779127731918,-16.974077181249346,8,5.29087610287433,-0.08072166945785283,0.0,900.0,0.0,-1.7328993650226039,-0.9985832735896111,0.0021548335236730052,0.0,0.000927734375,-1.3925636810877504
-10.21523823268194,0.8546970635729906,0.0,-16.142398511855788,-17.858100445834552,2648.0,0.9976565360673746,0.04,-3.7334661020397277,-0.9934231862425804,759476.0,0.025812357384711503,0.0041748046875,-0.8064585929198074,0.2675652988255024,0.40416874215006826,0.08689817041158676,-15.398740834950644,17.155825823262386,0.3168429003021148,-15.563146113741038,13655.0,-3.495333949799955,0.00031709439936093985,250.0,0.4072351060807705,3.6453592361175153,0.019959809258580208,-3.7463665702177495,0.02646247330121696,-17.124762280278887,9,4.74841009588061,-0.083673407882452,0.0,1000.0,0.0,-1.7399611092550913,-0.9986593574285507,0.002075631357729435,0.0,0.0016845703125,-1.8086659753492298
-8.405108808304277,0.5486161218009047,0.0,-16.054397154244366,-16.770478371506986,2614.0,0.0,0.08,-5.978074592104974,-0.993807464838028,832767.0,0.02347957165911794,0.005322265625,-0.8046165259809641,0.2762520745396614,0.4141508713364601,0.08689817041158676,-15.496603562482738,17.377119138093583,0.306044376434583,-15.669119203448016,675.0,-5.623664256748397,0.00030516201222781093,275.0,0.42236448675394056,5.7785952954517334,0.019959809258580208,-5.906991284439149,0.02681522537022829,-17.34943926074443,10,4.490609329158403,-0.08589391820132733,0.0,1100.0,0.0,-1.7399335185014935,-0.9987105935811996,0.001983275846578181,0.0,0.0010498046875,-4.876251165305816
-11.747607583930709,0.6280618763953715,0.0,-16.75303413676596,-18.19342569926815,2608.0,0.055944055944055944,0.07,-5.668921468006782,-0.9939208477735519,903954.0,0.021025878470391036,0.0047607421875,-0.8042651134914195,0.28449506759643556,0.42602615654468534,0.08689817041158676,-15.169299235495547,16.89737985485782,0.34547546012269936,-15.327278928932065,715.0,-5.342483129856992,0.00028689089849649464,300.0,0.4364799775183201,5.425534384905566,0.019959809258580208,-5.6688814057059025,0.02746411468833685,-16.872881231126115,11,4.636910419776183,-0.09029258899390698,0.0,1200.0,0.0,-1.7147460662134109,-0.9987890094518661,0.0019560270040528847,0.0,0.0013916015625,-3.6405839303402763
-9.439731091677249,0.3800048866087417,0.0,-16.947305026421628,-16.310068696846322,2637.0,0.08660351826792964,0.06,-3.013228585260399,-0.9942034587264061,975611.0,0.020623209653422236,0.0048828125,-0.8080369414688903,0.2895356111228466,0.435876290500164,0.08689817041158676,-15.185148205558724,16.834772007051374,0.35267349260523323,-15.323789625038383,739.0,-2.699715816584802,0.0002755825644271681,325.0,0.45036311373114585,2.823044631729956,0.019959809258580208,-3.269304961251509,0.027265856275334954,-16.80911385735209,12,4.371115053873376,-0.09649553038179874,0.0,1300.0,0.0,-1.7358102224461618,-0.9988375514745712,0.0018881046795286237,0.0,0.003466796875,-1.0557887952004008
-9.794397820771744,0.6024974916280239,0.0,-16.318549524717064,-16.904125118670965,2682.0,0.7592910234419669,0.01,-6.507461705434986,-0.9946726188063622,1053439.0,0.02003874578513205,0.0052490234375,-0.8108365500971558,0.29699688628315923,0.44227798879146574,0.08689817041158676,-15.673547098762658,17.53074026935489,0.26025354213273677,-15.827763604113523,1749.0,-6.163512328668977,0.0002565626386058284,350.0,0.46313019543886186,6.315909346616585,0.019959809258580208,-6.479342090085533,0.028732651378959417,-17.53134779782473,13,5.1026533815857285,-0.10060317181050778,0.0,1400.0,0.0,-1.7609593587440031,-0.9989191919565201,0.001775344819179736,0.0,0.0033203125,-1.1895453943788055
-11.934972182524978,0.7247017893899267,0.0,-16.44212253314941,-16.531833763781226,2686.0,0.0,0.02,-6.737897965104359,-0.9953379064798356,1123862.0,0.019455072982236744,0.00546875,-0.8087192277409485,0.3032141089439392,0.4492140345275402,0.08689817041158676,-15.990808112478783,17.9138940260128,0.3812360387192852,-16.154130516657013,675.0,-6.443766579732733,0.00023068870650604366,375.0,0.4812185488641262,6.622216505830406,0.019959809258580208,-6.702185002394134,0.028962334012612702,-17.899108975786525,14,3.189496062578208,-0.10666770096868276,0.0,1500.0,0.0,-1.7310063582874136,-0.9990302413702011,0.0016154504555743188,0.0,0.0053466796875,-6.164304432656662
-12.873483897930592,0.4968240048805786,0.0,-16.585758034134578,-18.330571045903444,2677.0,0.9981366060528176,0.02,-7.130831421327775,-0.995426693558693,1197186.0,0.018625243147835136,0.00546875,-0.8083495609731471,0.3112847343087196,0.4557728961110115,0.08689817041158676,-15.98208221864021,17.832657009557746,0.32461710870377286,-16.15968426898936,15563.0,-6.821559850705045,0.00022092317158239894,400.0,0.4964009128510952,6.938813096641887,0.019959809258580208,-7.130689433763213,0.03001838568598032,-17.804883413441747,15,2.8849935700675315,-0.10779910292476416,0.0,1600.0,0.0,-1.7068686189464644,-0.9990721672773362,0.001594113642931916,0.0,0.00927734375,-1.8837391674436752
-12.740707085940082,0.9738017618994054,0.0,-17.283231915544334,-18.773043131300952,2642.0,0.957765068191817,0.07,-6.343337787258525,-0.9953849017620087,1264881.0,0.018277026154100894,0.0052978515625,-0.8113816525663424,0.31818490400910376,0.46253192946314814,0.08689817041158676,-16.0919954660261,17.900109854987896,0.41521574564723696,-16.25617536452167,6819.0,-6.063927924391433,0.0002187109370424878,425.0,0.5064869076013565,6.256841486589636,0.019959809258580208,-6.29402490172567,0.031088824197649956,-17.871366857306423,16,2.7771820387119974,-0.11212398093193769,0.0,1700.0,0.0,-1.6917964579552063,-0.9990816652774811,0.0016041550348745658,0.0,0.0154541015625,-2.2681488326812635
-13.062359559628568,0.7233592891398944,0.0,-17.42112961573167,-18.380459516278115,2641.0,0.8894230769230769,0.05,-3.154741863519301,-0.9957881346344948,1335474.0,0.017947700573131442,0.0052734375,-0.8124779217403557,0.3255398370325565,0.4714435741305351,0.08689817041158676,-16.316825183359075,18.1629140752338,0.3718288527073078,-16.4931816391446,3328.0,-2.9216324595145524,0.0002084363590256544,450.0,0.5169565841555596,2.956370038992006,0.019959809258580208,-3.5120583789309734,0.031413943693041804,-18.139827301205763,17,2.341679661842122,-0.11217914689332247,0.0,1800.0,0.0,-1.6833799024519975,-0.9991257712244987,0.0015072466572746634,0.0,0.0137939453125,-0.5250524496819171
-9.961192960276147,0.5136000258398661,0.0,-17.537633554508687,-17.28492150872468,2640.0,0.9997742536260511,0.06,-5.334222532332849,-0.9957529678940773,1406511.0,0.016368095483630895,0.005908203125,-0.8128087132572546,0.33279079720377924,0.4776571117341518,0.08689817041158676,-15.931589140781691,17.56444267645595,0.3704545454545455,-16.099978389087738,17719.0,-4.960131939373398,0.00020787655375897884,475.0,0.5278348952531815,5.139260206079895,0.019959809258580208,-5.239658292650074,0.031555553711950776,-17.558772300673454,18,2.762317319574234,-0.11061414517462254,0.0,1900.0,0.0,-1.6951787277030235,-0.9991281554102898,0.0015156974928686394,0.0,0.0114501953125,-1.3675652588874434
-12.478303045833766,0.631002185796467,0.0,-16.811667614715688,-17.80598548674866,2614.0,0.9843406237867219,0.08,-0.47848925145150983,-0.9961863964796066,1476099.0,0.015065116458572447,0.00625,-0.811870190690388,0.34155151098966596,0.48420563265681266,0.08689817041158676,-15.718414562652175,17.453728636148593,0.35807192042846214,-15.880692377346628,7727.0,-0.42195345187872296,0.00020721548462461216,500.0,0.5408449754118919,0.4648188239916521,0.019959809258580208,-1.1384121399606446,0.03295529540628195,-17.440467460903456,19,2.8798247108173824,-0.11426815409213305,0.0,2000.0,0.0,-1.698898866151285,-0.9991310030221939,0.0014115244819549843,0.0,0.016162109375,-0.9398622718851134
-10.063956949429768,0.7468816588001295,0.0,-17.006863883679006,-17.378552504605068,2693.0,0.9997016706443914,0.02,-7.045438668998242,-0.9961896941065789,1549999.0,0.013792919460684061,0.006298828125,-0.8108463048905833,0.3487399183213711,0.4908783033490181,0.08689817041158676,-15.665209217201527,17.56467092807507,0.3330857779428147,-15.837938446474539,16760.0,-6.730453817241299,0.0002122021312970901,525.0,0.5515677720308304,6.8170665636737455,0.019959809258580208,-7.061893598214001,0.03440859755501151,-17.56097375364221,20,3.4699711568479232,-0.11768757868558169,0.0,2100.0,0.0,-1.6533560775351361,-0.9991096049547196,0.0014107337599853053,0.0,0.0213134765625,-0.6056278256555431
-12.006571053067079,0.48387515717352236,0.0,-17.135143463356222,-17.729407777753654,2639.0,0.9995135172701369,0.04,-6.72472946528311,-0.9956860631704331,1621789.0,0.012446940876543522,0.0064697265625,-0.8088710930620436,0.35363869890570643,0.4976569302380085,0.08689817041158676,-15.533738787006635,17.637449924752637,0.3387646835922698,-15.702828982062991,14389.0,-6.372266336025282,0.00021111782407388092,550.0,0.5632295548915863,6.534516481129678,0.019959809258580208,-6.6473706217800625,0.03504707682877779,-17.59481566453716,21,3.1941684624984727,-0.1207748157903552,0.0,2200.0,0.0,-1.6449743765224412,-0.9991142600774765,0.0015317775018047542,0.0,0.0142333984375,-2.07800713138472
-14.219433179798365,0.7117991596386762,0.0,-17.506399577957485,-20.674373471274674,2655.0,0.0,0.04,-6.427375577958225,-0.996071594953537,1692434.0,0.01189144141972065,0.0053955078125,-0.8126391211153532,0.3591779127717018,0.5073563635349274,0.08689817041158676,-15.724961308827739,18.126571212077824,0.3728813559322034,-15.896805467907981,675.0,-6.081531322604236,0.0002129557957232464,575.0,0.573784913122654,6.195236452872338,0.019959809258580208,-6.405174144403182,0.03503760201856494,-18.068456361858253,22,4.107277219853822,-0.12299724500626326,0.0,2300.0,0.0,-1.6596446780000407,-0.9991063624620438,0.0014391208038432523,0.0,0.0169677734375,-1.0728991309928981
-11.38926907354242,0.5253425814890644,0.0,-17.66811383213351,-19.543550229137054,2662.0,0.9982582732022891,0.04,-6.9713822715170295,-0.9965023711323738,1768286.0,0.010012639150954784,0.0062744140625,-0.8143997169499926,0.3634274087846279,0.5152821630239487,0.08689817041158676,-16.086370038074396,18.425007329668528,0.28399699474079637,-16.289882546855146,16076.0,-6.595658093942456,0.00020597090842784383,600.0,0.5820254325866699,6.7517910144376945,0.019959809258580208,-6.899042625731336,0.035726049821823834,-18.3996907028535,23,3.4275588651973594,-0.12009338960051537,0.0,2400.0,0.0,-1.6684172019886319,-0.9991363510489464,0.0013355854491237551,0.0,0.020166015625,-1.5042824164884796
-14.342871694866083,0.42033470477735124,0.0,-17.80664793139737,-21.50964303671917,2662.0,0.9967596759675967,0.02,-6.926165274980003,-0.9962431788444519,1840899.0,0.009093728754669428,0.0066162109375,-0.8158577791800781,0.3677633799612522,0.5246802911162376,0.08689817041158676,-16.72955697156497,19.063227668285435,0.31930879038317056,-16.913473701578443,16665.0,-6.562980430885612,0.00020913088337692898,625.0,0.5895810827612877,6.667710738825276,0.019959809258580208,-6.9440854310545745,0.03606970589607954,-19.037387351181952,24,3.0166457968441884,-0.11988620441406965,0.0,2500.0,0.0,-1.6602675810485379,-0.9991227984428406,0.0013978814007714392,0.0,0.0216796875,-1.0949637785976647
-13.899382884874889,0.44649279343973164,0.0,-18.73745823913416,-19.03978694030475,2661.0,0.9737522099823201,0.03,-8.28557289411524,-0.9957215741276741,1910238.0,0.008105930918827654,0.005859375,-0.8205439161909454,0.37318446561694146,0.5314591243863106,0.08689817041158676,-16.950184495382423,19.00945469032819,0.3769259676813228,-17.138135478617606,7353.0,-7.943465613187934,0.00019839021770167163,650.0,0.5974916860461235,8.104557878560119,0.019959809258580208,-8.325937158728067,0.037533174734562635,-18.98241938234184,25,3.2301212989383266,-0.12023214977234602,0.0,2600.0,0.0,-1.7110443783807567,-0.9991688951849937,0.0015232426667353138,0.0,0.0150146484375,-1.2548035858349535
-16.808660113789422,0.5063696414382047,0.0,-17.56721314265376,-20.404040609656775,2700.0,0.9939748515543136,0.0,-6.169075174625476,-0.9959858387708664,1982405.0,0.007042696024291218,0.0055908203125,-0.8252815601590555,0.3774213492870331,0.5361861005425453,0.08689817041158676,-17.32412773579542,19.121881549282783,0.3511111111111111,-17.505198623626768,11452.0,-5.787176167616576,0.0001864012549049221,675.0,0.6042732477188111,5.9679145420178,0.019959809258580208,-6.147435851476107,0.03799068005755544,-19.078881432246458,26,2.8633275532437987,-0.12351145576685667,0.0,2700.0,0.0,-1.7056833441827621,-0.9992203429341316,0.0014597309229429812,0.0,0.018994140625,-1.4909889920442363
-13.185487642731436,0.8477941225033281,0.0,-18.884110243818014,-21.65153882580169,2651.0,0.99797729348819,0.04,-3.92451650508965,-0.99649318754673,2052402.0,0.005727302515879273,0.007177734375,-0.825580069629359,0.3808517560362816,0.5428337141871452,0.08689817041158676,-17.159304505936312,18.95029917988857,0.36099585062240663,-17.364828323862618,15326.0,-3.7112955683434556,0.00018381962945568375,700.0,0.6105088338255882,3.8258911159861597,0.019959809258580208,-3.9600052250069107,0.038106448110193016,-18.866678634498243,27,3.0678489480130446,-0.12668081521987914,0.0,2800.0,0.0,-1.6973432695223891,-0.9992314293980599,0.0013377944793319329,0.0,0.0336669921875,-1.5337950809655776
-10.063455630739263,0.7528826283016024,0.0,-20.18076884969051,-24.579803995429458,2653.0,0.9727616645649433,0.06,-5.658455403847237,-0.9962162658572197,2119176.0,0.0038597136503085495,0.00634765625,-0.8274945552482678,0.38675369545817373,0.5502631559967994,0.08689817041158676,-17.41799666850925,19.15888416244868,0.4334715416509612,-17.610711130813996,7930.0,-5.286954126864151,0.00019044788496103138,725.0,0.6143713027238846,5.4490130782161765,0.019959809258580208,-5.526929155820494,0.040471992641687396,-19.089591070994935,28,3.457943830775124,-0.13128449730575084,0.0,2900.0,0.0,-1.6741091046496877,-0.9992029711604118,0.0014043500850675628,0.0,0.03623046875,-1.31564916285822
-9.645755102360011,0.5112425320597991,0.0,-22.308746558137283,-22.041405172467112,2640.0,0.0,0.03,-7.415480914175137,-0.9960765674710274,2185043.0,0.002917781553696841,0.0068603515625,-0.8354383604244504,0.3904063329100609,0.5567320182919502,0.08689817041158676,-17.21949460668536,18.704871160025043,0.4715909090909091,-17.38694415149541,675.0,-7.031535100405293,0.00018614489235915243,750.0,0.6197606533765793,7.205822372045624,0.019959809258580208,-7.401293894889653,0.03968487540259957,-18.637911656475023,29,3.6405486524894144,-0.13430981300771236,0.0,3000.0,0.0,-1.6212682583740388,-0.9992214515805244,0.0014379256725078448,0.0,0.0218017578125,-1.2955987550668837
-12.280506411601197,0.4658709746277691,0.0,-19.6875305840146,-21.216811131536186,2649.0,0.9896771771771772,0.05,-7.222103357138425,-0.9966815397143364,2253994.0,0.0015365036408184097,0.006298828125,-0.8373377657306265,0.3975759260356426,0.5615526273846626,0.08689817041158676,-16.433340552732336,17.68199419290185,0.4163835409588524,-16.58626848889511,10656.0,-6.829908587904884,0.00017136044516519178,775.0,0.6223554328083992,6.983034710801438,0.019959809258580208,-7.192147569313025,0.0409623833373189,-17.649752069937016,30,3.191247520237625,-0.13413110449910165,0.0,3100.0,0.0,-1.6121103012366802,-0.9992849126458168,0.001292524390737526,0.0,0.026171875,-2.242499927908431
-13.644535961483479,0.5027234466644734,0.0,-20.303725570291494,-21.790838302174173,2700.0,0.9957374788441046,0.0,-7.258035053666146,-0.9965517550706864,2319467.0,0.0012606803851667792,0.00673828125,-0.8436097293269995,0.40519582107663155,0.5684281498193741,0.08689817041158676,-16.251568781286842,17.427054797263867,0.4777777777777778,-16.419013590154528,15953.0,-6.858183439800195,0.00015543868958047823,800.0,0.6261536747217178,7.027138265526735,0.019959809258580208,-7.215562611333413,0.04014525441452861,-17.374426898557463,31,3.0087124762561896,-0.1359250582754612,0.0,3200.0,0.0,-1.5566010722395731,-0.999353238940239,0.001323717163177207,0.0,0.051123046875,-1.8840208478847047
-13.561304943760852,0.45155985706018253,0.0,-20.123408334500816,-19.73097050993248,2665.0,0.9964410589410589,0.05,-7.462162135092953,-0.996313638985157,2383936.0,0.0004716450748674106,0.006005859375,-0.8462204517141799,0.4099486730992794,0.5747827097773552,0.08689817041158676,-16.238472389746033,17.28840715470193,0.4878048780487805,-16.407315911056315,16016.0,-7.063973287478578,0.00015048800869408297,825.0,0.6321578681468963,7.235288972154455,0.019959809258580208,-7.439274293324113,0.03973320676013827,-17.264167501774182,32,3.3373633809580587,-0.13913130536675453,0.0,3300.0,0.0,-1.5116211726162874,-0.999374495446682,0.0013809466327074915,0.0,0.0424072265625,-1.601968090462523
-14.440851253128866,0.5917678789260734,0.0,-20.503976234466066,-21.199505041624096,2606.0,0.9999418367940441,0.07,-7.289413277310004,-0.9971004590392113,2447252.0,9.310303912570816e-05,0.006298828125,-0.8499296810776287,0.41455106139183046,0.5814188480377197,0.08689817041158676,-16.596314080742268,17.700523811417572,0.49769762087490405,-16.768064623075674,17193.0,-6.911154690586743,0.00014559598075720715,850.0,0.6368514493107795,7.139568107380123,0.019959809258580208,-7.269479095752177,0.0400672328658402,-17.688530734193634,33,2.9274454735011948,-0.14007904157042503,0.0,3400.0,0.0,-1.4970609759846412,-0.9993954986333847,0.0011918396514374763,0.0,0.0619384765625,-3.4639215363377263
-15.558017341000724,0.4790679037113671,0.0,-20.248626354413137,-21.9771525609616,2606.0,0.9956529781724011,0.07,-7.8232924127403205,-0.9972928002476692,2512641.0,1.634908809933222e-05,0.00576171875,-0.8530419459173573,0.4197387047111988,0.5893955945968627,0.08689817041158676,-16.982666859838208,18.020890134536153,0.4535686876438987,-17.179963686393936,10812.0,-7.4283446037532554,0.00013446636621665674,875.0,0.6407442346215249,7.566431073070952,0.019959809258580208,-7.817678333243633,0.03968363450840116,-18.00639323987279,34,2.414489304317029,-0.13914060816168786,0.0,3500.0,0.0,-1.4611586097416875,-0.9994432657957077,0.001145613464177586,0.0,0.081298828125,-0.9130751839812525
-12.50546904245504,0.4779435201104921,0.0,-21.13009981091148,-22.599682987032924,2622.0,0.9533523908523909,0.07,-6.465900723155068,-0.9971910506486893,2575887.0,-0.0010648590978235006,0.00703125,-0.8601283206575318,0.42367520108819007,0.5962705761194229,0.08689817041158676,-17.266078341596106,18.40857498166511,0.4977116704805492,-17.46612430287727,7696.0,-6.018862461218139,0.00013153242034604772,900.0,0.6449385643005371,6.211895233480797,0.019959809258580208,-6.422792139941521,0.0380444067530334,-18.380635370096186,35,2.7264219749004646,-0.13625328727066516,0.0,3600.0,0.0,-1.4750359567609848,-0.9994558706879616,0.001170068192004692,0.0,0.0431396484375,-2.423849299836933
-10.569018274723968,1.5927151441415053,0.0,-22.01370859971053,-24.913488840826762,2583.0,0.11533420707732635,0.1,-3.5594493186345586,-0.9971746549010276,2639509.0,-0.0025245113298296928,0.007080078125,-0.8612658370242571,0.429697797447443,0.6010368674993515,0.08689817041158676,-17.277548553340228,18.44504846825435,0.4804490902051878,-17.470087323578404,763.0,-3.342924628429272,0.00012479031356633642,925.0,0.6504728838801384,3.2356393738403426,0.019959809258580208,-3.943669913798318,0.03735911473631859,-18.433500374267805,36,3.2327997339445047,-0.13763946667313576,0.0,3700.0,0.0,-1.4665316640974198,-0.999484796822071,0.0011740094021661207,0.0,0.1029296875,-0.12404321344428852
-8.2713616494982,0.6816911488174947,0.0,-20.39726254187205,-22.754542313987272,2687.0,0.9992889520931473,0.02,-4.490678233792452,-0.9967299461364746,2713480.0,-0.0025796700094360856,0.006591796875,-0.8544102984422353,0.43229086995124816,0.6045642524957657,0.08689817041158676,-17.3969129564883,18.747855383182458,0.3222925195385188,-17.554718685945012,11251.0,-4.091572979828998,0.00013392350392678055,950.0,0.6548342525959014,4.279006413534406,0.019959809258580208,-4.4514445496794774,0.03766783019527793,-18.727176495689314,37,3.731421480555042,-0.1342979595065117,0.0,3800.0,0.0,-1.5316535484947962,-0.999445590376854,0.0012808900064555928,0.0,0.0918212890625,-2.9324180309053784
-10.249508788419012,0.8284123440884571,0.0,-20.51691892076705,-25.357687667428742,2685.0,0.984700581941055,0.03,-6.295177995030887,-0.9969544723629952,2780150.0,-0.0037087318953126667,0.0065185546875,-0.8518954992701765,0.4399056427180767,0.6085900694131852,0.08689817041158676,-17.016527081876426,18.40900029625048,0.45884543761638735,-17.18482954079004,10654.0,-5.92971954396131,0.00013399366816884138,975.0,0.6609158366918564,6.016434322535353,0.019959809258580208,-6.312651792282231,0.03870465364307165,-18.37275129321882,38,3.8551406902482968,-0.13754606060683727,0.0,3900.0,0.0,-1.5095612256845925,-0.9994452863931655,0.0012269259343156591,0.0,0.08349609375,-1.4844727662024713
-11.008682864257969,0.783649610219223,0.0,-20.372996284906964,-19.741991233772406,2688.0,0.9548162859980139,0.01,-5.858474473493674,-0.9969872504472732,2848598.0,-0.003924780205124989,0.00634765625,-0.8466691702298703,0.4465367831289768,0.615323144197464,0.08689817041158676,-16.85548345036574,18.493384920425363,0.4330357142857143,-17.02247925110823,8056.0,-5.533491946250358,0.0001461707613998442,1000.0,0.6681399777531624,5.714813300129695,0.019959809258580208,-5.894999020929826,0.03967918874695897,-18.446466883061632,39,3.5361824788832785,-0.14119380638003348,0.0,4000.0,0.0,-1.5245800550801505,-0.9993930324912071,0.0012190483190352096,0.0,0.0583740234375,-2.0931183844500856
-12.623077422712164,0.5377543641366349,0.0,-20.509730040722033,-22.47730482760565,2638.0,0.962800875273523,0.05,-7.205846126145888,-0.9971624538302422,2912185.0,-0.004985382710583508,0.0064453125,-0.8415562322625192,0.452209310233593,0.6235564723610878,0.08689817041158676,-16.618932584622957,18.411645607828923,0.4806671721000758,-16.75413634736647,8683.0,-6.8252860461020335,0.00015670410539314616,1025.0,0.6726306542754174,7.015743958474633,0.019959809258580208,-7.141286637675137,0.04035253524780273,-18.437614364767075,40,3.9241627218777424,-0.14226308539509774,0.0,4100.0,0.0,-1.5674532990153238,-0.9993478119373321,0.0011769410804845393,0.0,0.0685546875,-2.573771099224263
-13.320187543542678,0.6266112339279608,0.0,-19.545163038179883,-23.045690810297327,2682.0,0.9999234596249522,0.03,-6.043158067092021,-0.9971454948186874,2979346.0,-0.005766846647020429,0.0068115234375,-0.8414332509666564,0.4544041663408279,0.6280079945921898,0.08689817041158676,-16.512571844191893,18.375100748897502,0.4519015659955257,-16.663971697598434,13065.0,-5.624156142032055,0.00015144062454055529,1050.0,0.6789853945374489,5.847314958264372,0.019959809258580208,-5.984047105571057,0.03990514725446701,-18.40029270929296,41,3.843516466301385,-0.14429128877818584,0.0,4200.0,0.0,-1.5811899337684736,-0.9993704095482826,0.0011810185824288055,0.0,0.053564453125,-1.9628089767567412
-9.836155843474279,0.6164287113058143,0.0,-20.034028112598634,-23.212764396533455,2680.0,0.9746136865342163,0.03,-6.495763730053595,-0.9971750169992447,3046723.0,-0.007089924497995526,0.0072509765625,-0.8413044635526603,0.45547681823372843,0.6315000250935554,0.08689817041158676,-16.44541276184347,18.22570402046235,0.45186567164179103,-16.63524104035047,7248.0,-6.105565074130189,0.00015457051958946976,1075.0,0.6839253157377243,6.321117179874117,0.019959809258580208,-6.462128065625947,0.03912814604118466,-18.25377474079474,42,3.0748220405083497,-0.1460112038999796,0.0,4300.0,0.0,-1.525064561713225,-0.9993569791316986,0.0011739217152353376,0.0,0.0804443359375,-2.5508027379341645
-10.926828775493155,1.0213446666395798,0.0,-19.936659910913317,-22.3560483437528,2602.0,0.9606488434965456,0.09,-4.337748958924712,-0.9969834640622139,3113669.0,-0.007786465145181864,0.0058837890625,-0.8400032970639586,0.4570003017783165,0.6345695301890373,0.08689817041158676,-16.52774540464937,18.27789860655989,0.4404304381245196,-16.698372152655413,6658.0,-4.124176487420556,0.00015793526836205274,1100.0,0.6891057401895523,4.295517155963601,0.019959809258580208,-4.575680055513128,0.03901958661153913,-18.255419170661337,43,2.9604601751122694,-0.15032409876585007,0.0,4400.0,0.0,-1.541655791226367,-0.999342530965805,0.0012199620192404836,0.0,0.0609130859375,-2.5060809065073237
-9.727289594143114,0.7017134622713638,0.0,-20.741533639999677,-23.7584571412839,2599.0,0.9999429093400319,0.08,-6.679082160552538,-0.9973044529557228,3177679.0,-0.009108395618386566,0.006201171875,-0.8480641201567778,0.4552341282367706,0.6387237489223481,0.08689817041158676,-16.478466137871305,18.098711634305488,0.46748749519045785,-16.631707234405095,17516.0,-6.270877076094439,0.00015029850728751626,1125.0,0.6975688725709915,6.443528686702012,0.019959809258580208,-6.587874861981898,0.03804908832535148,-18.068830970971266,44,3.4616568790075917,-0.148750963807106,0.0,4500.0,0.0,-1.5288280082349957,-0.9993753179907798,0.001142813713522628,0.0,0.067724609375,-1.3219629053738662
-10.972572155362608,0.5180370034170194,0.0,-20.535183997311517,-23.650854606524977,2586.0,0.6914584543869843,0.08,-5.561366765121879,-0.9976763740181923,3241666.0,-0.008945436985231935,0.0065673828125,-0.8458793707119184,0.45723687037825583,0.6435350775718689,0.08689817041158676,-16.779185643207626,18.452276361476365,0.4717710750193349,-16.947970579276802,1721.0,-5.121996951170274,0.00015015441913419637,1150.0,0.7032714888453484,5.3080513259518955,0.019959809258580208,-5.546537164172127,0.03784553837031126,-18.437595599761107,45,3.3806187867677098,-0.1503915324807167,0.0,4600.0,0.0,-1.5451516593398993,-0.9993759393692017,0.0010534292217926123,0.0,0.0763427734375,-1.638634404675337
-10.208979298517544,0.5043345435513483,0.0,-20.52184828978095,-22.0592599306641,2621.0,0.9944852941176471,0.06,-5.438473694323109,-0.9975947007536888,3309602.0,-0.008134260773658752,0.0066650390625,-0.8464459781134792,0.45909728184342385,0.6482536271214485,0.08689817041158676,-16.59480641334843,18.105173052124968,0.4311331552842427,-16.725492097794408,14688.0,-5.0426491498374,0.00014778554686927236,1175.0,0.7075812116265296,5.286104826872909,0.019959809258580208,-5.466585745728096,0.03748914385214448,-18.077934413987226,46,3.185450916777305,-0.15085184648633004,0.0,4700.0,0.0,-1.5543271350572467,-0.999386091530323,0.0010730565743870101,0.0,0.08701171875,-2.1208237050009484
-11.466908096667249,0.3132039341463811,0.0,-20.784139527415597,-22.989463062705916,2650.0,0.9803897536462802,0.03,-6.864070749504833,-0.9979211464524269,3373739.0,-0.008561733458191157,0.006689453125,-0.8505679821922968,0.46289123594760895,0.6558119118213653,0.08689817041158676,-16.693399424714265,18.178576359626803,0.4977358490566038,-16.826648200450304,8159.0,-6.387484202271257,0.0001382606933475472,1200.0,0.7097879812121392,6.590363699614119,0.019959809258580208,-6.864580818041465,0.0374789415858686,-18.152528661716836,47,3.415362607179239,-0.15294517166912555,0.0,4800.0,0.0,-1.5078717053795117,-0.9994269803166389,0.0009945988465915434,0.0,0.0829345703125,-1.462016026037037
-11.190945038494734,0.5270344482986067,0.0,-20.576926041523887,-23.343898797543364,2652.0,0.9949393977258528,0.03,-6.654852840566963,-0.9966522753238678,3439897.0,-0.009187498153187335,0.005908203125,-0.852703443732753,0.46507512778043747,0.6636181578040123,0.08689817041158676,-16.895211512355843,18.340524861773908,0.46153846153846156,-17.039455694828117,16006.0,-6.22798898010097,0.0001329311862718896,1225.0,0.7139539092779159,6.433875084950041,0.019959809258580208,-6.592267574010076,0.03817536113783717,-18.302060947963415,48,3.5785473756037844,-0.1530553698539734,0.0,4900.0,0.0,-1.5118759440789291,-0.9994498640298843,0.001299556906451471,0.0,0.0849365234375,-2.3360379895214014
-12.02908376510654,0.5415763777350524,0.0,-21.252503765500478,-24.12105530389957,2624.0,0.9923891462607545,0.06,-6.660088849639331,-0.9978456199169159,3502866.0,-0.009996813582256436,0.0069580078125,-0.85371978974581,0.4656550377607346,0.6705475822091103,0.08689817041158676,-16.690724049071584,18.11522889540278,0.49809451219512196,-16.87801995113054,15110.0,-6.239576131193025,0.00014852135736873607,1250.0,0.72069071829319,6.437240069260369,0.019959809258580208,-6.618660709713373,0.03746258746832609,-18.07251433377176,49,3.3130873811114343,-0.157984609156847,0.0,5000.0,0.0,-1.4955292545142584,-0.9993829414248466,0.0010127508416189813,0.0,0.0939208984375,-2.7724065254580514
-11.411575585728347,0.5222019004132928,0.0,-22.584924811755364,-23.837537000723184,2590.0,0.981182436941145,0.09,-6.657816336982788,-0.9979707553982735,3559643.0,-0.010264839208684862,0.007763671875,-0.8538804382114904,0.4692462645471096,0.6775492846965789,0.08689817041158676,-16.581605276809036,17.915464630728458,0.5942084942084942,-16.75088139109179,7493.0,-6.229801396063967,0.00014192155649652704,1275.0,0.7249069407582283,6.420995497115934,0.019959809258580208,-6.610142891274743,0.03775876834988594,-17.897808223753543,50,2.9326954948793946,-0.15993363372981548,0.0,5100.0,0.0,-1.4699448511382798,-0.9994112595915794,0.0009826756227994337,0.0,0.1034912109375,-1.8516688274135427
-11.496803545768694,0.5395441896068446,0.0,-22.59246230457204,-25.708707405060586,2640.0,0.993247191740796,0.06,-6.610347259472422,-0.9982243835926056,3617488.0,-0.010602151486091315,0.0076171875,-0.8573663755087182,0.47307822331786153,0.6851569309830665,0.08689817041158676,-16.79416097264683,18.06990557889886,0.5969696969696969,-16.995734670911023,15401.0,-6.186650920736755,0.00014437872705457265,1300.0,0.7284524798393249,6.386051468976525,0.019959809258580208,-6.601778191842594,0.037294605281203985,-18.019991932792063,51,2.748893563145818,-0.16297529488801957,0.0,5200.0,0.0,-1.4355990065771038,-0.9994007289409638,0.0009217201441060752,0.0,0.061279296875,-2.9884910428985925
-10.405553994432728,0.5300134184939497,0.0,-23.196895286842487,-26.11132473213805,2601.0,0.870293965961836,0.06,-6.697323473681564,-0.9977949306368827,3674974.0,-0.012054117093794049,0.007421875,-0.8590989488271589,0.47626820877194403,0.6906521528959274,0.08689817041158676,-17.011562061705547,18.123547955192578,0.5909265667051135,-17.208914199400038,3878.0,-6.283529857699039,0.00015045109539642,1325.0,0.7323652446269989,6.467096245849864,0.019959809258580208,-6.700573262922267,0.036680277157574895,-18.09364402764377,52,3.4065776594286303,-0.16600765101611614,0.0,5300.0,0.0,-1.3929038193731684,-0.9993746668100357,0.0010249301834846848,0.0,0.0950439453125,-0.887198764506213
-11.493536435176921,0.40070824249924397,0.0,-22.640953159501734,-26.343006099678963,2624.0,0.9967635600839077,0.07,-6.560625867659249,-0.9981708735227585,3735023.0,-0.013776299869641661,0.007275390625,-0.8587430355066317,0.48054973855614663,0.6962324053049087,0.08689817041158676,-16.918131700345622,17.9428939530247,0.5560213414634146,-17.131833500329655,16685.0,-6.11273021399666,0.0001456529691495234,1350.0,0.7362541317939758,6.320220970909265,0.019959809258580208,-6.5543223949342275,0.03557525267824531,-17.914800565534843,53,2.6535031079953697,-0.16838304698467255,0.0,5400.0,0.0,-1.3867807487695245,-0.9993952482938766,0.0009345798272988759,0.0,0.1216064453125,-1.4099184586669176
-14.479761164187495,0.45161252712496525,0.0,-22.146602116270866,-24.57625803997644,2637.0,0.9929342492639843,0.05,-7.120139722234073,-0.9982997611165046,3796336.0,-0.01444475471507758,0.0079345703125,-0.8610177223621577,0.48688693195581434,0.7001709580421448,0.08689817041158676,-16.932791790705295,17.879252174158374,0.5328024270003792,-17.138355362269046,15285.0,-6.698586798761508,0.0001380178293402423,1375.0,0.7395407915115356,6.912773173130608,0.019959809258580208,-7.116947316898063,0.034690112620592115,-17.85884098477938,54,4.2234447032810785,-0.17121484987437724,0.0,5500.0,0.0,-1.3449262510497646,-0.9994280159473419,0.0009036013783770613,0.0,0.1218505859375,-2.282847645225671
-14.424219507297936,0.4443116639938772,0.0,-22.12602799421449,-24.3624900340574,2633.0,0.9629099713845477,0.05,-7.672461616127788,-0.9983958467841149,3857770.0,-0.016671792743727563,0.0075439453125,-0.864649478760839,0.4945658206939697,0.7032354012131691,0.08689817041158676,-17.262304752343493,18.241660680036752,0.5393087732624383,-17.47923227910926,9086.0,-7.255290991137154,0.00014078510866966099,1400.0,0.7454077392816544,7.436426991677618,0.019959809258580208,-7.685428814076505,0.03506816467270255,-18.231053456441423,55,2.902073410919984,-0.17159083895385266,0.0,5600.0,0.0,-1.3418737057254475,-0.9994161456823349,0.0008805093544651754,0.0,0.0916015625,-3.312417646286168
-16.70905632643808,0.5042276352990387,0.0,-21.711727106962996,-25.31496616617672,2582.0,0.997339593114241,0.07,-7.35501268843228,-0.9988783553242684,3919507.0,-0.01747477729804814,0.00732421875,-0.86167343994166,0.5004839524626732,0.7078921258449554,0.08689817041158676,-17.176335944798097,18.319445882298265,0.512006196746708,-17.39632260816046,12780.0,-6.934395850162605,0.00015100676955626113,1425.0,0.7506930381059647,7.1198939397584144,0.019959809258580208,-7.337089688084051,0.03473708424717188,-18.294671104698654,56,3.264957188439676,-0.17385462783277034,0.0,5700.0,0.0,-1.380896696101263,-0.9993722602725029,0.0007645448320545256,0.0,0.0986083984375,-1.8793450066582158
-15.005106680904749,0.4168272355063527,0.0,-22.295660690573328,-25.711825158353854,2586.0,0.9929328621908127,0.07,-7.812804497140201,-0.9988636434078216,3977978.0,-0.01825266843661666,0.007763671875,-0.8629512527943006,0.5060491383075714,0.7133907735347748,0.08689817041158676,-17.044220672462142,18.208621202557243,0.5576179427687549,-17.272604206653714,15282.0,-7.393095691858821,0.00014146008597890614,1450.0,0.7565807655453682,7.585997638533387,0.019959809258580208,-7.817720484972691,0.03498858297243714,-18.194275774336326,57,2.6975475579650943,-0.17579594664275647,0.0,5800.0,0.0,-1.369463562160672,-0.9994132444262505,0.0007680792798055336,0.0,0.108154296875,-1.7039796104746188
-15.262939589227884,0.4065090568591138,0.0,-22.522652892374637,-26.158116412852298,2662.0,0.9967458117391829,0.05,-7.791581277486662,-0.9948001503944397,4038703.0,-0.019090277282521127,0.0056396484375,-0.8619313085859176,0.5100909441709518,0.7184248894453049,0.08689817041158676,-17.16551858367888,18.378165342179805,0.5477084898572502,-17.398678143746775,16594.0,-7.37006954146738,0.00015029804708319717,1475.0,0.7624307855963707,7.565943333549271,0.019959809258580208,-7.797376643001184,0.03474932638928294,-18.3717047731702,58,2.702592794766611,-0.17856702990829945,0.0,5900.0,0.0,-1.3578737110379735,-0.9993753075599671,0.0017446941987145693,0.0,0.0580810546875,-1.733155042989908
-15.555900327875657,0.4403006205858798,0.0,-21.726896301781235,-25.63397202899891,2635.0,0.9910935180603662,0.05,-8.016879364816287,-0.9986097142100334,4100094.0,-0.0204595307353884,0.007470703125,-0.8633178407966625,0.5128330901265145,0.7228551581501961,0.08689817041158676,-17.098224186206682,18.39796042416391,0.5351043643263758,-17.32431346111514,10105.0,-7.602182842415982,0.00013559648650698363,1500.0,0.7686040624976158,7.820403221875004,0.019959809258580208,-8.03085689922911,0.03467454863712192,-18.370029600431643,59,2.319668299176171,-0.18123848512768745,0.0,6000.0,0.0,-1.3311896211002021,-0.9994384258985519,0.0008291095786262303,0.0,0.0859619140625,-2.0198857781839887
-14.167756325468092,0.47816064498290645,0.0,-23.315030610301225,-26.57349627248986,2606.0,0.9929397921161012,0.07,-7.978225693801607,-0.998695382475853,4159548.0,-0.021459700632840396,0.0069091796875,-0.8626278271432966,0.5158775612711907,0.7265960738062859,0.08689817041158676,-16.692018694529928,17.91551635878065,0.5587106676899463,-16.909109961099652,15297.0,-7.561728620488924,0.0001215241394675104,1525.0,0.7747234314680099,7.8234554132769745,0.019959809258580208,-7.9471925966769685,0.03483525440096855,-17.87122656806513,60,2.4046561611358594,-0.18380138874053956,0.0,6100.0,0.0,-1.3602973935405316,-0.9994988337159156,0.0008085220018983818,0.0,0.1836669921875,-3.3303489388750065
-13.482582807028786,0.4163455504383046,0.0,-22.214572944688335,-26.774200975918085,2611.0,0.9984476513539929,0.07,-7.453574441318675,-0.9974619403481484,4221253.0,-0.022406319761648773,0.008154296875,-0.8596464611699048,0.5177168816328048,0.7317131027579308,0.08689817041158676,-16.91154359286845,18.081340631331223,0.5112983531214095,-17.130146704768958,17393.0,-7.0110705249438,0.00013422812589851673,1550.0,0.779484574496746,7.220576893164713,0.019959809258580208,-7.435501983489262,0.034283877443522216,-18.072056898298456,61,2.2791914582645765,-0.18645981773734094,0.0,6200.0,0.0,-1.3975346808954783,-0.9994442984461784,0.0011049641514546237,0.0,0.14140625,-1.3957146337819273
-13.592762718124726,0.41936822043535515,0.0,-21.750904985712193,-26.062124358281356,2657.0,0.9843089098103425,0.03,-7.3585143629952565,-0.9988124430179596,4285469.0,-0.022965563414618372,0.00693359375,-0.8596480016407441,0.5181098401546478,0.7368969649076462,0.08689817041158676,-16.817336256061033,17.896912861297476,0.49115543846443355,-17.05229130208187,7329.0,-6.92367608980787,0.00012213453592266888,1575.0,0.7849438533186912,7.13087017722965,0.019959809258580208,-7.349626893896243,0.034549844823777674,-17.892489398713682,62,2.5055109962632613,-0.1893409460783005,0.0,6300.0,0.0,-1.3978803413359855,-0.9994961977005005,0.0007803863685694523,0.0,0.1552734375,-1.5857042482033785
-13.51543099356784,0.4760420774445925,0.0,-21.14594123291042,-25.46635006927913,2619.0,0.9881718198796431,0.1,-8.268004148045609,-0.9986777558922768,4349958.0,-0.02338212006725371,0.008447265625,-0.8598500265114126,0.5209446653723717,0.7412179857492447,0.08689817041158676,-16.789553955019567,17.966408066670702,0.48033600610920196,-17.01245723066926,9638.0,-7.885472056576558,0.00011331901150697376,1600.0,0.7901895597577095,8.082632591407005,0.019959809258580208,-8.27626516853592,0.03451471002772451,-17.934856254577973,63,3.248629256908866,-0.19000601321458815,0.0,6400.0,0.0,-1.398691902848077,-0.9995340451598167,0.0008127570996293798,0.0,0.1665283203125,-1.788103615805234
-16.16581596582059,0.6053301012568999,0.0,-21.696241264743367,-26.637638274329483,2641.0,0.9867046533713201,0.07,-7.374249642572619,-0.9987630546092987,4412960.0,-0.02445344510488212,0.00830078125,-0.8584227109517087,0.5246305003762245,0.7469616666436195,0.08689817041158676,-17.046702367192403,18.2097238798096,0.508898144642181,-17.266677467549602,7371.0,-7.001624381144443,0.00011858429825224448,1625.0,0.7954957142472268,7.213449445621348,0.019959809258580208,-7.357323316835062,0.03476607203483582,-18.180128116972107,64,2.432351460680522,-0.19086724668741226,0.0,6500.0,0.0,-1.4216959842509822,-0.9995114356279373,0.0007922536256955937,0.0,0.161083984375,-2.2348678272103117
-14.794020929154028,0.6114999082020851,0.0,-22.085872584017512,-26.081531696775972,2548.0,0.9959371253496736,0.12,-7.988312048350423,-0.9985512539744377,4475583.0,-0.025789788411930203,0.0082275390625,-0.8611070722843579,0.5288532555103302,0.7517630696296692,0.08689817041158676,-17.022446702747015,18.196269009136238,0.5058869701726845,-17.22595636627603,15014.0,-7.6355684860990625,0.00011344871581968619,1650.0,0.8004811182618141,7.820304080625325,0.019959809258580208,-8.04427270624583,0.035339214373379946,-18.152486038225724,65,3.0910203247935693,-0.19325264878571033,0.0,6600.0,0.0,-1.455720931274118,-0.9995334714651107,0.0008431633526924997,0.0,0.174658203125,-1.5175067733289096
-16.18353223062698,0.542100399290003,0.0,-22.336727659910522,-26.400456149287656,2579.0,1.0,0.07,-7.767295941514628,-0.9985735729336739,4535615.0,-0.026200541062280536,0.0073974609375,-0.8596395193184435,0.5352204605937004,0.7569159150123597,0.08689817041158676,-17.012070269364244,18.207620874717243,0.5420705699883676,-17.23006416920201,18091.0,-7.374788129467804,0.00012039898392686154,1675.0,0.8043102532625198,7.5488987693521095,0.019959809258580208,-7.742627860088024,0.03571813814342022,-18.166390763651112,66,3.0999329920115817,-0.19385790936648845,0.0,6700.0,0.0,-1.4497750717855524,-0.9995036542415618,0.0008377935431781225,0.0,0.14375,-1.5120796241832175
-13.291010960330873,0.4838008024767163,0.0,-22.60226653535004,-26.085248367940956,2530.0,0.9984455063619091,0.13,-7.23482454899889,-0.9983977496623992,4591819.0,-0.026652897195890545,0.0080810546875,-0.8626235765354068,0.5408478140830993,0.7613962516188622,0.08689817041158676,-17.058361140568625,18.125411627734096,0.5885375494071147,-17.24073416982447,17369.0,-6.81609829992004,0.00013488048625731608,1700.0,0.8076394885778427,7.0086512455271714,0.019959809258580208,-7.211016500605227,0.035036251693964,-18.093666857577645,67,3.0017622334371534,-0.19398928359150885,0.0,6800.0,0.0,-1.4169234860244615,-0.9994414925575257,0.000880051615240518,0.0,0.1181396484375,-2.2006785797308908
-13.834529705135374,0.5350628931499628,0.0,-23.070417283368943,-24.95287131284434,2578.0,0.9944331983805668,0.11,-7.36504337431403,-0.9983475416898727,4648149.0,-0.02862214855849743,0.007958984375,-0.8597657681755664,0.5443075463175774,0.7651950344443321,0.08689817041158676,-16.94756979559667,17.96553769403976,0.5806826997672614,-17.117135848914295,15808.0,-7.003740570218975,0.00014120356408966472,1725.0,0.813480032980442,7.169163796182351,0.019959809258580208,-7.364460497962861,0.034871130529791114,-17.945368995880095,68,3.1627718402120957,-0.19455055445432662,0.0,6900.0,0.0,-1.3898353945485724,-0.9994143471121788,0.0008921184853534214,0.0,0.1378173828125,-1.7054383722691675
-14.936948908348551,0.4561421793547652,0.0,-22.274090001653324,-23.276088491283556,2582.0,0.9907502569373073,0.09,-7.118551366953424,-0.9983288303017617,4706266.0,-0.03010465423576534,0.0072509765625,-0.8589381344849244,0.5465032279491424,0.7693894997239112,0.08689817041158676,-16.736826257305314,17.722183822714214,0.5499612703330752,-16.900132835736297,14595.0,-6.702223627967326,0.00013437673787848327,1750.0,0.8181321635842324,6.904154761595082,0.019959809258580208,-7.102582951547009,0.03454072820022702,-17.707354995651144,69,2.930568753784545,-0.19556759521365166,0.0,7000.0,0.0,-1.3948919559719797,-0.9994436517357826,0.0008966155990492552,0.0,0.1664794921875,-1.6935487893482093
-15.34572703956213,0.4468130507647733,0.0,-22.086811125430337,-21.940438774650584,2679.0,0.9929402536279253,0.03,-7.9582411826952155,-0.998624150454998,4766305.0,-0.03169160159304738,0.00888671875,-0.8587979538846412,0.54948311150074,0.775864465534687,0.08689817041158676,-16.537915929213767,17.60303272245476,0.5625233296005973,-16.72800243082316,15298.0,-7.5619076182422305,0.00014281510302680545,1775.0,0.8218521803617478,7.737984221401939,0.019959809258580208,-7.961807345835567,0.03484205035492778,-17.567537220909276,70,2.728740445509107,-0.19798414707183837,0.0,7100.0,0.0,-1.372932677026256,-0.9994074329733849,0.0008256413508206606,0.0,0.1173095703125,-1.4184005672781546
-15.040852512594974,0.7969193716986777,0.0,-21.768816397185013,-26.280055193945355,2668.0,0.9980367409900435,0.04,-7.403992506555045,-0.9986144244670868,4827339.0,-0.03200410008430481,0.00673828125,-0.8586926973046503,0.5520714491605758,0.7816376179456711,0.08689817041158676,-16.381440740928504,17.326893312591704,0.5427286356821589,-16.557333288845097,14262.0,-7.061867389042391,0.00014635653587902198,1800.0,0.8248252466320991,7.15779129119876,0.019959809258580208,-7.4264243648240775,0.03497522259131074,-17.287005193427767,71,2.998337514207904,-0.19949441440403462,0.0,7200.0,0.0,-1.3784698080962698,-0.9993922218680382,0.0008279780318844132,0.0,0.13125,-1.247854870790466
-12.174319949948545,0.6171820647341939,0.0,-22.689732576826827,-26.11772375592382,2561.0,0.9907559572719803,0.12,-7.141055487833131,-0.9987365990877152,4885897.0,-0.03347932379692793,0.00791015625,-0.859813347319141,0.5549577847123146,0.7868865609169007,0.08689817041158676,-16.45049914417268,17.358149216133278,0.5654041390082,-16.655002017764,14604.0,-6.7394611963762285,0.0001474733424402075,1825.0,0.8272711008787155,6.977717835830953,0.019959809258580208,-7.086478212302214,0.035318360570818184,-17.32477429504728,72,2.918719916689194,-0.19926269091665744,0.0,7300.0,0.0,-1.3603180098492884,-0.9993874356150627,0.0007986124503077008,0.0,0.102783203125,-4.9355558176272245
-13.67196590981278,0.5153822307801577,0.0,-22.834484798679917,-25.853279931065373,2661.0,0.6426426426426426,0.04,-7.0931040218257975,-0.9988773807883262,4947144.0,-0.03388850623741746,0.0075439453125,-0.8619871754744963,0.5577641680836678,0.7894561439752579,0.08689817041158676,-16.4799839622951,17.530843495968934,0.5422773393461104,-16.68561079690883,1332.0,-6.668293691603532,0.0001299546102018212,1850.0,0.8304276272654534,6.866548078034482,0.019959809258580208,-7.084003974367841,0.03553563579916954,-17.504443884829026,73,2.550616833036826,-0.20090026445686818,0.0,7400.0,0.0,-1.3619753137012593,-0.9994626402854919,0.0007647774953511543,0.0,0.152490234375,-1.4949791275780295
-12.701921884579876,0.40076230860604645,0.0,-22.283378822731184,-26.789130699179815,2635.0,0.9883595602500539,0.06,-6.685839739218515,-0.9988715842366218,5008641.0,-0.03476565666496754,0.007568359375,-0.8651490723852475,0.5581569954752922,0.7915142744779586,0.08689817041158676,-16.57948863305107,17.58121541576829,0.5332068311195446,-16.804038306300022,13917.0,-6.213689592272377,0.0001298261640840792,1875.0,0.8321061283349991,6.414901279457837,0.019959809258580208,-6.677085217978361,0.03570114728063345,-17.552943755780127,74,2.0485159050992685,-0.2018856957554817,0.0,7500.0,0.0,-1.365207275042485,-0.9994631975889205,0.0007661722338525578,0.0,0.156787109375,-1.41414494876758
-11.988639616208951,0.4459944442972562,0.0,-22.083328583092083,-24.29665747891065,2672.0,0.9965619156764581,0.03,-7.637384554306484,-0.9988798677921296,5072340.0,-0.03620571531355381,0.0082275390625,-0.863972753687267,0.5586335733532906,0.7941230878233909,0.08689817041158676,-16.983183700376365,18.00146294681242,0.5014970059880239,-17.195871564383573,16579.0,-7.197405056709475,0.0001262088135263184,1900.0,0.834069450199604,7.408003421531769,0.019959809258580208,-7.6327678408411,0.03542721541598439,-17.997639592030254,75,2.571615197095583,-0.2040989514440298,0.0,7600.0,0.0,-1.395851071663492,-0.9994787156581879,0.0007641785137820989,0.0,0.1698974609375,-1.951592328237078
-13.777431271734947,0.36548063802281766,0.0,-22.211557136095553,-26.67110141943569,2674.0,0.9967203033719381,0.02,-6.757264656337057,-0.9987820118665696,5135372.0,-0.03707066429778934,0.00693359375,-0.8635563399730017,0.5597323104739189,0.7969329789280891,0.08689817041158676,-16.71198924649266,17.70826827373564,0.5190725504861631,-16.93976358523513,9757.0,-6.283336220544061,0.00011547354788490338,1925.0,0.8358538001775742,6.49551755366528,0.019959809258580208,-6.741024807317993,0.03617768110707402,-17.668928077959787,76,2.492616713687383,-0.20620994456112385,0.0,7700.0,0.0,-1.425758190761553,-0.9995247945189476,0.0007877007607021369,0.0,0.179931640625,-1.431829022269751
-11.444822858053334,0.3985321635010559,0.0,-22.231406828867314,-25.877395078046366,2641.0,0.9922330097087378,0.06,-8.236636516484637,-0.9987563803792,5198554.0,-0.037496038153767584,0.00712890625,-0.8659932860689878,0.5622216612100601,0.8010899409651756,0.08689817041158676,-16.844890114107326,17.953792141070988,0.4929950776221128,-17.074012688942453,14420.0,-7.809119383413344,0.00010048815674963407,1950.0,0.838749623298645,8.009556628928848,0.019959809258580208,-8.237611987769487,0.03691104026511312,-17.90211185596086,77,2.1557836670185386,-0.2074997279793024,0.0,7800.0,0.0,-1.431397239207581,-0.999589116871357,0.000793856632662937,0.0,0.2149169921875,-1.0325212639721195
-16.475370891303182,0.5354718513530298,0.0,-21.42485068235406,-25.43534606353731,2684.0,0.9967664670658682,0.01,-8.225468793740612,-0.9987141460180282,5263377.0,-0.0392934950068593,0.006689453125,-0.8633868713965057,0.5656960785388947,0.8052627176046372,0.08689817041158676,-17.28181955104011,18.428471552023712,0.4690760059612519,-17.517914221094795,16700.0,-7.837179163508767,0.00010911952613241737,1975.0,0.8406803280115127,8.019771683154772,0.019959809258580208,-8.284360320073281,0.03766924608498812,-18.39682682669774,78,2.42098267993626,-0.20763151571154595,0.0,7900.0,0.0,-1.4423380260093837,-0.9995520606637001,0.00080401166487718,0.0,0.1866943359375,-1.2781100307826936
-16.01953346638273,0.44617743166626056,0.0,-21.48351864946244,-26.554024836365624,2629.0,0.9927213910230489,0.06,-7.1974810190812,-0.9986823916435241,5325938.0,-0.040601386595517396,0.0074951171875,-0.8617494181868096,0.5675908535718918,0.8071012809872627,0.08689817041158676,-17.164398201662028,18.176367685401335,0.49638645872955495,-17.36212621417796,14838.0,-6.757163192252946,0.00010422880041005556,2000.0,0.8438453942537307,6.973473441719508,0.019959809258580208,-7.207247877749372,0.03760245218873024,-18.13002002541454,79,4.344492916538341,-0.20846725143492223,0.0,8000.0,0.0,-1.4826908094742977,-0.9995730638504028,0.0008116399330901913,0.0,0.165576171875,-1.9072177394598488
-12.529092316297737,0.3090067384617366,0.0,-22.169431892402127,-25.90559847838599,2651.0,0.9929226736566186,0.03,-6.446248801020393,-0.9986839011311531,5389391.0,-0.04146681949496269,0.006982421875,-0.8611990810670249,0.5668213829398155,0.809660616517067,0.08689817041158676,-17.11004778278846,18.17934675354879,0.49566201433421353,-17.334846731499795,15260.0,-5.92769966985424,9.332860208814964e-05,2025.0,0.8475386694073677,6.138292306527225,0.019959809258580208,-6.42266678845493,0.03808507490903139,-18.15423330340183,80,2.1520333677809442,-0.20926543772220613,0.0,8100.0,0.0,-1.4584972249882413,-0.9996198356151581,0.0008112785624689422,0.0,0.1858154296875,-1.3312938099432479
-12.957590243780098,0.4371869285619213,0.0,-21.762910716411355,-26.316303967614676,2629.0,0.9878774680603949,0.05,-7.853137277868596,-0.9986601829528808,5451460.0,-0.04114779867231846,0.007275390625,-0.8611609117899206,0.567575852572918,0.8127416372299194,0.08689817041158676,-17.09286114629025,18.192981685851123,0.5142639786991251,-17.310397765717333,13776.0,-7.451425662807137,0.00010542576255829772,2050.0,0.8510242730379105,7.615434528048011,0.019959809258580208,-7.917556867959169,0.03872367264702916,-18.156149941756244,81,2.4773139186294637,-0.2106317762285471,0.0,8200.0,0.0,-1.4538833111771965,-0.9995679140090943,0.0008169810680556111,0.0,0.20146484375,-1.0017241923133755
-12.849338354588129,0.68787043948787,0.0,-22.20169559676107,-26.506154310778133,2636.0,0.6254681647940075,0.06,-6.7940454918594835,-0.9988334819674491,5513937.0,-0.042232010141015054,0.0071044921875,-0.8587822827001219,0.5720908775925636,0.8166582003235817,0.08689817041158676,-17.02255298072991,18.13780568050076,0.4996206373292868,-17.214536209223372,1602.0,-6.396703789195763,0.0001046141107508447,2075.0,0.8544220551848412,6.65545849044535,0.019959809258580208,-6.780262514506053,0.0392807288095355,-18.101893810005528,82,2.552308412313722,-0.21194057092070578,0.0,8300.0,0.0,-1.4714748381942626,-0.9995713993906975,0.0007753333367872984,0.0,0.188818359375,-2.2034875839187325
-12.068136212126095,0.5204777446697381,0.0,-22.21751891131639,-26.64559420249966,2626.0,0.9924110141034251,0.06,-6.808683311565858,-0.998760299384594,5577365.0,-0.042480615060776473,0.007666015625,-0.8571312834457785,0.5743425533175468,0.8189461678266525,0.08689817041158676,-16.906292567857328,17.9778986755856,0.5,-17.107024101624255,14890.0,-6.375973295603224,0.00011741105736291501,2100.0,0.8578518405556679,6.570479128275565,0.019959809258580208,-6.80607288844072,0.03942885957658291,-17.944747486807614,83,2.661091929991877,-0.21090719290077686,0.0,8400.0,0.0,-1.443862568996701,-0.9995164558291435,0.0007929186715045944,0.0,0.1765625,-0.9327808531444955
-12.878464019080008,0.3670084861897309,0.0,-21.68037195468391,-26.35252840794196,2674.0,0.9967635600839077,0.03,-7.779881935205532,-0.99881102591753,5640900.0,-0.041586614493280646,0.007763671875,-0.8597809163053171,0.5759262546896935,0.8221075370907783,0.08689817041158676,-16.845644314065293,17.943398616114553,0.4992520568436799,-17.037882527312657,16685.0,-7.332875975598322,0.00011139371745230164,2125.0,0.8602378860116004,7.498377095739679,0.019959809258580208,-7.769141143542242,0.03999421810731292,-17.911729868591483,84,2.807776566375468,-0.21231011413037776,0.0,8500.0,0.0,-1.4381750464577636,-0.9995422974228859,0.0007807251357007771,0.0,0.167626953125,-1.5958703640172127
-15.272805800571707,0.3591507239614923,0.0,-22.433525492820113,-25.306271495089717,2682.0,0.9910835829022597,0.02,-7.919062641336905,-0.9988976031541824,5701678.0,-0.042525797802954915,0.0078125,-0.8590039426439035,0.5808362871408462,0.8227414071559906,0.08689817041158676,-16.71400648166703,17.82227632017466,0.5495898583146905,-16.903407563392296,14692.0,-7.499805080086827,0.00010940115080302349,2150.0,0.8624468132853508,7.68138888804757,0.019959809258580208,-7.919128846502092,0.04042008090764284,-17.78665472069887,85,2.9594139687667664,-0.21366685815155506,0.0,8600.0,0.0,-1.4244365963699237,-0.9995508581399918,0.0007599176809890196,0.0,0.175048828125,-1.376414030784398
-14.8328267231657,0.46467472393799564,0.0,-21.25266190984052,-26.75466978634933,2677.0,0.993095811893441,0.02,-7.823826360271175,-0.9987504452466964,5765603.0,-0.04391051037237048,0.0069091796875,-0.8590864626843541,0.5818181335926056,0.8266223385930062,0.08689817041158676,-16.986341438455106,18.081900343964993,0.49346283152782966,-17.18493696746882,15353.0,-7.4275120898529705,0.00010507812185096554,2175.0,0.866467273235321,7.604337972956918,0.019959809258580208,-7.8351958385465945,0.0400720676407218,-18.033530731303983,86,2.645054415821246,-0.21496185660362244,0.0,8700.0,0.0,-1.434580299618392,-0.9995694130659103,0.0007952865591505543,0.0,0.2037841796875,-1.7337430360869501
-15.10254678527926,0.546314269602744,0.0,-22.540433232228025,-26.54080550581828,2700.0,0.9926140859931416,0.0,-7.017410519335949,-0.9991173893213272,5826149.0,-0.04633527109399438,0.007861328125,-0.8623453563392104,0.5853596091270447,0.8270347982645034,0.09266714006662369,-16.986828417871603,18.029439302650616,0.5688888888888889,-17.187133458362066,15164.0,-6.58805659815597,0.0001109448065108154,2200.0,0.8700529620051384,6.766654918315224,0.01360953040421009,-7.013489885877041,0.03997133010998368,-17.967223933479282,87,2.650465115885719,-0.21612298414111136,0.0,8800.0,0.0,-1.3927593715998228,-0.9995442301034927,0.0007070985637255944,0.0,0.144775390625,-1.6252608057953803
-14.214223853860673,0.39029923834758257,0.0,-21.393882645196413,-26.914303649231464,2630.0,1.0,0.04,-7.686623475605923,-0.9994207456707954,5888278.0,-0.04791438616812229,0.0066162109375,-0.8634983295378333,0.5900158330798149,0.8311699002981185,0.09266714006662369,-17.280791369326415,18.338792141355412,0.5201520912547528,-17.510795471479767,18094.0,-7.256144299236955,0.00010837632908078376,2225.0,0.8739256754517555,7.455254481523452,0.01360952015966177,-7.687821632016903,0.039587214775383475,-18.31693478111971,88,3.3122808361009533,-0.21792076602578164,0.0,8900.0,0.0,-1.3951693548820914,-0.9995552510023117,0.000634187956165988,0.0,0.2086669921875,-2.047522054116578
-16.236739314621854,0.35695762674215475,0.0,-21.995793496640985,-26.96790289919924,2684.0,0.9967647235036846,0.01,-7.7267734001025925,-0.9991734489798546,5949998.0,-0.04874068489298224,0.006591796875,-0.8661652111091825,0.593857952952385,0.8343712195754052,0.09266717862337828,-17.056238970732437,18.082502419100326,0.5409836065573771,-17.277302073014972,16691.0,-7.289633800539228,0.00010000978600146481,2250.0,0.878253872692585,7.4839948994887155,0.013609290914610028,-7.739172345553277,0.039595719520002605,-18.03623574496954,89,1.944869012578188,-0.22002167254686356,0.0,9000.0,0.0,-1.3842669004981871,-0.9995911598205567,0.0006936219040653668,0.0,0.2042724609375,-1.788497282251486
-14.365126830957932,0.40103946920174716,0.0,-22.058862269708236,-26.96121123978245,2634.0,0.9961070559610705,0.07,-8.143957944989868,-0.9993660390377045,6010389.0,-0.048654308449476956,0.007177734375,-0.8652479338539706,0.5982508033514022,0.839627879858017,0.0926648473367095,-17.03385147369668,18.04388696736799,0.5539104024297646,-17.268905076878518,16440.0,-7.749190321867566,9.513737986708293e-05,2275.0,0.8809037491679191,7.940147403347083,0.01360000935383141,-8.1833328687779,0.03986355690285563,-18.00613134447885,90,2.2071180458032136,-0.22406722903251647,0.0,9100.0,0.0,-1.3885380066582003,-0.999612084031105,0.0006473317262134515,0.0,0.2302978515625,-1.872840823693468
-17.07971014480254,0.42758896657045115,0.0,-21.089714463871587,-26.894475865244235,2658.0,0.9928781443972557,0.04,-7.746776121730518,-0.999326515197754,6076344.0,-0.05014747977256775,0.0066162109375,-0.8684904750065471,0.6010107859969139,0.8461448341608048,0.09265376441180706,-16.957625035688327,18.093420072934492,0.45861550037622273,-17.195065456630367,15305.0,-7.3084621446091775,8.587191750848433e-05,2300.0,0.8848764657974243,7.520473550788178,0.013562084315344692,-7.7160683446777,0.03961294256150723,-18.058719509553576,91,2.176188901725059,-0.2254844516515732,0.0,9200.0,0.0,-1.3928883560940448,-0.9996518492698669,0.0006568335375050083,0.0,0.2617431640625,-2.147868073198399
-17.22710908095087,0.37326429382490356,0.0,-20.539248371133585,-26.90534581148338,2661.0,0.9949384490408049,0.02,-8.293303395330135,-0.9992416456341744,6144643.0,-0.05065418863669038,0.0072265625,-0.8664439210828278,0.6043998062610626,0.8509424567222595,0.09740588590502738,-16.946932121815586,18.151154702282405,0.4208944006012777,-17.158197732570294,16003.0,-7.8893868051113545,8.390204584429739e-05,2325.0,0.888067401945591,8.072458273930192,0.008546424261294306,-8.313718131357453,0.039619664661586285,-18.114674377241627,92,2.6029740867364106,-0.22838362045586108,0.0,9300.0,0.0,-1.4407341066769732,-0.9996603026986122,0.000677230310975574,0.0,0.20771484375,-1.5020078377332717
