ReemS3/reg_curious_hac/data/d4a6886/UR5ReacherEnv-v1/alg:chac|eta:0.5|fw:1|fwhidsiz:256,256,256|nlev:2|reg:True|rolbatsiz:1|timsca:27,27|100/progress.csv
train/success_rate,train_1/q_grads,train_0/reward,train_1/subgoal_succ_rate,train_0/reward_-0.0_frac,train_0/q_grads_std,test/episodes,train/episodes,train_0/q_loss,train_0/mu_grads_std,train_1/reward_-27.0_frac,test_1/n_subgoals,test_1/subgoal_succ_rate,train_0/mu_loss,test/success_rate,train_1/fw_bonus,train_0/fw_bonus,train_1/mu_loss,epoch,train_0/avg_q,train_1/n_subgoals,train_0/reward_-1.0_frac,train_0/target_q,train_1/avg_q,train_1/mu_grads_std,train_1/target_q,test_1/avg_q,train_0/mu_grads,train_0/q_grads,train_1/mu_grads,train_1/current_q,train_0/next_q,train_1/fw_loss,test_0/avg_q,train_1/reward_-1.0_frac,train_1/q_grads_std,train_1/reward_-0.0_frac,train_0/fw_loss,train_1/reward,train_1/next_q,policy/steps,train_0/current_q,train_1/q_loss
0.0,0.005537255000672303,-0.7947069056797773,0.004074074074074074,0.0,0.12598341852426528,25.0,100.0,0.894766632559079,0.18086812794208526,0.0,675.0,0.0,5.814525677545378,0.0,-0.9995014533400536,-0.9990573689341545,13.108464827689142,0,-6.410832132487639,2700.0,0.0418212890625,-6.065978743782116,-7.2722870760753535,0.15538663044571877,-13.901745175012405,-3.095957511077081,-0.007748097891453654,0.004517839709296823,-0.030770916026085615,-14.396038654105599,-5.825249037260242,0.00306215253949631,-2.924746205430765,0.137353515625,0.12231414075940847,0.0,0.02437945227138698,-2.108906002952426,-13.975547878374703,90954.0,-6.064510646674242,26.03645238097082
0.0,0.008669337490573525,-0.7977006273533334,0.003703703703703704,0.0,0.15433439686894418,50.0,200.0,0.7007862237135735,0.23380909115076065,0.0,675.0,0.0,6.954447814021748,0.0,-0.9995822891592979,-0.9991610080003739,26.999984892604733,1,-15.183376311568123,2700.0,0.0563720703125,-7.230289102606004,-14.020981488034748,0.1786055348813534,-24.982394428704502,-26.9999995841924,-0.01335103779565543,-0.0010732864917372353,-0.036131421104073524,-26.999982101761788,-6.946329412851204,0.002570609134272672,-26.984511504159958,0.0896728515625,0.13836419358849525,0.0,0.02169898678548634,-2.097984502364125,-26.999998065634976,181865.0,-7.182893658439326,49.034086957177195
0.0,0.008147872891277075,-0.7919861273170682,0.0,0.0,0.18552970364689828,75.0,300.0,0.5355889279338918,0.26223369911313055,0.0,675.0,0.0,8.09183062252258,0.0,-0.9997166186571121,-0.9993775233626365,26.999976411713845,2,-26.99213994282616,2700.0,0.0785888671875,-8.352328266669534,-26.999999888886357,0.17858993746340274,-24.97722673515542,-26.999999379333783,-0.02438699584454298,-0.004135590337682515,-0.03616296853870153,-26.999975518915086,-8.07407631218953,0.001753686321899295,-26.999331674341775,0.1248779296875,0.1382256716489792,0.0,0.016100185504183174,-2.1186571381993415,-26.999997492034208,272990.0,-8.275102630522236,48.885650005019805
0.0,-0.027159523405134677,-0.7906188007320452,0.005555555555555556,0.0,0.20944231674075126,100.0,400.0,0.4759640797352815,0.2847841873764992,0.0,678.0,0.004424778761061947,8.78670961048891,0.0,-0.9994409263134003,-0.9994749069213867,26.865522429195458,3,-25.74118829236925,2700.0,0.11396484375,-9.039901066667623,-22.89470589845352,0.19657375365495683,-24.972088538776283,-26.937802804569554,-0.031021880684420466,-0.00264650754397735,-0.043954817950725554,-26.939923463262836,-8.763893563562664,0.003430355415912345,-26.67808168066751,0.107177734375,0.1661909691989422,0.0,0.013582013198174536,-2.133228756619064,-26.983671080866305,363820.0,-8.954793362087843,48.16696109120808
0.0,-0.032600657735019925,-0.7911595427394786,0.0007407407407407407,0.0,0.22784791551530362,125.0,500.0,0.42668943652451086,0.3044775158166885,0.0,675.0,0.0,8.914552658954124,0.0,-0.9995742052793503,-0.9995798245072365,26.99052261854297,4,-26.55104371212815,2700.0,0.2041015625,-9.180151208270654,-23.488745558694042,0.20528527162969112,-24.909385269675447,-26.97552444488042,-0.03886128403246403,-0.004190080403350294,-0.03996690372005105,-26.913773181318938,-8.889048583705232,0.00261971372528933,-26.917162608908605,0.129248046875,0.19231011681258678,0.0,0.010868792422115803,-2.1418769500101917,-26.981127069477157,454923.0,-9.079331280974907,49.54045150202271
0.0,-0.040913584548979996,-0.7922481753274042,0.011111111111111112,0.0,0.23922114148736,150.0,600.0,0.44202579637635464,0.3240478068590164,0.0,737.0,0.10176390773405698,9.365741113456187,0.0,-0.9984907358884811,-0.9994865879416466,3.494022211181554,5,-22.419300398879653,2700.0,0.1564208984375,-9.629214769971105,-19.216611046800224,0.2186031501740217,-5.9963633614451535,-4.187008940952345,-0.04295133901759982,-0.0055608685710467395,-0.04198408760130405,-5.988001344319657,-9.3339699103312,0.009208729153033345,-16.36065235047121,0.091650390625,0.21127315051853657,0.0,0.01328000776702538,-2.1339255394887005,-4.648563971714502,545657.0,-9.515331719797913,1.7893871993015793
0.0,-0.051347536593675615,-0.8053463227683096,0.11407407407407408,0.0,0.2519987761974335,175.0,700.0,0.49048895153151584,0.3391232855618,0.0,677.0,0.0029542097488921715,9.518574719874778,0.0,-0.9982486367225647,-0.9995110124349594,6.812930985278676,6,-15.838584578705962,2700.0,0.207861328125,-9.802834721031662,-9.921576684635099,0.24438794068992137,-11.578858828770878,-16.302029199572043,-0.042835987731814386,-0.006719654297921806,-0.04039910975843668,-11.42885922336571,-9.482006662934875,0.010681037581525743,-26.714633039738352,0.046044921875,0.23132867738604546,0.0,0.0126485109096393,-2.1318391555862037,-11.169413730542638,632187.0,-9.687913445015395,9.342202347898814
0.0,-0.07407875899225473,-0.8181996169303603,0.005185185185185185,0.0,0.2647835619747639,200.0,800.0,0.5578288298322415,0.3523321568965912,0.0,675.0,0.0,9.592063106510318,0.0,-0.9975680515170098,-0.9992654323577881,8.826006701793371,7,-25.88357002448858,2700.0,0.142138671875,-9.900722144175436,-13.874766338552424,0.2483366560190916,-21.967561443213377,-9.12970742033745,-0.04859580649062991,-0.00844087132718414,-0.03845650479197502,-21.916316051508023,-9.56072995713965,0.014819859992712736,-25.87514089230875,0.0206787109375,0.2667634837329388,0.0,0.018998613487929104,-2.1352952524655846,-23.44374292528745,723164.0,-9.763997769312088,20.785522651016407
0.0,-0.09623353891074657,-0.8448164125606127,0.00037037037037037035,0.0,0.27716431468725206,225.0,900.0,0.6285175479015226,0.36018669232726097,0.0,675.0,0.0,9.829763892949321,0.0,-0.9956207022070884,-0.9989834174513816,4.026554601984065,8,-26.2164455755459,2700.0,0.1043701171875,-10.113927497394156,-17.164280990332756,0.2544399291276932,-13.569016690663323,-6.142123943529074,-0.0543587445281446,-0.011229512258432805,-0.03939838390797377,-13.624703772200974,-9.7725792902661,0.026662240037694573,-26.994019825494284,0.005517578125,0.3047619119286537,0.0,0.026291887601837517,-2.1483474630389536,-13.448498597914869,814281.0,-10.008707397864523,1.2444502636581622
0.0,-0.11531989146023988,-0.8719298679498024,0.0007407407407407407,0.0,0.28876556307077406,250.0,1000.0,0.6937451323208969,0.37163903266191484,0.0,675.0,0.0,10.755279912770419,0.0,-0.9964611738920212,-0.999011105298996,1.5883742209584413,9,-25.594289327413385,2700.0,0.07802734375,-11.059345599870218,-13.833359716932124,0.2606963202357292,-15.214907539135428,-2.216982936475161,-0.063600561209023,-0.01137146286200732,-0.0400257308036089,-15.245931452681205,-10.682927187253805,0.021551131852902472,-26.999997230220444,0.0029541015625,0.33995979800820353,0.0,0.025575791113078596,-2.1308111502978138,-15.303763107861817,905378.0,-10.943166451907372,1.9494349113842446
0.0,-0.11940344050526619,-0.8673563534430286,0.0,0.0,0.29850726053118704,275.0,1100.0,0.5594203378190896,0.38207373321056365,0.0,649.0,0.0,10.60750290232873,0.04,-0.9978116527199745,-0.9990925833582878,1.7454306609706656,10,-26.92884216795273,2700.0,0.1005615234375,-10.936521066923579,-17.701983828065632,0.2649653568863869,-14.058599771168048,-0.5798801884836077,-0.06819822136312723,-0.011914269556291402,-0.03778091352432966,-14.100691700923894,-10.556574485923424,0.013338416651822626,-26.99999980021288,0.0037841796875,0.3731228567659855,0.0,0.023468587454408406,-2.1476362947571035,-13.916480496235545,995776.0,-10.82218218405762,3.158364560421643
0.0,-0.11917512975633145,-0.8458688121827436,0.0,0.0,0.3073018953204155,300.0,1200.0,0.4904702665118178,0.39131392613053323,0.0,675.0,0.0,11.09825540608286,0.0,-0.9986897423863411,-0.9992327481508255,1.5110961933403253,11,-26.999993857541874,2700.0,0.11787109375,-11.390684029063127,-14.4445854760574,0.27453000470995903,-13.696057024039684,-1.0761573930867774,-0.06946067418903112,-0.013045620918273926,-0.038365729991346596,-13.707023033611545,-11.050491880235976,0.007998456503264606,-26.99999856145994,0.028076171875,0.3843776427209377,0.0,0.019844308379106224,-2.1654581522830996,-13.635344623486628,1086901.0,-11.264207158265108,0.9406705384593135
0.0,-0.12507266122847796,-0.8327315427413851,0.0,0.0,0.31414419040083885,325.0,1300.0,0.4715946287849837,0.40068375170230863,0.0,675.0,0.0,10.943648688475456,0.0,-0.9976386278867722,-0.9993497937917709,0.4366197058180366,12,-26.659997335646292,2700.0,0.162939453125,-11.23573252354401,-14.217084660323625,0.28489670753479,-14.22587793145209,-0.5844661522203298,-0.07349271140992641,-0.01601975690573454,-0.0375641823746264,-14.191419864173008,-10.891602583941145,0.014390649134293198,-26.99976887842329,0.020361328125,0.394232501834631,0.0,0.016817111428827046,-2.1203403083294687,-14.415878268850964,1178026.0,-11.103298506350841,5.265779058525901
0.0,-0.1327192485332489,-0.8238199817111308,0.0,0.0,0.32179397270083426,350.0,1400.0,0.5023828806038029,0.40974494963884356,0.0,675.0,0.0,11.152015306950696,0.0,-0.9980414137244225,-0.9995442613959312,1.9416721716278396,13,-26.942488378506024,2700.0,0.19228515625,-11.41420986023457,-15.823135465518593,0.2871168114244938,-13.540559831640127,-0.5901263583855376,-0.0742737838998437,-0.014479028340429068,-0.03971551610156894,-13.595325743133964,-11.10807843786672,0.011941150878556073,-27.0,0.02236328125,0.41901248767971994,0.0,0.011788551497738808,-2.131479203295021,-13.681651843748963,1269151.0,-11.276956159817832,1.5113616269989507
0.0,-0.13282041624188423,-0.7904604006376758,0.0,0.0,0.32983028292655947,375.0,1500.0,0.40791180304961144,0.4177126683294773,0.0,649.0,0.0,10.312825992655652,0.04,-0.9990937128663063,-0.9995975688099861,5.39695292906508,14,-27.0,2700.0,0.2389892578125,-10.570803869907524,-14.508072531593873,0.2898126445710659,-12.430414337265601,-0.20429919115998488,-0.07707519754767418,-0.015771999256685376,-0.04248785739764571,-12.43322156159927,-10.29201011678198,0.00554184538195841,-27.0,0.0973876953125,0.43492916598916054,0.0,0.010410262527875603,-2.173765601346531,-12.40065147823348,1359550.0,-10.428967414400514,1.3106932329214196
0.0,-0.1331973783671856,-0.7845113916810078,0.0,0.0,0.335463135689497,400.0,1600.0,0.3955455360925756,0.42678026109933853,0.0,675.0,0.0,10.14848092729147,0.0,-0.9991734102368355,-0.9995891779661179,1.4605884052102196,15,-26.92140093060163,2700.0,0.213720703125,-10.42031451939113,-13.879111933284076,0.290994631499052,-12.998491616155842,-0.0875712765607558,-0.07807837221771478,-0.016735840728506444,-0.04315327368676662,-13.01459664751207,-10.128606841190607,0.005057173845125362,-26.97221515975809,0.1093017578125,0.4395461417734623,0.0,0.010626689461059869,-2.1493791817862076,-13.132789385612384,1450675.0,-10.260310397190462,0.943987461447915
0.0,-0.13201822638511657,-0.8090436827740632,0.0,0.0,0.3404914945363998,425.0,1700.0,0.41152351578226953,0.43663560673594476,0.0,675.0,0.0,10.596865680017117,0.0,-0.9990359991788864,-0.999605917930603,1.0027540009204157,16,-26.856764403716262,2700.0,0.20380859375,-10.878479222447755,-17.993696775972563,0.2909741923213005,-24.726452571070478,-0.46846117221984296,-0.08117387890815735,-0.017366608930751683,-0.04415987674146891,-25.501678983084837,-10.558952936307584,0.005892753548687324,-26.999905568103507,0.1120849609375,0.46333677098155024,0.0,0.010194042278453708,-2.120465266382962,-27.0,1541800.0,-10.732894814073244,18.829308287794213
0.01,-0.1328745849430561,-0.816843386443361,0.0,0.0,0.34403238371014594,450.0,1800.0,0.3805393945330492,0.44385692179203035,0.0,675.0,0.0,10.783794214208381,0.0,-0.9992894023656845,-0.999653571844101,1.3823383128413986,17,-26.999241747020754,2674.0,0.223046875,-11.078572393458776,-26.99984209300993,0.2981409005820751,-24.832887376207406,-0.3416984085746162,-0.08635005280375481,-0.01724584079347551,-0.04436421114951372,-25.595469730912022,-10.741141644095162,0.004351752647198737,-26.999999992136843,0.161376953125,0.47305931970477105,0.0,0.008961846388410777,-2.128062669176143,-27.0,1632211.0,-10.937669787861145,17.499902582643415
0.0,-0.1335529375821352,-0.8092620954441372,0.0,0.0,0.34764275923371313,475.0,1900.0,0.3720820972963065,0.4523492641746998,0.0,675.0,0.0,10.661127740134031,0.0,-0.9994102120399475,-0.9997742012143135,0.44227028815437547,18,-26.99991697195552,2700.0,0.3072021484375,-10.931639076569809,-26.970318927114842,0.30456735491752623,-24.781898465141058,-0.14490658550318547,-0.09036619160324336,-0.018700120225548744,-0.044426700193434955,-25.51480100930424,-10.62010953095374,0.003617051767650992,-26.999999474912702,0.227783203125,0.48210239335894584,0.0,0.005842634319560602,-2.101621609672293,-27.0,1723336.0,-10.798831114715096,17.2299092496409
0.0,-0.13382354825735093,-0.8303241707726556,0.0,0.0,0.35141620263457296,500.0,2000.0,0.40141018513695476,0.46172001883387565,0.0,675.0,0.0,11.036308418358797,0.0,-0.9994306907057762,-0.9997596621513367,0.44848540612319815,19,-26.991191569047245,2700.0,0.3305419921875,-11.35004234131488,-26.934628527697285,0.30923054218292234,-24.878002456593457,-0.03254882916465025,-0.09132334515452385,-0.01827623168937862,-0.04562138905748725,-25.601558952096166,-10.991734073357797,0.003492492588702589,-26.99999992784702,0.181689453125,0.49151662960648534,0.0,0.00621813700417988,-2.100826187062194,-27.0,1814461.0,-11.20507852747679,18.372457793054913
0.0,-0.13366546295583248,-0.8486926277953899,0.0,0.0,0.3553782761096954,525.0,2100.0,0.5082518406662624,0.4712527558207512,0.0,675.0,0.0,11.554430403765073,0.0,-0.9991828352212906,-0.9997778326272965,0.34397172269063736,20,-26.806403297611016,2700.0,0.3155029296875,-11.848862380192909,-22.099545960815814,0.3122860327363014,-24.230211231239604,-0.050042114711089804,-0.09411444123834371,-0.01623291280120611,-0.04487173808738589,-24.499654932730756,-11.501606612101332,0.0049998532340396196,-26.99712893449659,0.0503662109375,0.5045292660593986,0.0,0.0057484250224661085,-2.117364851300954,-26.112041723752185,1905586.0,-11.713424603380822,9.861259665485154
0.0,-0.13036877028644084,-0.8307147798361256,0.0,0.0,0.3605618551373482,550.0,2200.0,0.43570908071604764,0.4780287854373455,0.0,675.0,0.0,11.172344859953364,0.0,-0.9993851810693741,-0.9997596442699432,1.2676297190389865,21,-26.961027263584437,2700.0,0.29951171875,-11.47409828776372,-14.445053938785643,0.31597659885883334,-10.48518022824643,-1.5909005640185487,-0.09689175821840763,-0.015215223073028028,-0.04704844830557704,-10.530243026954725,-11.12914075175818,0.003769284510053694,-27.0,0.0393310546875,0.5175099089741707,0.0,0.006218961859121919,-2.1470436641320703,-10.160081848003477,1996711.0,-11.312039865310533,1.5244282805822298
