ReemS3/reg_curious_hac/data/d4a6886/AntFourRoomsEnv-v0/alg:chac|eta:0.5|fw:1|fwhidsiz:256,256,256|nlev:2|reg:True|rolbatsiz:1|timsca:27,27|100/progress.csv
train_0/reward_-0.0_frac,train_1/target_q,train_0/target_q,train/episodes,train_1/next_q,train_0/reward_-1.0_frac,train_1/subgoal_succ_rate,test_0/avg_q,train_0/q_grads_std,train_0/mu_grads,train_1/q_loss,train_1/reward_-0.0_frac,train_1/mu_grads,train_1/reward_-27.0_frac,test_1/avg_q,train/success_rate,train_1/current_q,train_1/mu_grads_std,train_1/fw_loss,train_0/next_q,train_0/current_q,train_0/q_loss,policy/steps,test/success_rate,test_1/subgoal_succ_rate,train_0/fw_loss,epoch,train_1/reward,train_1/avg_q,train_1/q_grads_std,train_0/mu_loss,train_0/fw_bonus,train_0/reward,train_1/q_grads,train_0/mu_grads_std,train_1/n_subgoals,train_1/fw_bonus,train_0/avg_q,test_1/n_subgoals,train_1/mu_loss,train_0/q_grads,test/episodes,train_1/reward_-1.0_frac
0.0,-8.697616728098458,-8.395596119658805,100.0,-8.425637281056037,2.44140625e-05,0.0,-24.14507478898445,0.11870178747922182,-0.013035593111999333,1.7265525551777174,0.0,-0.02341611813753843,0.0,-11.506292468127048,0.0,-8.735278882544165,0.14182107336819172,0.06439923560246825,-8.110299891933703,-8.233130906699675,0.3851486594112884,91125.0,0.0,0.0,0.031844587391242386,0,-2.102699423068407,-8.123021893625026,0.1090306406840682,8.108912094806564,-0.993210457265377,-0.7222399904349004,0.012178802536800504,0.17278935723006725,2700.0,-0.9898226648569107,-7.164213573850961,675.0,7.0114208374525955,0.003614643536275253,25.0,0.0035888671875
0.0,-7.972496269616616,-6.02162104109766,200.0,-7.567246223657584,0.0009765625,0.001851851851851852,-26.258960421328492,0.13457384780049325,-0.017340553784742953,0.7900162290186545,0.0,-0.03540917346253991,0.0,-12.114488137373272,0.0,-7.999409519995865,0.1779649518430233,0.07393106892704963,-5.81670324276895,-5.9171301897773985,0.3678032586348864,182173.0,0.0,0.0,0.0168206688715145,1,-2.08435361013544,-13.169543472669252,0.1209089120849967,5.8257287540674465,-0.9964592322707176,-0.7199825447503827,0.005910036212299019,0.21066686660051345,2700.0,-0.9877501800656319,-17.258101992400682,675.0,6.141082982563479,0.0027073041070252656,50.0,0.001416015625
0.0,-8.892481157590904,-9.32849437777325,300.0,-8.636651811764674,0.0052490234375,0.0,-26.987546533288366,0.1478368304669857,-0.019093468179926278,1.4223097731194578,0.0,-0.045981279015541075,0.0,-13.450754265779432,0.0,-8.873694027711867,0.20403351448476315,0.0785094840452075,-9.10706315430323,-9.149262731935071,0.42723041196965494,273298.0,0.0,0.0,0.01233685719780624,2,-2.1052914199099177,-13.41226782549309,0.1390024222433567,9.101885820784153,-0.9974288195371628,-0.7203086444780638,-0.006624646915588528,0.22942412607371807,2700.0,-0.9867547124624252,-23.928810694021497,675.0,6.445564933590577,0.004469393054023385,75.0,0.0016357421875
0.0,-9.779276344289409,-7.679924996164068,400.0,-9.732016261035376,0.02080078125,0.0,-25.8506267386523,0.15902562402188777,-0.017302733892574907,2.7702359307254034,0.0,-0.049399508722126485,0.0,-12.969472209440031,0.0,-9.828811547498432,0.22791586704552175,0.08532174695283175,-7.441017393413508,-7.556109802524579,0.36292167920341095,364423.0,0.0,0.0,0.011053098086267709,3,-2.09775151409267,-13.641199766879563,0.1565469790250063,7.448867750465448,-0.997706413269043,-0.7184454917201947,-0.015503701753914356,0.25085852667689323,2700.0,-0.9852735444903373,-24.62929424343264,675.0,7.383179398855901,0.004263878485653549,100.0,0.001708984375
0.0,-7.871097205221811,-6.890269956184286,500.0,-7.325337823131875,0.02451171875,0.0077777777777777776,-26.999839169917134,0.16637465544044971,-0.017112523131072522,1.227201822157106,0.0,-0.0474307251162827,0.0,-13.192853928004357,0.0,-7.869852734775016,0.24017228409647942,0.09324824623763561,-6.563977141480423,-6.612015167534702,0.5233961871058168,455036.0,0.0,0.0,0.010387541982345283,4,-2.106631005639065,-13.375541857192536,0.16853295192122458,6.628850388286267,-0.9978503242135048,-0.715661006479786,-0.025954277301207185,0.2699414402246475,2700.0,-0.9835501000285148,-25.695132420271847,675.0,6.236593983248184,0.004080941097345203,125.0,0.001318359375
0.0,-7.597764965961517,-9.378339986496758,600.0,-7.068945115590192,0.03857421875,0.00037037037037037035,-26.999999998388358,0.17396471947431563,-0.01650650557130575,0.36383979476227285,0.0,-0.04484526626765728,0.0,-13.78819173516064,0.0,-7.604175423295854,0.2592265710234642,0.09668778777122497,-9.169116368232169,-9.193079729730057,0.2427225387139722,546145.0,0.0,0.0,0.009619417507201434,5,-2.0795969235194205,-13.710835358868415,0.1837259579449892,9.157696296740589,-0.9980164304375648,-0.7133392711621127,-0.027266420284286143,0.28172875121235846,2700.0,-0.9828022435307503,-26.47984816387296,675.0,6.07303711679787,0.007254147436469793,150.0,0.001513671875
0.0,-11.156701544463555,-9.341262641655488,700.0,-11.20777267302348,0.052783203125,0.008518518518518519,-26.985003660524775,0.17745518870651722,-0.013222882593981921,6.514746758017644,0.0,-0.04713285882025957,0.0,-12.946088979367916,0.0,-11.055342380111009,0.2725668095052242,0.0960906632244587,-9.171148308733976,-9.20541618201464,0.20635837772194385,636839.0,0.0,0.0,0.009295942261815071,6,-2.079320042485051,-13.920217617905305,0.19182783290743827,9.172690113638593,-0.9980863854289055,-0.7128371361177415,-0.04013184728100896,0.2953219644725323,2700.0,-0.9829320758581161,-26.05164002914205,675.0,6.955370518797333,0.007499764545354992,175.0,0.0013427734375
0.0,-9.299413710866824,-9.49400991131138,800.0,-9.10425502754487,0.0426025390625,0.01037037037037037,-26.999999999999357,0.18167137242853643,-0.009517875965684652,0.8292508543800267,0.0,-0.04745877385139465,0.0,-13.98868933652968,0.0,-9.311410468827168,0.2759043976664543,0.09468716476112604,-9.299382035342964,-9.334380248176066,0.21810341973299302,727380.0,0.0,0.0,0.009577458584681153,7,-2.065886197182408,-13.972325589409927,0.20390369817614556,9.305106954673587,-0.9980255097150803,-0.7140029875830806,-0.043795618787407876,0.3106355361640453,2700.0,-0.9832372173666954,-26.366483288889206,675.0,6.386751937943676,0.008694475167430937,200.0,0.0016357421875
0.0,-8.882957120993964,-9.615381625883881,900.0,-8.315964905444925,0.04609375,0.004074074074074074,-26.99112817965382,0.1854338377714157,-0.01002751726191491,1.6729735923201576,0.0,-0.047731944173574445,0.0,-11.534327001575493,0.0,-8.866258307740083,0.2798458352684975,0.09528907518833876,-9.484461545189442,-9.492665784965952,0.4635673021455708,818324.0,0.0,0.0,0.009608703362755478,8,-2.0886601158395934,-13.93071318333794,0.21014125049114227,9.49207031436753,-0.9980187505483628,-0.7163921874300285,-0.04908171333372593,0.3233814790844917,2700.0,-0.9831063687801361,-26.538482677269204,675.0,5.471673473001447,0.008201313391327857,225.0,0.0017333984375
0.0,-9.286886110964328,-9.589523692450895,1000.0,-8.845672207507283,0.0484619140625,0.005185185185185185,-26.944735563489537,0.18987097814679146,-0.010231189639307558,1.5919414216952146,0.0,-0.050767840910702945,0.0,-13.941723539934362,0.0,-9.273974382201526,0.2844970218837261,0.0949074300006032,-9.379090157521661,-9.41201610449404,0.2247693611972963,909153.0,0.0,0.0,0.009545097872614861,9,-2.120525336126593,-13.54403287506421,0.2180498618632555,9.381120057387932,-0.9980325043201447,-0.7149098064721329,-0.05071382196620107,0.33270488753914834,2700.0,-0.9831893503665924,-26.763319270993,675.0,6.1775609615824765,0.008479502866975963,250.0,0.0011474609375
0.0,-8.593028384512522,-9.480633513603896,1100.0,-8.173620809760195,0.0482177734375,0.0011111111111111111,-26.99995705960712,0.19905574731528758,-0.011410459387116134,1.2606763819938416,0.0,-0.05009454591199756,0.0,-13.593730983416117,0.0,-8.601088261457665,0.2873716399073601,0.08985967356711626,-9.328503034795617,-9.30264746157496,0.6704015225052196,1000235.0,0.0,0.0,0.009057485114317388,10,-2.137224000506831,-14.037044587529522,0.22554521933197974,9.3229279934136,-0.9981379419565201,-0.7149381134433497,-0.05103180045261979,0.34225805997848513,2700.0,-0.984286867082119,-26.507289233467496,675.0,6.240428216943845,0.009978738124482333,275.0,0.0009033203125
0.0,-8.821716304884966,-9.542543931590053,1200.0,-8.440887386752145,0.0556640625,0.0,-27.0,0.2045600775629282,-0.011705938796512782,1.4104616214395103,0.0,-0.051450252253562215,0.0,-13.606532070464588,0.0,-8.85590339472353,0.2912359036505222,0.08639174327254295,-9.37152005141084,-9.387622421243284,0.3015057613046298,1091360.0,0.0,0.0,0.008352158160414546,11,-2.1207064811758753,-13.847827351693923,0.22880389876663684,9.372114928948644,-0.9982904687523841,-0.7134396665736858,-0.05091131003573537,0.3455432802438736,2700.0,-0.9850408911705018,-26.873503094239148,675.0,6.689254915823797,0.011183466436341405,300.0,0.00126953125
0.0,-8.208030965394663,-9.49525212091693,1300.0,-7.690271423672255,0.0570068359375,0.0,-27.0,0.2076008517295122,-0.011949452199041843,0.5734226591871223,0.0,-0.051585400756448505,0.0,-14.020116142666025,0.0,-8.214090563470887,0.29277454912662504,0.0830189848318696,-9.318122080541059,-9.346894842226419,0.21094810336476275,1182485.0,0.0,0.0,0.0077657419024035335,12,-2.108609767933376,-13.856889247088402,0.2348772134631872,9.317066666339585,-0.998417267203331,-0.7083639099189896,-0.0531668234616518,0.3519599616527557,2700.0,-0.9857742264866829,-26.999999764665468,675.0,6.056516429787931,0.010158118861727416,325.0,0.0016357421875
0.0,-8.294602652826232,-9.513131919529922,1400.0,-7.825432744417853,0.041357421875,0.0,-26.857471923047385,0.21355044208467006,-0.009317228593863547,0.9204576581325788,0.0,-0.052078538481146096,0.0,-15.420745520442004,0.0,-8.285769726899966,0.2973521687090397,0.07655938137322664,-9.356441232617392,-9.373606259336219,0.24137051340351273,1273610.0,0.0,0.0,0.007098646648228168,13,-2.1323955114923594,-13.954832160737473,0.24111848138272762,9.354545674467241,-0.9985615238547325,-0.7091806653581443,-0.052552445884794,0.3606776177883148,2700.0,-0.9871787324547767,-26.996065584454694,675.0,6.07282697763294,0.010753068863414228,350.0,0.001513671875
0.0,-7.6567185774490145,-9.632999473690841,1500.0,-7.087247333052832,0.061865234375,0.008888888888888889,-27.0,0.2185330107808113,-0.01031577552203089,0.9555070753604239,0.0,-0.052718343865126374,0.0,-13.749357764739235,0.0,-7.657662081865103,0.30276959761977196,0.07228095792233943,-9.451477444371784,-9.479430094290496,0.21999291230817394,1364366.0,0.0,0.0,0.006957528938073665,14,-2.106859660011833,-14.235259392280158,0.24837316572666168,9.45279346291675,-0.9985920444130898,-0.7093424073151254,-0.05709104854613543,0.36608507484197617,2700.0,-0.988108967244625,-26.545945481298173,675.0,5.758412709780185,0.011140371160581707,375.0,0.001904296875
0.0,-7.0927995779682576,-9.684805511150284,1600.0,-6.485208983122663,0.056591796875,0.0011111111111111111,-26.999999999991985,0.22230151817202567,-0.008532004803419114,3.7670002927736705,0.0,-0.05384639399126172,0.0,-13.411743015432,0.0,-6.615276679220427,0.30819932371377945,0.06869432050734758,-9.523830065024839,-9.545891401890245,0.2917802107567093,1455427.0,0.0,0.0,0.006981187080964446,15,-2.0995103187779023,-13.889336218323669,0.25642334669828415,9.529989714928927,-0.9985869243741036,-0.7106826229086437,-0.05701333777979016,0.37379988506436346,2700.0,-0.9888888001441956,-26.6892822805423,675.0,5.237029232620479,0.010427049337886274,400.0,0.0019775390625
0.0,-8.93435203431389,-9.707533632070598,1700.0,-8.588498424242449,0.0541259765625,0.0014814814814814814,-26.99816862527866,0.22576983831822872,-0.007742032536771149,0.963841165333089,0.0,-0.05413676388561726,0.0,-13.49197935175071,0.0,-8.928510336758988,0.3082334890961647,0.07094575092196465,-9.550166810053238,-9.569365217294798,0.32202272316213004,1546472.0,0.0,0.0,0.007617562892846763,16,-2.1221415350111785,-14.594418199244446,0.2620038352906704,9.55418909671011,-0.9984493166208267,-0.71530131773834,-0.05696363346651197,0.37961906641721727,2700.0,-0.9883992910385132,-26.803280687451256,675.0,6.32599503811108,0.007829937722999603,425.0,0.0017578125
0.0,-8.903128253975197,-9.680837163092352,1800.0,-8.609436957121071,0.0575439453125,0.001851851851851852,-26.999999998099955,0.22965926565229894,-0.0072559565189294515,1.118311349261033,0.0,-0.05582552496343851,0.0,-13.668829631573354,0.0,-8.916320899947253,0.3106475695967674,0.06751364674419165,-9.47800673274339,-9.528264008074169,0.2693559820525443,1637502.0,0.0,0.0,0.007606182619929314,17,-2.090275882267451,-13.955527708432491,0.2679919384419918,9.481837559228271,-0.9984517797827721,-0.7181345795899687,-0.05813931142911315,0.38613411113619805,2700.0,-0.9891455292701721,-26.57746711789618,675.0,6.136720158918811,0.008786493656225502,450.0,0.002001953125
0.0,-9.190506322408496,-9.756810676945566,1900.0,-8.922619576138358,0.0535400390625,0.0,-26.999999557516112,0.238921719416976,-0.007696507987566293,1.6053504585857943,0.0,-0.05614408627152443,0.0,-14.288748677037347,0.01,-9.179605973844424,0.3131671562790871,0.0744633438065648,-9.608964844223,-9.623122997017248,0.39694958468527475,1728259.0,0.0,0.0,0.007918849959969521,18,-2.091668792354176,-14.052367287571428,0.27490062117576597,9.615088750823363,-0.9983841747045517,-0.7202614183443075,-0.05854722270742059,0.3905368968844414,2687.0,-0.987634451687336,-26.45465512327247,675.0,6.268916433494708,0.009715266013517975,475.0,0.001611328125
0.0,-8.417079467274789,-9.635985504464047,2000.0,-7.969554203247933,0.058642578125,0.00037037037037037035,-26.99999999999916,0.2416113756597042,-0.006213282246608287,0.8077274543859272,0.0,-0.05591046884655952,0.0,-14.0417834612186,0.0,-8.41527358021096,0.31497262567281725,0.07223522458225488,-9.43139731506313,-9.477490050309212,0.35581068168027574,1819368.0,0.0,0.0,0.00788253661012277,19,-2.09188660529544,-14.114938558799789,0.28037782162427904,9.453826825312827,-0.9983920201659202,-0.7226945438742405,-0.059671548660844564,0.3939444400370121,2700.0,-0.9881189137697219,-26.99991756136925,675.0,6.189494251846391,0.0093609016854316,500.0,0.0012451171875
0.0,-8.899075172230578,-9.781542614552512,2100.0,-8.500340853950167,0.0536865234375,0.0,-27.0,0.2455860275775194,-0.005081025150138885,0.8841449000005717,0.0,-0.0555601286701858,0.0,-13.933371631168217,0.0,-8.907203923047781,0.3173356853425503,0.0721208618953824,-9.585623885510426,-9.631455250836686,0.2940078696748591,1910493.0,0.0,0.0,0.007719135982915759,20,-2.0965377096705198,-14.01551072635502,0.2852778725326061,9.590106325151226,-0.9984273493289948,-0.7258127964007144,-0.06090542860329151,0.39942051395773887,2700.0,-0.9881437838077545,-26.999554101236104,675.0,6.292886244251754,0.009772777440957725,525.0,0.0012451171875
0.0,-8.286019038755038,-9.74791746763903,2200.0,-7.916000857242773,0.048974609375,0.014074074074074074,-26.89752602885699,0.24908797033131122,-0.00703658745624125,0.9565580826250549,0.0,-0.05687522366642952,0.0,-14.182980039453765,0.0,-8.298603034616205,0.3194371692836285,0.07367924451828003,-9.541758492539582,-9.594627922933894,0.30344120687166115,2000730.0,0.0,0.0,0.007417278771754354,21,-2.089886357514479,-14.61084400282409,0.28874360769987106,9.548774104112471,-0.9984926268458366,-0.7266510974448466,-0.061460772436112164,0.40614586770534516,2700.0,-0.9878049403429031,-26.478410402183094,675.0,6.226483838271999,0.008560664160177112,550.0,0.0015380859375
0.0,-8.532961358095285,-9.770638241380478,2300.0,-8.148031621509565,0.04150390625,0.0007407407407407407,-26.999997443368137,0.2525556594133377,-0.009218366839922965,1.1925645615309435,0.0,-0.05668508317321539,0.0,-13.18151339936558,0.0,-8.550650144395552,0.3226857729256153,0.07178532313555479,-9.558973024288267,-9.61506393322669,0.2510696279121832,2091807.0,0.0,0.0,0.007127546495757997,22,-2.083122039338923,-14.371125480161847,0.2904182031750679,9.565708082829296,-0.9985552683472634,-0.7262917983447551,-0.06350410841405392,0.41195452958345413,2700.0,-0.9882167354226112,-26.78612405731782,675.0,6.098504069149172,0.006922614225186407,575.0,0.00146484375
0.0,-8.575559640694369,-9.714065622467725,2400.0,-8.233898236293486,0.033837890625,0.00037037037037037035,-26.999990087724072,0.2553268499672413,-0.012249208171851933,0.9392760119769109,0.0,-0.05760991415008902,0.0,-14.092457046665029,0.0,-8.593273372199707,0.32223243564367293,0.07406648304313421,-9.486386711316765,-9.557431005655664,0.22305691664870525,2182917.0,0.0,0.0,0.006832753808703273,23,-2.11141408347612,-13.93732536167199,0.29284770116209985,9.495611756124216,-0.9986190244555473,-0.7250419332682213,-0.06414815299212932,0.4175510726869106,2700.0,-0.9877207443118096,-26.893742426154592,675.0,6.156736522116564,0.007163854688405991,600.0,0.001611328125
0.0,-8.32133476896173,-9.73878156558651,2500.0,-7.831248827463787,0.0344970703125,0.017037037037037038,-25.941143232244073,0.26031263172626495,-0.012700255960226059,1.1381992819201208,0.0,-0.056019235868006945,0.0,-13.611012465212998,0.0,-8.31818416568018,0.3232113793492317,0.07734728753566741,-9.579415887102632,-9.604944527080743,0.4032231044618223,2272931.0,0.0,0.0014792899408284023,0.0070600814069621265,24,-2.1163796816588727,-13.992720701743567,0.29661920443177225,9.591105281877393,-0.9985698595643043,-0.7269826865951472,-0.0661233801394701,0.42303092777729034,2700.0,-0.9870074048638344,-26.537525151177487,676.0,5.816281088365075,0.0063919599982909855,625.0,0.0013916015625
0.0,-9.633922203922292,-9.475978564039721,2600.0,-9.329627222022891,0.0364013671875,0.005925925925925926,-25.60835649442487,0.2679650291800499,-0.013493398018181325,2.3551390728109323,0.0,-0.05657553216442466,0.0,-14.130443778097124,0.0,-9.565919393152223,0.32713606432080267,0.08509608879685401,-9.31341992678369,-9.354957176189341,0.3416369039944008,2363728.0,0.0,0.0029542097488921715,0.007224921265151352,25,-2.1097999733457984,-13.964482988998133,0.30058033391833305,9.317468843229292,-0.9985342234373092,-0.7242060748234508,-0.06610079240053893,0.42806645631790163,2700.0,-0.9853225946426392,-25.821512577789875,677.0,6.630603055637531,0.008487154310569168,650.0,0.0013916015625
0.0,-8.887556406333262,-9.657581248127851,2700.0,-8.489162396160761,0.0330322265625,0.005555555555555556,-26.999978404599464,0.2717637218534946,-0.014247659267857671,1.3622634085975336,0.0,-0.05633148020133376,0.0,-13.485494034256648,0.0,-8.863051083778874,0.32795793041586874,0.0900518972426653,-9.441841056900993,-9.491783226814912,0.2741350375372303,2454536.0,0.0,0.0,0.007125439739320427,26,-2.1291464615373115,-13.948912807357507,0.3007196128368378,9.448104043979857,-0.998555725812912,-0.7239726904168492,-0.06776195149868727,0.43369490578770636,2700.0,-0.984245066344738,-25.985689708490774,675.0,6.1530764093218355,0.00908688681665808,675.0,0.0013916015625
0.0,-9.290132920298305,-9.724996886008048,2800.0,-9.327955962714322,0.032666015625,0.0,-26.998641166700494,0.2753242693841457,-0.014083414315246045,2.0172915532181115,0.0,-0.0573967082425952,0.0,-13.973114474922266,0.0,-9.120724283583096,0.3289251372218132,0.09335272908210754,-9.510002180800232,-9.575718334918735,0.33434012780585187,2545661.0,0.0,0.0,0.007136151357553899,27,-2.087234881461336,-13.190704664061734,0.3056300587952137,9.516228077414388,-0.9985534176230431,-0.7273895008795079,-0.06503624469041824,0.43737453073263166,2700.0,-0.9835273787379265,-26.999376840809052,675.0,6.7766926137423935,0.009397333930246532,700.0,0.00166015625
0.0,-8.621808576443936,-9.747714064392097,2900.0,-8.277065964816575,0.0331298828125,0.015555555555555555,-25.750416046307173,0.27910605520009996,-0.015127566712908446,1.5366458621717094,0.0,-0.057527077943086626,0.0,-13.178450875619049,0.0,-8.630085672836751,0.33246041685342786,0.09480423275381326,-9.543430851045972,-9.596705335446504,0.32167709257775107,2635896.0,0.0,0.0014792899408284023,0.007305522263050079,28,-2.07143987570671,-14.29904120337879,0.30592000037431716,9.551001482267107,-0.9985167950391769,-0.7252715790506045,-0.06623756140470505,0.4435614377260208,2700.0,-0.9832117974758148,-26.20584013753262,676.0,6.335287068767376,0.010292132059112192,725.0,0.001611328125
0.0,-9.488936691448977,-9.644877478746679,3000.0,-9.388217607103076,0.0253173828125,0.04777777777777778,-26.463218959271984,0.28560312315821645,-0.015257896506227553,2.4962248096802795,0.0,-0.0582275340333581,0.0,-13.483746247531986,0.0,-9.463299607268661,0.33675043359398843,0.0991667203605175,-9.517418730949416,-9.504864566547457,0.7024102696098179,2724005.0,0.0,0.0,0.007001772220246494,29,-2.09485477240014,-13.66961206754087,0.3077940545976162,9.535334611551436,-0.9985824644565582,-0.7233268815180054,-0.06303860265761614,0.44902867302298544,2700.0,-0.9822632536292076,-25.00804898673347,675.0,7.448925295474015,0.005746750184334815,750.0,0.001416015625
0.0,-7.297308852208516,-9.714878009437241,3100.0,-6.70713478080994,0.031201171875,0.017777777777777778,-26.95955286125953,0.2897139012813568,-0.012531296350061893,0.8284698255025322,0.0,-0.05800460921600461,0.0,-12.55537384294379,0.01,-7.293373484411516,0.33928307741880415,0.09996945150196553,-9.517001865445396,-9.561435076680862,0.29947861093147843,2814045.0,0.0,0.0014792899408284023,0.006991689279675484,30,-2.0753583253557735,-14.532957062068965,0.30913683772087097,9.528447189193988,-0.9985846355557442,-0.7233523856906686,-0.0649813462048769,0.4542178101837635,2700.0,-0.9820887252688408,-26.45882036311989,676.0,5.610102183740105,0.007280762132722884,775.0,0.0010986328125
0.0,-7.389698450846531,-9.610598882676172,3200.0,-6.9053229756156655,0.03203125,0.001851851851851852,-27.0,0.2921172991394997,-0.014103913633152842,0.37782726624317264,0.0,-0.05641511604189873,0.0,-13.354129629338146,0.0,-7.380288954002362,0.3433700442314148,0.09377894084900618,-9.40858801789577,-9.464515053182883,0.2613257912665173,2905058.0,0.0,0.0,0.00667818485526368,31,-2.1061948932299854,-13.275054427950893,0.310232375562191,9.416101623771759,-0.99865243434906,-0.7209204615297494,-0.06490937806665897,0.4597043626010418,2700.0,-0.9834347113966941,-26.95300486149856,675.0,6.081692689252452,0.006593069422524423,800.0,0.0014892578125
0.0,-12.373001708031692,-9.723838416652438,3300.0,-13.655210280998933,0.023583984375,0.0,-27.0,0.2946802146732807,-0.01487934305332601,1.8184209739500692,0.0,-0.05648270100355148,0.0,-13.577988388243412,0.0,-12.35834217385325,0.3456150755286217,0.09112064372748137,-9.51845532426959,-9.573385684207915,0.3109408569916153,2996183.0,0.0,0.0,0.006469203473534435,32,-2.0729511721321616,-14.159045503784172,0.31668535619974136,9.527384642032107,-0.99869764149189,-0.7229694239962555,-0.06974456198513508,0.46415898501873015,2700.0,-0.9840126991271972,-26.999999543467275,675.0,6.882022277873571,0.005752496898639947,825.0,0.001611328125
0.0,-12.420718152838699,-9.601892950521702,3400.0,-13.735576894527668,0.022119140625,0.0,-27.0,0.2968921609222889,-0.017429585568606853,1.452685991333129,0.0,-0.056633409671485425,0.0,-13.808313642667937,0.0,-12.370738886097483,0.34684942215681075,0.0869074746966362,-9.401947708090164,-9.462017386467533,0.26461957077356274,3087308.0,0.0,0.0,0.00622051142854616,33,-2.0551596911223897,-13.714276119511773,0.3234902389347553,9.40849912724681,-0.9987514153122902,-0.7206037343254138,-0.07092711795121431,0.46980836763978007,2700.0,-0.9849287614226341,-27.0,675.0,6.719966953632715,0.004758630564901977,850.0,0.0012939453125
0.0,-12.681232158786585,-9.705271168619316,3500.0,-13.951356364842496,0.0247314453125,0.0,-27.0,0.2993990987539291,-0.018091369466856123,0.9647156548500433,0.0,-0.056848936900496486,0.0,-14.046544646041834,0.0,-12.63526495965459,0.3486856073141098,0.0800030279904604,-9.496273138564337,-9.554852102912148,0.2700780253657415,3178433.0,0.0,0.0,0.005852959607727826,34,-2.1082540505150975,-13.870289045833372,0.3309761993587017,9.501571461113292,-0.9988308921456337,-0.7217421070017735,-0.07231350895017385,0.4739147171378136,2700.0,-0.9864299789071083,-26.999999999675783,675.0,6.657907617615971,0.004779377020895481,875.0,0.0017822265625
0.0,-12.61367772794853,-9.700548954999402,3600.0,-13.998414368489637,0.025390625,0.0,-27.0,0.301364279538393,-0.015915891528129576,0.9302404814085381,0.0,-0.05748370690271258,0.0,-14.066048678314447,0.0,-12.576694444908608,0.35054826736450195,0.07372299563139677,-9.483129656252562,-9.547611517237087,0.21538639248206765,3269558.0,0.0,0.0,0.005753352330066264,35,-2.1015026948138256,-14.040588219667612,0.3380967766046524,9.490090728661908,-0.9988524422049523,-0.7214110799664922,-0.07371678296476603,0.4766081839799881,2700.0,-0.9877954259514808,-27.0,675.0,6.48557237937157,0.0054856653674505654,900.0,0.00166015625
0.0,-12.549251356520617,-9.738146907108781,3700.0,-14.001899097608106,0.023095703125,0.0,-27.0,0.30216175988316535,-0.017758697643876074,0.9083709153549279,0.0,-0.05785374213010073,0.0,-13.829885851130173,0.0,-12.529113624067643,0.3513952001929283,0.07643035091459752,-9.5152621436266,-9.583011130703568,0.2065561597617666,3360683.0,0.0,0.0,0.005737229925580322,36,-2.118542351878568,-14.062754354040026,0.34426032230257986,9.52285674231167,-0.9988559126853943,-0.723036358167883,-0.07394217699766159,0.4792873851954937,2700.0,-0.9872067913413047,-27.0,675.0,6.330939021542097,0.0045758171938359736,925.0,0.0011474609375
0.0,-12.500459294258567,-9.666324629413463,3800.0,-13.993463398973077,0.02509765625,0.0,-27.0,0.30327521488070486,-0.018809205619618297,0.7805320300338593,0.0,-0.05852345414459705,0.0,-14.038726320986294,0.0,-12.498184862792716,0.35197112187743185,0.08217707723379135,-9.444465116385254,-9.513208365904049,0.20191879766067844,3451808.0,0.0,0.0,0.005912494857329875,37,-2.077317017759924,-13.986418646586703,0.3506523832678795,9.45083025328953,-0.9988180220127105,-0.7190989517061098,-0.0734897980466485,0.4829367272555828,2700.0,-0.9859572812914849,-27.0,675.0,6.530785060239074,0.003783990751253441,950.0,0.0013916015625
0.0,-12.539540176620191,-9.729755330952328,3900.0,-13.99828318397663,0.021044921875,0.0,-27.0,0.3046508997678757,-0.018538086395710706,0.5801979145178684,0.0,-0.058507961314171554,0.0,-14.098772819855672,0.0,-12.529819328667674,0.3535384461283684,0.08590227980166673,-9.513136536410684,-9.579031916018163,0.20840338088190064,3542933.0,0.0,0.0,0.005985415901523084,38,-2.1249344971001847,-14.04359915097186,0.3570629574358463,9.519706512414393,-0.998802250623703,-0.719664797680889,-0.0738554859533906,0.48653908893465997,2700.0,-0.9851473078131676,-27.0,675.0,6.320442580382102,0.0034172952990047635,975.0,0.0016357421875
0.0,-12.536531768084453,-9.747509513652503,4000.0,-13.993688138944673,0.0317138671875,0.0,-27.0,0.3064250871539116,-0.018646612530574203,0.6671929310917297,0.0,-0.05904832594096661,0.0,-14.056705027001552,0.0,-12.532866450332456,0.3548104576766491,0.0864826099947095,-9.528229489176388,-9.59398501504352,0.19843961567994903,3634058.0,0.0,0.0,0.0063692601164802905,39,-2.0991511921522035,-14.064649180551722,0.3629606865346432,9.536288220750304,-0.9987192451953888,-0.7205266168151866,-0.07478606626391411,0.48960357457399367,2700.0,-0.9850211292505264,-26.999999999999815,675.0,6.171103892769021,0.0028707972553092985,1000.0,0.0016357421875
0.0,-12.538453137790317,-9.773608562082831,4100.0,-14.009673756299389,0.020751953125,0.0,-27.0,0.30835446789860727,-0.0195021559484303,0.4906452226001689,0.0,-0.05955217052251101,0.0,-14.037630505326169,0.0,-12.53380367994808,0.3564259998500347,0.09332897681742906,-9.542279061536044,-9.62047513482443,0.18278338882237563,3725183.0,0.0,0.0,0.006562621635384858,40,-2.094610510549683,-14.04014462810594,0.3681830711662769,9.54924428233016,-0.9986774384975433,-0.7235086403445166,-0.07445693034678698,0.4925507105886936,2700.0,-0.9835325419902802,-26.999995753531284,675.0,5.984448488625335,0.0023188975581433626,1025.0,0.0013916015625
0.0,-12.625532186299306,-9.738391950933172,4200.0,-14.001819179796183,0.023583984375,0.0,-27.0,0.31107315570116045,-0.020055784936994316,0.37482925150113405,0.0,-0.05980039071291685,0.0,-13.967397374024866,0.01,-12.625622764321164,0.35785160437226293,0.0961701525375247,-9.501013539771119,-9.58270268568837,0.19104547325733878,3816297.0,0.0,0.0,0.006884250056464225,41,-2.0603905028809093,-14.037837608630884,0.373661694675684,9.508123273864376,-0.9986078858375549,-0.724743396670965,-0.07546060010790825,0.4961415447294712,2700.0,-0.9829147934913636,-26.999956314309664,675.0,6.04341720834556,0.0012039239692967385,1050.0,0.00146484375
0.0,-12.683131088837944,-9.708873892553946,4300.0,-14.026383220108219,0.023779296875,0.0,-26.99999999999913,0.31380755752325057,-0.021245171222835778,0.4119453508320509,0.0,-0.05992138031870127,0.0,-14.054552183963645,0.0,-12.683759632872619,0.3588909551501274,0.10282224081456662,-9.46707281830256,-9.555459621128595,0.19905587106572936,3907422.0,0.0,0.0,0.007086470152717084,42,-2.1059075612305604,-14.012195441587224,0.3777232699096203,9.475522504754249,-0.9985641568899155,-0.7283958490654185,-0.0764759287238121,0.5009313240647316,2700.0,-0.9814684420824051,-26.999999999999993,675.0,6.002309314511304,-9.690034603409004e-05,1075.0,0.0013671875
0.0,-12.693782709202974,-9.799347630824778,4400.0,-14.02895592040736,0.0192138671875,0.0,-27.0,0.3166400268673897,-0.02189570488408208,0.8121018535520117,0.0,-0.06021629134193063,0.0,-13.893759003131636,0.0,-12.688538366052054,0.35930401384830474,0.10123994816094636,-9.553901965902048,-9.647378924532823,0.19179003432452918,3998547.0,0.0,0.0,0.007053870987147093,43,-2.077466297688079,-14.040269111584935,0.381653305888176,9.561041292635068,-0.9985712096095085,-0.7316098229297495,-0.07751738838851452,0.505067552626133,2700.0,-0.9818124875426293,-26.99999975638915,675.0,5.976966164899588,-0.0006594000617042184,1100.0,0.0013916015625
0.0,-12.82711691824024,-9.813365812606984,4500.0,-14.08435151939934,0.0187744140625,0.0,-26.999999999993943,0.31918189078569414,-0.022107034083455802,0.503948526208923,0.0,-0.06002956060692668,0.0,-13.974350845802606,0.0,-12.82464667602375,0.35956117436289786,0.1023480698466301,-9.56651800443499,-9.662785843893289,0.20583359650461527,4089672.0,0.0,0.0,0.006893167574889958,44,-2.0837056927543016,-13.993224996327761,0.3847597874701023,9.574047759735176,-0.9986059546470643,-0.7349963385640876,-0.0781966658309102,0.5083168968558311,2700.0,-0.9815715238451957,-26.999999999996255,675.0,5.878170997919438,-0.001006839473848231,1125.0,0.001123046875
0.0,-12.762521910671378,-9.751766271410185,4600.0,-14.026320492974497,0.0179931640625,0.0,-26.99999999754192,0.3214421160519123,-0.024591231625527142,0.5369992159271182,0.0,-0.06001422042027116,0.0,-13.76795730922137,0.0,-12.764121283436339,0.36037266403436663,0.10119804851710797,-9.497958138607633,-9.599738264136288,0.1981956523913097,4180797.0,0.0,0.0,0.006639514421112836,45,-2.0929249544104094,-14.024683983053478,0.38813715651631353,9.503504274163504,-0.9986608162522316,-0.7341570647200569,-0.07912806589156389,0.5107502326369285,2700.0,-0.9818215891718864,-26.99884793284618,675.0,5.9687784514880295,-0.002330370288109407,1150.0,0.0016845703125
0.0,-12.784093786471228,-9.82330684421761,4700.0,-14.034659538962137,0.0283203125,0.0,-27.0,0.32417619600892067,-0.026937220897525548,0.516334550858768,0.0,-0.06038753092288971,0.0,-13.993400063471231,0.0,-12.782718892698579,0.3622898057103157,0.10311135966330767,-9.569598048875111,-9.66510866307509,0.18902575879198671,4271922.0,0.0,0.0,0.006630462035536766,46,-2.1336105054018843,-13.958000666045148,0.3904822334647179,9.575654148755135,-0.9986627668142318,-0.7312893907132093,-0.08005619570612907,0.5131354063749314,2700.0,-0.9814055785536766,-26.997323373902134,675.0,5.883938721449992,-0.0027688580157700926,1175.0,0.0014404296875
0.0,-12.758548832076153,-9.725358951567745,4800.0,-14.03691233221376,0.023046875,0.0,-27.0,0.32645485177636147,-0.027999781398102642,0.5443527954539569,0.0,-0.061131418123841284,0.0,-13.96715371422232,0.0,-12.76053494487126,0.36292590796947477,0.10752271302044392,-9.469963141393151,-9.567050635968199,0.1898091123293573,4363047.0,0.0,0.0,0.007135902449954301,47,-2.11980085230316,-14.031858675287674,0.3929157227277756,9.477795794751087,-0.9985534742474556,-0.7298431411058118,-0.08056804277002812,0.5157907605171204,2700.0,-0.9804464325308799,-26.999999999899828,675.0,5.900886314671672,-0.003209731093375012,1200.0,0.0013427734375
0.0,-12.671154798964261,-9.855265354047566,4900.0,-14.013590205510264,0.0251953125,0.0,-27.0,0.3281648069620132,-0.02738310624845326,0.36668061151928616,0.0,-0.06136400364339352,0.0,-13.909944117027276,0.0,-12.66728571787084,0.362872414290905,0.10788870994001627,-9.604479252124591,-9.699462321249825,0.20084421576380515,4454172.0,0.0,0.0,0.007227273005992174,48,-2.058799149133847,-14.088968863087572,0.39600107818841934,9.6122745216968,-0.9985337078571319,-0.7312858986930223,-0.08104271050542593,0.5200925916433334,2700.0,-0.9803668409585953,-27.0,675.0,5.774604458746526,-0.003422736341599375,1225.0,0.0013671875
0.0,-12.730478748294235,-9.864976844974526,5000.0,-14.028662485881673,0.0273681640625,0.0,-27.0,0.3305533841252327,-0.028637246880680322,0.7473252339118204,0.0,-0.061541303619742395,0.0,-14.166065069383432,0.0,-12.721469739603819,0.3628935530781746,0.11190713047981263,-9.617430248643686,-9.707804451663094,0.18918101071070254,4545297.0,0.0,0.0,0.007412790018133819,49,-2.082935044787155,-13.986329485493146,0.399469206482172,9.623573640999723,-0.9984935954213142,-0.7307043172288104,-0.08137333691120148,0.5246006131172181,2700.0,-0.9794931367039681,-27.0,675.0,5.922877791327894,-0.003980526747182011,1250.0,0.0014404296875
0.0,-12.775035534580542,-9.765720090602358,5100.0,-14.008688881292079,0.01533203125,0.0,-27.0,0.3330888494849205,-0.028472178522497414,0.30787455133128605,0.0,-0.061517699528485535,0.0,-13.448068427317288,0.0,-12.773027172993398,0.3640769340097904,0.11422731056809425,-9.521668653318214,-9.612153068821108,0.18597636902252848,4636422.0,0.0,0.0,0.007247169350739569,50,-2.0650802704287345,-14.080663292473952,0.4026975594460964,9.52886892118308,-0.9985294133424759,-0.727939021151542,-0.08230077475309372,0.5283655107021332,2700.0,-0.978988665342331,-26.9999954394493,675.0,5.800497905492027,-0.00407518184510991,1275.0,0.00146484375
0.0,-12.711634100859985,-9.68177195310415,5200.0,-13.989142390206212,0.021337890625,0.0,-27.0,0.3361046493053436,-0.027807232970371843,0.24402688990086813,0.0,-0.06205710098147392,0.0,-13.914632532979448,0.0,-12.70713527959331,0.3649944797158241,0.11467053908854723,-9.43532561591556,-9.530099271169414,0.19748916093431315,4727547.0,0.0,0.0,0.007356267329305411,51,-2.0916434122787906,-14.016111277852302,0.40603546500205995,9.4437191146369,-0.998505811393261,-0.728977030045644,-0.08287430927157402,0.532884205877781,2700.0,-0.9788922965526581,-26.9999964836336,675.0,5.795182464315663,-0.005215081770438701,1300.0,0.001416015625
0.0,-12.772539071440349,-9.799686355536897,5300.0,-14.01084719993013,0.0159423828125,0.0,-26.999999999999996,0.33878335580229757,-0.029020504280924796,0.38885342682245144,0.0,-0.06207897812128067,0.0,-14.083449292036217,0.0,-12.771192799203007,0.3655622623860836,0.11337727066129447,-9.546126148020928,-9.6449718780754,0.18425370280863576,4818672.0,0.0,0.0,0.006768393598031252,52,-2.118456372224318,-13.991382507934823,0.40970766097307204,9.551851913257524,-0.9986329361796379,-0.7296265285141998,-0.08330677151679992,0.5372049763798714,2700.0,-0.9791734963655472,-26.999999999926317,675.0,5.921986634487483,-0.005738350306637585,1325.0,0.0015380859375
0.0,-12.857053291796039,-9.757815146419322,5400.0,-14.02483171413283,0.0194580078125,0.0,-27.0,0.34163741394877434,-0.029211716447025537,0.5318974724940294,0.0,-0.06269625909626483,0.0,-13.909294548137217,0.0,-12.850867880176562,0.36617670953273773,0.11351898405700922,-9.504351537781698,-9.601834644989058,0.18292494963550304,4909797.0,0.0,0.0,0.00648550963960588,53,-2.1235679197525315,-14.059078468903554,0.41292378306388855,9.512344417944496,-0.9986941203474998,-0.7289124853938119,-0.08427789863198995,0.5404948905110359,2700.0,-0.9791426703333854,-26.999999999675573,675.0,5.948305671811207,-0.006074245320633054,1350.0,0.001513671875
0.0,-12.765921237115816,-9.812384842297295,5500.0,-14.007680854500512,0.017333984375,0.0,-26.999999999999986,0.3440737873315811,-0.02866480373777449,0.4892040715095936,0.0,-0.0628852566704154,0.0,-14.105335445212232,0.0,-12.761510694761657,0.36641440317034724,0.11502402666956187,-9.558477784535624,-9.656031925341603,0.17353079382932565,5000922.0,0.0,0.0,0.006539631995838136,54,-2.0628085976131842,-13.993362876000406,0.4168602220714092,9.566219997392661,-0.9986824050545693,-0.7290531179191021,-0.08512329123914242,0.5444883704185486,2700.0,-0.9788154348731041,-26.999999999989658,675.0,5.879836729978354,-0.0073961346060968935,1375.0,0.001708984375
0.0,-12.759170293206179,-9.858649052552712,5600.0,-14.023214965724616,0.0211669921875,0.0,-26.99999999999817,0.34644277989864347,-0.028596623847261072,0.3550215746857408,0.0,-0.06345448270440102,0.0,-14.091070099581977,0.0,-12.7580255496537,0.36735487580299375,0.11371067408472299,-9.61245626769649,-9.706162332358591,0.1845799238411941,5092047.0,0.0,0.0,0.006690356845501811,55,-2.129711631631653,-14.063534534092303,0.41939196512103083,9.619320992739564,-0.9986498147249222,-0.728804887743172,-0.08582533728331328,0.5478465616703033,2700.0,-0.9791009977459908,-26.999999998933024,675.0,5.754321542499618,-0.00788738583214581,1400.0,0.001416015625
0.0,-12.856205989015333,-9.751050508317986,5700.0,-13.984668943204099,0.01962890625,0.0,-27.0,0.3486853830516338,-0.026697626803070307,0.2776964375917629,0.0,-0.06413303557783365,0.0,-13.8338649159941,0.0,-12.857498053777224,0.3677040807902813,0.11327077616006136,-9.498450344665477,-9.594455435759851,0.1754302324165724,5183172.0,0.0,0.0,0.007109888724517077,56,-2.1437365040241274,-14.036762020857857,0.42293053716421125,9.507363731037692,-0.9985591009259224,-0.7286862856017251,-0.08640527855604888,0.5513985991477967,2700.0,-0.979196646809578,-26.999999999868116,675.0,5.696361296924168,-0.008608499797992409,1425.0,0.00166015625
0.0,-12.828560978085056,-9.686084625483616,5800.0,-13.98545328518997,0.0248046875,0.0,-27.0,0.3510890819132328,-0.026928140409290792,0.3814309398354904,0.0,-0.06426425166428089,0.0,-14.00900185853583,0.0,-12.823430587072172,0.36809793785214423,0.1172347605228424,-9.433704065738642,-9.531765064511578,0.17924804104185768,5274297.0,0.0,0.0,0.007098173059057444,57,-2.112433982719085,-13.982548920941701,0.42669221609830854,9.439633338203752,-0.9985616266727447,-0.7281138220016146,-0.08768703863024711,0.5548868477344513,2700.0,-0.9783347532153129,-26.999999999999606,675.0,5.64906280028342,-0.009139853063970804,1450.0,0.0016357421875
0.0,-12.806759755816477,-9.742455670152575,5900.0,-13.974081677959935,0.021826171875,0.0,-27.0,0.35342912152409556,-0.026319337729364633,0.29772495048040304,0.0,-0.06504634637385606,0.0,-14.091869390112802,0.0,-12.7977253477262,0.3687977589666843,0.12192293517291546,-9.484378486186737,-9.587163812537472,0.17993577224684879,5365422.0,0.0,0.0,0.007427305250894278,58,-2.0898662064646487,-14.044056269554885,0.4304483994841576,9.49460772380945,-0.9984904497861862,-0.7308248182089301,-0.0886617636308074,0.558382298052311,2700.0,-0.9773154214024544,-26.999999999957723,675.0,5.656417036882531,-0.008619275502860546,1475.0,0.00185546875
0.0,-12.751210144953536,-9.698210910229065,6000.0,-14.004259261135138,0.0210693359375,0.0,-27.0,0.3561296209692955,-0.026622940413653852,0.2749920697807623,0.0,-0.06523164492100478,0.0,-13.821123343763988,0.0,-12.749236858574111,0.3695264600217342,0.12241934854537248,-9.435673164660336,-9.542651104467913,0.17777688530666186,5456547.0,0.0,0.0,0.00735591824632138,59,-2.112175522373582,-14.064634306475822,0.43377226367592814,9.444934671406859,-0.9985058903694153,-0.7311377124249703,-0.08891784660518169,0.5626457273960114,2700.0,-0.9772074848413468,-26.999999999460506,675.0,5.619173483267632,-0.009256063099019229,1500.0,0.001708984375
0.0,-12.86140432388126,-9.799734113554354,6100.0,-14.020876437339762,0.0189697265625,0.0,-26.999999999999996,0.3594519831240177,-0.025674395635724066,0.3334363502932175,0.0,-0.0654551638290286,0.0,-13.914661473508927,0.0,-12.864992184905214,0.3705058291554451,0.12711031418293714,-9.53364438265208,-9.643169917620474,0.1775663200491964,5547672.0,0.0,0.0,0.00767412077402696,60,-2.1068437710622674,-13.975009743511231,0.4369111955165863,9.541910094323706,-0.9984370812773704,-0.7326780153271102,-0.08977422267198562,0.5663409322500229,2700.0,-0.9761875331401825,-26.999999999912017,675.0,5.639582494902928,-0.009292917954735459,1525.0,0.0010986328125
0.0,-12.81752932331359,-9.789263534985208,6200.0,-14.019120095092376,0.0185546875,0.0,-26.99999999999993,0.3623866192996502,-0.025421398412436246,0.29689158280205336,0.0,-0.06540230438113212,0.0,-13.995910454839393,0.0,-12.815328071683462,0.37210009768605234,0.12520938236266374,-9.527342313826969,-9.636780306212662,0.179415523311075,5638797.0,0.0,0.0,0.007266683899797499,61,-2.120478163108783,-14.035874763528877,0.4401353903114796,9.534740010978865,-0.998525196313858,-0.7315013641797122,-0.09070531465113163,0.5693146154284477,2700.0,-0.976600855588913,-26.999999999973053,675.0,5.57726533746088,-0.009603932732716203,1550.0,0.00146484375
0.0,-12.717761766018885,-9.82001524843749,6300.0,-14.011190437695555,0.0181640625,0.0,-26.99999999999975,0.36485662385821344,-0.025931661343201996,0.44479977217222366,0.0,-0.06552115492522717,0.0,-13.989478513125146,0.0,-12.712751440497936,0.3733145333826542,0.12519280277192593,-9.557393325507524,-9.662704431844109,0.17588986621016775,5729922.0,0.0,0.0,0.0072232960956171155,62,-2.125460434082197,-14.033850696311546,0.4432936072349548,9.565411230543239,-0.9985345721244812,-0.7316281256193179,-0.09214035738259554,0.5729030191898346,2700.0,-0.9766044661402702,-26.99999999997242,675.0,5.487995555336503,-0.009568508178927005,1575.0,0.0012939453125
0.0,-12.789645343595542,-9.730069511209802,6400.0,-14.045655858994266,0.0184814453125,0.0,-26.99999999979862,0.36790759637951853,-0.025553330732509493,0.35082177549383686,0.0,-0.06576757822185755,0.0,-14.039928175146809,0.0,-12.781363495201187,0.37429085150361063,0.1226150281727314,-9.46858708459053,-9.57804513924982,0.1765479994208247,5821047.0,0.0,0.0,0.00691445580450818,63,-2.1394247548763814,-14.002854946251876,0.4460564166307449,9.47811374006513,-0.9986013650894165,-0.7309901308704866,-0.09436265900731086,0.576881366968155,2700.0,-0.9771649360656738,-26.999999997051248,675.0,5.688883847173477,-0.009892623079940677,1600.0,0.0016845703125
0.0,-12.744784246775598,-9.72441711452694,6500.0,-14.002975019564683,0.0152587890625,0.0,-26.999999999066326,0.3705876931548119,-0.02482460835017264,0.4188830862256707,0.0,-0.06606492269784212,0.0,-13.429005820092861,0.01,-12.739109547356687,0.3743556186556816,0.12570522744208573,-9.46942642426473,-9.572663404046878,0.18447658302717987,5911966.0,0.0,0.0,0.006911202694755048,64,-2.0877826557618393,-14.041467493157977,0.44930473864078524,9.47905125954777,-0.9986020624637604,-0.7310759317675547,-0.09536569491028786,0.5810165539383888,2693.0,-0.9764930531382561,-26.99999999923956,675.0,5.3831674313457345,-0.011639275238849223,1625.0,0.0013671875
0.0,-12.787098529059918,-9.793292673611578,6600.0,-14.032723360173794,0.0183349609375,0.0,-27.0,0.3723657429218292,-0.02616209238767624,0.5156186639293948,0.0,-0.06631004437804222,0.0,-13.588975402864547,0.0,-12.773383861606957,0.3745340399444103,0.13082113675773144,-9.535415102369011,-9.63948657084833,0.19410270061161924,6003091.0,0.0,0.0,0.0069249056745320555,65,-2.1410350797305,-13.980389378343297,0.4531301274895668,9.544139595973176,-0.9985990986227989,-0.7316970087144,-0.09662224464118481,0.5848078995943069,2700.0,-0.9753807038068771,-26.999999996115957,675.0,5.5562795899386,-0.010850462783128022,1650.0,0.0017822265625
0.0,-12.742015085423816,-9.785012692951213,6700.0,-13.995750599150517,0.0192626953125,0.0,-26.999999999999954,0.3748812362551689,-0.02584866709075868,0.48134510601974634,0.0,-0.06603339519351721,0.0,-12.850080504435486,0.0,-12.721450500936456,0.37593742832541466,0.1353924497961998,-9.529487861455948,-9.636308893662724,0.18617955541817177,6094216.0,0.0,0.0,0.006978274218272418,66,-2.113877957706427,-14.074498209000538,0.4564134478569031,9.54040561463286,-0.9985875606536865,-0.7321306919446215,-0.0976168766617775,0.5882858321070671,2700.0,-0.9743867740035057,-26.99999999999976,675.0,5.463565076122154,-0.010816249717026948,1675.0,0.001318359375
0.0,-12.813092272939343,-9.746522633877252,6800.0,-14.006217405184625,0.014306640625,0.0,-26.999999999999844,0.37707103714346885,-0.027464229334145784,0.36332589801477005,0.0,-0.06610247679054737,0.0,-14.024949381145785,0.0,-12.804032820207556,0.3765732876956463,0.13866369482129812,-9.483180121060377,-9.596075277526634,0.19288269736675967,6185341.0,0.0,0.0,0.007192106766160578,67,-2.1199066049899558,-14.017568901029364,0.4604717783629894,9.490431147130804,-0.9985413119196892,-0.7338653844330111,-0.09918793719261884,0.5917869970202446,2700.0,-0.973675525188446,-26.999999999555833,675.0,5.51984939520564,-0.011448285030201077,1700.0,0.00166015625
0.0,-12.760388086267138,-9.695622234983464,6900.0,-14.015584494806575,0.01611328125,0.0,-27.0,0.3795199729502201,-0.028882093820720912,0.31863273326636793,0.0,-0.06596551202237606,0.0,-13.501802879734681,0.0,-12.753771297721775,0.37653604745864866,0.1444105204194784,-9.43841495075323,-9.544182427238706,0.1989689096493092,6276466.0,0.0,0.0,0.0071671222685836256,68,-2.1315132902011102,-14.034194733265716,0.4643720045685768,9.444578950981548,-0.9985467121005058,-0.7319515820323431,-0.09998166728764772,0.5951597064733505,2700.0,-0.972426000237465,-26.999999995489603,675.0,5.446662980366422,-0.01153431327547878,1725.0,0.0013916015625
0.0,-12.743304654006263,-9.769973431158128,7000.0,-13.989273659693845,0.0187744140625,0.0,-26.99999999999894,0.3821212388575077,-0.029653326561674475,0.4979580701930855,0.0,-0.06605838723480702,0.0,-14.005057045156954,0.0,-12.733457112222156,0.3766485683619976,0.14480139799416064,-9.503335434582501,-9.617766995248118,0.18065291209892798,6367591.0,0.0,0.0,0.007452276267576963,69,-2.130286715468537,-14.041289659724557,0.46767742112278937,9.51227759943416,-0.998485055565834,-0.7360589347699715,-0.10122825223952532,0.5979063540697098,2700.0,-0.9723410040140152,-26.99999999972315,675.0,5.513113837316975,-0.012214610329829156,1750.0,0.00146484375
0.0,-12.788267327948958,-9.774067695699248,7100.0,-14.025952859520391,0.020654296875,0.0,-26.999999999638707,0.38454310819506643,-0.03065174613147974,0.2814747426195524,0.0,-0.06603213716298342,0.0,-14.02758145025919,0.0,-12.783576881228104,0.3771431490778923,0.15111186876893043,-9.503157720756477,-9.622026111090303,0.18992800951959452,6458716.0,0.0,0.0,0.007445257832296192,70,-2.0612168899206154,-14.056665525707084,0.4707010753452778,9.510653544631596,-0.9984865739941597,-0.7371461194015865,-0.10241911802440881,0.6009576112031937,2700.0,-0.9709689289331436,-26.999999940776533,675.0,5.529082132376099,-0.013353325147181749,1775.0,0.001513671875
0.0,-12.795761812005583,-9.809392796257082,7200.0,-14.012650533382521,0.0175048828125,0.0,-27.0,0.38739712461829184,-0.030537269404157998,0.45405295163706166,0.0,-0.06641927640885115,0.0,-13.8284061518743,0.0,-12.79026224767191,0.37770588919520376,0.15604105032980442,-9.541700684875178,-9.654055081335756,0.19499495150950696,6549841.0,0.0,0.0,0.007335581153165549,71,-2.0695921520047706,-14.048178660774063,0.4737222410738468,9.55088699505719,-0.9985102921724319,-0.7375852235483762,-0.10295774843543767,0.6041639164090157,2700.0,-0.9698972046375275,-26.999999994935223,675.0,5.563291573782782,-0.013487386982887983,1800.0,0.0015380859375
0.0,-12.816499025468087,-9.786319691479367,7300.0,-14.020878880568798,0.023388671875,0.0,-27.0,0.3891680702567101,-0.030902037862688303,0.34127325304607065,0.0,-0.06672370862215757,0.0,-13.913693276742814,0.01,-12.813061366881504,0.3784794330596924,0.1582376342266798,-9.516248832686705,-9.627497520032904,0.18168258175582627,6640698.0,0.0,0.0,0.007334002887364477,72,-2.0756033529534763,-13.996256736698834,0.4762477084994316,9.523536144021765,-0.9985106348991394,-0.7376708435120236,-0.10358638353645802,0.6059127256274224,2691.0,-0.9694195985794067,-26.999999979026814,675.0,5.532531748122203,-0.014469742425717413,1825.0,0.0017822265625
0.0,-12.867879807321241,-9.808216140042656,7400.0,-14.01495840323756,0.016015625,0.0,-27.0,0.3911009684205055,-0.031161821447312832,0.30113198165269267,0.0,-0.06715047582983971,0.0,-13.73579250182221,0.0,-12.866663163749546,0.3800554916262627,0.1640548437833786,-9.532798646794204,-9.65067138919493,0.19356246002882074,6731823.0,0.0,0.0,0.007312907569576055,73,-2.079157953671529,-14.022434574785429,0.47963402718305587,9.540884236576488,-0.998515197634697,-0.7397239054764213,-0.10441665817052126,0.6082694306969643,2700.0,-0.9681547790765762,-26.99999998042379,675.0,5.467601762386389,-0.01479692873544991,1850.0,0.001708984375
0.0,-12.847403494914044,-9.829710221830412,7500.0,-13.998154238338008,0.019091796875,0.0,-27.0,0.3928460665047169,-0.03131437627598643,0.27355969829459686,0.0,-0.0676408801227808,0.0,-14.047727163982277,0.0,-12.844834607217166,0.3809546515345573,0.1622967105358839,-9.552855389418855,-9.67608980587174,0.19650403044613357,6822948.0,0.0,0.0,0.007615543145220727,74,-2.0781405909874593,-14.044091856023769,0.4832764618098736,9.56130515807842,-0.9984497353434563,-0.7419738994554791,-0.10529809705913067,0.6104789510369301,2700.0,-0.9685370311141014,-26.99999999998929,675.0,5.55779683055672,-0.01577481981366873,1875.0,0.0015625
0.0,-12.855333614451101,-9.87825095026344,7600.0,-13.996041370535576,0.0136962890625,0.0,-27.0,0.394025819003582,-0.031242795893922447,0.44869078113563915,0.0,-0.06761693004518747,0.0,-14.128612282889522,0.0,-12.843324306412367,0.3822066344320774,0.16102339774370195,-9.606497969241424,-9.725523411268611,0.19385954419174128,6914073.0,0.0,0.0,0.007538797077722847,75,-2.122175501781021,-14.048041205978508,0.48585198596119883,9.61567990535528,-0.9984663501381874,-0.7409568064816995,-0.10613912213593721,0.612769202888012,2700.0,-0.9688138857483863,-26.999999999991,675.0,5.543057474619419,-0.016337138134986162,1900.0,0.0018798828125
0.0,-12.906272049498497,-9.865659746391222,7700.0,-14.043302430994085,0.015087890625,0.0,-27.0,0.3960121303796768,-0.030981306498870254,0.2585128168437928,0.0,-0.06784823387861252,0.0,-13.646956980571192,0.0,-12.90290779173743,0.3838585868477821,0.1624399244785309,-9.588115195399109,-9.713961006860966,0.18102810072532763,7005198.0,0.0,0.0,0.00735438778065145,76,-2.099011251550837,-14.076674717808489,0.4885962851345539,9.597384953622681,-0.9985062137246132,-0.7435280144803983,-0.10727248694747686,0.6151267364621162,2700.0,-0.9685058996081353,-26.999999999994827,675.0,5.388423146992058,-0.016617796197533608,1925.0,0.001123046875
0.0,-12.888492746263731,-9.78486239761711,7800.0,-14.032021935302032,0.01923828125,0.0,-27.0,0.3986094407737255,-0.03188507668673992,0.377566739929084,0.0,-0.06811121664941311,0.0,-14.29285209865244,0.0,-12.888425461518818,0.3851338565349579,0.1608206659555435,-9.508267160090487,-9.629126045461678,0.18457813385186994,7096323.0,0.0,0.0,0.007492777123115957,77,-2.0765798666630872,-14.082914366626415,0.49084223955869677,9.517179381704262,-0.9984763026237488,-0.741047231345874,-0.10774821359664202,0.6173023104667663,2700.0,-0.9688579782843589,-26.99919095913015,675.0,5.486867492175598,-0.017044773511588573,1950.0,0.0014892578125
0.0,-12.872427761737532,-9.749768360064289,7900.0,-14.028627616653006,0.0145263671875,0.0,-27.0,0.4014962397515774,-0.031075663585215806,0.31263804317129235,0.0,-0.06837805286049843,0.0,-13.908668537322217,0.0,-12.868094401231469,0.386725265532732,0.1600348275154829,-9.482591633779668,-9.597752228857953,0.17872066875412626,7187448.0,0.0,0.0,0.007357947458513081,78,-2.132817641500151,-14.117575143942721,0.4930638179183006,9.491952600224911,-0.9985054552555084,-0.7360080984028172,-0.10784014575183391,0.6195955574512482,2700.0,-0.9690288379788399,-27.0,675.0,5.446126285290573,-0.017656059004366398,1975.0,0.0018798828125
0.0,-12.848447572135479,-9.87878873291117,8000.0,-14.026734932838782,0.01171875,0.0,-27.0,0.40378443226218225,-0.03122406518086791,0.2537563718072962,0.0,-0.06867629345506429,0.0,-13.518020629895984,0.01,-12.847100662403609,0.38727221041917803,0.16533826291561127,-9.612496671555837,-9.725334419109352,0.1801480242421092,7278455.0,0.0,0.0,0.007333677879069,79,-2.0983909863512964,-14.06195768086104,0.49648949354887006,9.619067247219567,-0.9985107138752938,-0.7382446090487065,-0.1086843429133296,0.6227687761187554,2696.0,-0.9678757220506669,-26.999999999997616,675.0,5.199369307823906,-0.018544132076203822,2000.0,0.00185546875
0.0,-12.861225527057332,-9.819967003463452,8100.0,-14.022788549334475,0.0145263671875,0.0,-27.0,0.40629944354295733,-0.031483364198356865,0.4549644067731826,0.0,-0.06873616967350245,0.0,-13.26566748521778,0.0,-12.844914870517432,0.3876166708767414,0.17101518847048283,-9.54924896619849,-9.668149479167846,0.18958640034710264,7369580.0,0.0,0.0,0.0076380580081604425,80,-2.0716507779950915,-14.04006321953843,0.5006326198577881,9.555677864021451,-0.9984448820352554,-0.7395422658824827,-0.1101316848769784,0.6252426922321319,2700.0,-0.9666414096951484,-27.0,675.0,5.0381486949391165,-0.019357338873669507,2025.0,0.00166015625
0.0,-12.916133982049777,-9.87814506067096,8200.0,-14.050781686321145,0.01748046875,0.0,-27.0,0.40849038362503054,-0.03254335392266512,0.41689799424586854,0.0,-0.06920237075537443,0.0,-14.09359331709426,0.0,-12.90944957357065,0.3874173365533352,0.1741889152675867,-9.605825927391361,-9.72211066562178,0.18508530697810077,7460705.0,0.0,0.0,0.0073604794568382205,81,-2.1055464743476477,-14.072021570625415,0.503773084282875,9.617319461976432,-0.9985048934817314,-0.7394502073839249,-0.11199258584529162,0.6280721813440323,2700.0,-0.9659513399004936,-26.99999999999653,675.0,5.309273793972338,-0.020110365701839328,2050.0,0.00185546875
0.0,-12.868759120938114,-9.824945257953695,8300.0,-14.040341191713827,0.024169921875,0.0,-27.0,0.41024058014154435,-0.03267106544226408,0.47959475211689373,0.0,-0.06934230625629426,0.0,-14.056383708943187,0.0,-12.854676027550365,0.3880835182964802,0.17288898192346097,-9.556991184255207,-9.666260579005918,0.18294420051906263,7551830.0,0.0,0.0,0.007304167561233044,82,-2.109398730369139,-14.095131584043854,0.5061587825417518,9.566445133407317,-0.9985170736908913,-0.737136959752388,-0.11255874820053577,0.6302837610244751,2700.0,-0.9662339791655541,-26.999999787191793,675.0,5.211488337679893,-0.020463062357157467,2075.0,0.00166015625
0.0,-12.782253803935381,-9.844178991092324,8400.0,-14.038709294384892,0.0191162109375,0.0,-27.0,0.41259743049740794,-0.033623789343982934,0.23389828261326082,0.0,-0.06963226664811373,0.0,-14.081907384949229,0.0,-12.778506072312638,0.38875005692243575,0.17066245935857297,-9.579548780907643,-9.693244369802347,0.18410231623052825,7642955.0,0.0,0.0,0.007111228490248323,83,-2.0325411757890834,-14.074723654809128,0.5089338824152947,9.585525875308681,-0.9985588058829308,-0.7377559649852629,-0.11331913396716117,0.6322464764118194,2700.0,-0.9667180836200714,-26.999999998200696,675.0,5.171597903517276,-0.021254808036610486,2100.0,0.00166015625
0.0,-12.756892777413565,-9.819846293818118,8500.0,-14.031406836741104,0.0130615234375,0.0,-27.0,0.41478405296802523,-0.03489436991512775,0.5756248078542542,0.0,-0.06997234094887972,0.0,-13.601326836899776,0.0,-12.75663556884303,0.38905540108680725,0.16583505272865295,-9.55601739895632,-9.667595213645672,0.18570331620760933,7734080.0,0.0,0.0,0.006774074642453343,84,-2.107089419734257,-14.085830665043662,0.5114206343889236,9.561852256688754,-0.9986317232251167,-0.7360834340674046,-0.1137805251404643,0.6355355888605118,2700.0,-0.9677677094936371,-26.999999999999996,675.0,5.389113268503321,-0.021191082894802094,2125.0,0.0016845703125
0.0,-12.7431114652363,-9.734597021077747,8600.0,-14.007746479073523,0.0124755859375,0.0,-26.999999999999996,0.4163256071507931,-0.0348064168356359,0.2919302253097824,0.0,-0.07018914744257927,0.0,-12.53054441064499,0.0,-12.73344003149551,0.39032642245292665,0.16043824553489686,-9.474526015617409,-9.580852172314561,0.16891327620991062,7825205.0,0.0,0.0,0.006376506807282567,85,-2.1256082553933084,-14.09323144533883,0.5132919788360596,9.480310485007447,-0.9987176656723022,-0.7312924343670602,-0.11384872272610665,0.6386072978377342,2700.0,-0.9689411297440529,-26.999999999992962,675.0,4.9457307730901165,-0.022156269010156392,2150.0,0.001416015625
0.0,-12.68850935314487,-9.83572422171745,8700.0,-13.996948589991547,0.01396484375,0.0,-27.0,0.4183562397956848,-0.034777849167585376,0.4039432433436028,0.0,-0.07062934786081314,0.0,-13.839515320872305,0.0,-12.683041137258886,0.39135396257042887,0.16539293006062508,-9.574982415692611,-9.68036981131425,0.17816213759551452,7916330.0,0.0,0.0,0.006338364398106933,86,-2.122188753334194,-14.057853867911122,0.5156362369656563,9.580828826625183,-0.9987259313464165,-0.7329567148975912,-0.11429885420948267,0.6408491849899292,2700.0,-0.9678638309240342,-26.999987926865554,675.0,5.179356751285646,-0.023001263150945306,2175.0,0.0017333984375
0.0,-12.739563132249582,-9.76600310806441,8800.0,-14.00583383063687,0.0129150390625,0.0,-27.0,0.42094972878694537,-0.03561239605769515,0.4522623791289818,0.0,-0.07120516207069158,0.0,-11.876225668948532,0.0,-12.731073075541389,0.3924716256558895,0.18275642953813076,-9.500794446575476,-9.613251259281075,0.17451812864890423,8007455.0,0.0,0.0,0.006956776173319667,87,-2.104444166884787,-14.008717917154915,0.5182632505893707,9.508877189314394,-0.9985921964049339,-0.735477742679359,-0.11522177699953318,0.6436437696218491,2700.0,-0.9640885338187217,-26.99999889333418,675.0,5.252938284380784,-0.0226250056643039,2200.0,0.001123046875
0.0,-12.844809223655904,-9.742217167342455,8900.0,-14.039026989721677,0.0141845703125,0.0,-27.0,0.4229246824979782,-0.036419852543622254,0.303607425674539,0.0,-0.07146248817443848,0.0,-13.28887628925947,0.0,-12.843248349565183,0.392972619086504,0.2075883574783802,-9.470846613742912,-9.58941714914576,0.19500616802453652,8098580.0,0.0,0.0,0.007641018077265471,88,-2.1164052340202035,-14.023908590579458,0.5212642669677734,9.479700068050906,-0.9984442517161369,-0.7406161644874374,-0.11598698738962412,0.6457172811031342,2700.0,-0.9586893796920777,-26.999999847700042,675.0,5.230604997001312,-0.022999737970530988,2225.0,0.00185546875
0.0,-12.842009749039116,-9.904714093799672,9000.0,-14.019976378061298,0.0155517578125,0.0,-26.999999999999996,0.42497450634837153,-0.035984931886196135,0.3975304001625197,0.0,-0.07162534296512604,0.0,-11.154680619216848,0.0,-12.837617838556287,0.3940811477601528,0.22230785973370076,-9.618105865005125,-9.747348508966661,0.21240350182260292,8189705.0,0.0,0.0,0.008108711522072553,89,-2.077427090657875,-14.109996439840128,0.5247244238853455,9.627101185063022,-0.9983430996537208,-0.7490250702147023,-0.11738748159259557,0.6479580938816071,2700.0,-0.9554889440536499,-26.9999999970897,675.0,5.200848757527401,-0.024315569223836063,2250.0,0.001611328125
0.0,-12.960324432482405,-9.900220535454235,9100.0,-14.011024697862842,0.0138671875,0.0,-26.999999999999726,0.42810591086745264,-0.03631160454824567,0.36018180361719676,0.0,-0.07214116305112839,0.0,-11.450860571550376,0.0,-12.953747551045694,0.3961172439157963,0.2344584122300148,-9.613183868179968,-9.74738304109145,0.22365505196681754,8280830.0,0.0,0.0,0.008798506704624742,90,-2.0932692430993485,-13.998730589939672,0.5296452969312668,9.627428903531063,-0.9981939420104027,-0.7546267585057649,-0.11809712667018175,0.6501316383481026,2700.0,-0.9528470754623413,-26.999999999964665,675.0,5.1411540929096535,-0.02512616883032024,2275.0,0.001416015625
0.0,-13.055370495967361,-9.849872716850717,9200.0,-14.032578887539282,0.013818359375,0.0,-26.999999999997886,0.4303128756582737,-0.0368523420765996,0.26180805732970025,0.0,-0.07246022466570139,0.0,-12.922494445792303,0.0,-13.050337613134625,0.39763106778264046,0.2402846995741129,-9.554639744603065,-9.697751162734471,0.24318276464137698,8371955.0,0.0,0.0,0.008721730369143189,91,-2.103988384165132,-14.037988087208177,0.5341156557202339,9.564761489547168,-0.9982105478644371,-0.7563806652324274,-0.11910110712051392,0.6527672544121742,2700.0,-0.9515802904963493,-26.999999999996664,675.0,5.225204944494799,-0.025962651800364257,2300.0,0.001611328125
0.0,-12.995802693815381,-9.802949293359362,9300.0,-14.032806857656947,0.0142578125,0.0,-26.999999999972225,0.4322471864521503,-0.03798757204785943,0.2791786103569421,0.0,-0.07255152370780707,0.0,-12.996166397198147,0.01,-12.98533421604549,0.39852428063750267,0.23412406556308268,-9.509335714334963,-9.650992598696496,0.22403495358171227,8462930.0,0.0,0.0,0.008661391562782228,92,-2.0815502197605382,-14.052743002381744,0.5384940460324288,9.52039173912475,-0.9982236072421073,-0.7552519355740515,-0.11973830498754978,0.6545529276132583,2695.0,-0.95291977673769,-26.999995711892534,675.0,5.007819657013853,-0.025984469475224613,2325.0,0.001806640625
0.0,-12.98449022151488,-9.903104482406482,9400.0,-14.04770012153308,0.0134033203125,0.0,-26.999999999991044,0.43489272966980935,-0.038728303741663694,0.4112799988560608,0.0,-0.07206787914037704,0.0,-11.659588133776715,0.0,-12.979765331888848,0.39734211564064026,0.22586516477167606,-9.60668854264677,-9.745912584183094,0.21610720222776275,8554055.0,0.0,0.0,0.008323709829710424,93,-2.0854265924448554,-14.028601018540428,0.5411448076367378,9.61984913970401,-0.9982966184616089,-0.7537259455406456,-0.12013586610555649,0.657256755232811,2700.0,-0.9547154888510704,-26.999987098439604,675.0,5.16868243313001,-0.026510347612202168,2350.0,0.00146484375
0.0,-12.890193965909958,-9.853928733357932,9500.0,-14.011864646609258,0.0113525390625,0.0,-26.999999999963002,0.43734932839870455,-0.038462563324719666,0.4264072677261061,0.0,-0.07145926970988511,0.0,-13.4374286423622,0.0,-12.88063915182778,0.39721349626779556,0.22089994177222252,-9.567648727636822,-9.69986323891446,0.20475585784466768,8645180.0,0.0,0.0,0.007920108560938388,94,-2.132902416859724,-14.112243774363483,0.5433282271027565,9.577901442256143,-0.9983838856220245,-0.7481421414217039,-0.12051886301487684,0.6600820675492287,2700.0,-0.9557950630784035,-26.999999978638506,675.0,4.780354586645471,-0.02621626970358193,2375.0,0.0015625
0.0,-12.884609639124818,-9.796365031109527,9600.0,-14.048186225770104,0.0101318359375,0.0,-26.999999999246015,0.4390904203057289,-0.03825714588165283,0.3249253256989169,0.0,-0.07135615348815919,0.0,-13.307752417645574,0.0,-12.877023754201996,0.3977546565234661,0.2082671858370304,-9.52124925584288,-9.643846417227376,0.19454490631574373,8736305.0,0.0,0.0,0.007379193976521492,95,-2.096482804844709,-14.089779923494692,0.545502807199955,9.531731431361553,-0.9985008597373962,-0.7414501369545178,-0.12139836438000202,0.6621228292584419,2700.0,-0.9585417822003365,-26.99999970768541,675.0,4.900867994462331,-0.026194847468286753,2400.0,0.001318359375
0.0,-12.94458443159661,-9.77252843766131,9700.0,-14.048627390798805,0.0108642578125,0.0,-27.0,0.4410152196884155,-0.0385921779088676,0.3149382882283705,0.0,-0.07150999289005995,0.0,-14.081302353998773,0.0,-12.94206619221884,0.3974738046526909,0.19401860460639,-9.498908731014073,-9.623738460640807,0.1989835134494701,8827430.0,0.0,0.0,0.007140155858360231,96,-2.08162557279793,-14.095127233347911,0.5480594456195831,9.507501342621529,-0.9985525488853455,-0.7413783256764873,-0.12202795948833227,0.6641256973147392,2700.0,-0.9616398230195046,-26.999999997674962,675.0,4.800559588979265,-0.026700704405084253,2425.0,0.0015625
0.0,-12.84083234259108,-9.819620332491294,9800.0,-14.03553057243422,0.0105712890625,0.0,-26.99999995094884,0.4437012031674385,-0.03858526637777686,0.5904554501699966,0.0,-0.07189670838415622,0.0,-12.678614104169117,0.0,-12.83217659251388,0.39709400236606596,0.19076499454677104,-9.540939617515011,-9.667251442617282,0.20029706846239384,8918555.0,0.0,0.0,0.007060107763390988,97,-2.094271765858866,-14.10619249988142,0.5498019322752953,9.551166278986098,-0.9985698387026787,-0.7440969414354186,-0.12227390594780445,0.6665019527077675,2700.0,-0.9623472452163696,-26.99999966862868,675.0,5.087974792333166,-0.026778993057087065,2450.0,0.0015869140625
0.0,-12.954572108561006,-9.852311762698934,9900.0,-14.033418063204744,0.010693359375,0.0,-26.99999999999997,0.4469469115138054,-0.038793387822806835,0.32180157995364134,0.0,-0.07212009113281966,0.0,-13.752793473218578,0.0,-12.952967174349226,0.3970013275742531,0.20283865965902806,-9.573689296388714,-9.701979753428414,0.20218245073395824,9009680.0,0.0,0.0,0.007299491472076624,98,-2.0770046015379195,-14.013148290490374,0.5518401592969895,9.5859317399134,-0.998518094420433,-0.7449133444431937,-0.12247769068926573,0.6679721370339393,2700.0,-0.9597220823168755,-26.99656560748239,675.0,5.044587180209044,-0.02727688066661358,2475.0,0.0015625
0.0,-12.966375792588703,-9.913734701929297,10000.0,-14.034083204970932,0.011083984375,0.0,-26.999999922568158,0.44966507479548457,-0.038146299216896294,0.32808976151875663,0.0,-0.07248530704528093,0.0,-13.026923751088352,0.0,-12.960270678513751,0.3966801092028618,0.21717455759644508,-9.62605366985893,-9.757334135109454,0.21532946448489304,9100805.0,0.0,0.0,0.007762239838484675,99,-2.0364690394191713,-13.9963549177696,0.5546541064977646,9.636674777643108,-0.9984180361032486,-0.7499536438132054,-0.12324390728026628,0.6690346151590347,2700.0,-0.956605076789856,-26.9999988811614,675.0,4.8800952885032105,-0.027873033517971636,2500.0,0.001318359375
