ReemS3/reg_curious_hac/data/d4a6886/AntReacherEnv-v0/alg:chac|eta:0.75|fw:1|fwhidsiz:256,256,256|nlev:2|reg:True|rolbatsiz:1|timsca:27,27|101/progress.csv
train_1/mu_loss,train_1/fw_loss,train_0/fw_bonus,train_0/reward_-0.0_frac,train_0/mu_loss,train_1/target_q,train_1/reward_-0.0_frac,policy/steps,test/episodes,test_1/subgoal_succ_rate,train_0/avg_q,train_1/subgoal_succ_rate,train_0/mu_grads,train/success_rate,train_1/next_q,train/episodes,train_1/q_grads,train_1/reward,train_1/mu_grads_std,test_1/n_subgoals,epoch,train_0/q_loss,train_0/target_q,train_0/current_q,train_1/reward_-1.0_frac,train_1/reward_-27.0_frac,train_0/mu_grads_std,train_0/fw_loss,train_0/reward,train_1/q_loss,train_0/q_grads_std,train_0/next_q,train_1/avg_q,train_0/reward_-1.0_frac,test_0/avg_q,train_1/fw_bonus,test_1/avg_q,train_1/mu_grads,train_0/q_grads,test/success_rate,train_1/current_q,train_1/q_grads_std,train_1/n_subgoals
3.255071010528397,0.0646008849143982,-0.9959300726652145,0.0,7.605775849599013,-4.38308884544834,0.0,90839.0,25.0,0.5203252032520326,-13.348622274445342,0.004814814814814815,-0.003115333378082141,0.0,-2.2585414624423588,100.0,0.017771474132314325,-2.6655658904357553,0.25067340284585954,1353.0,0,0.32405904018760234,-7.863351144646421,-7.757612793040539,0.0133544921875,0.0,0.13056274317204952,0.03244976061396301,-0.6262713357584289,0.9013434068847583,0.11684890519827604,-7.605780525301009,-13.040250274946496,0.0005615234375,-21.466540424050194,-0.994734251499176,-20.061033888161965,-0.011178472824394704,0.0067345866234973075,0.0,-4.383666945367932,0.1271185077726841,2700.0
10.842839433436305,0.07525314390659332,-0.9978091612458229,0.0,7.990397907072264,-10.083974174641273,0.0,180657.0,50.0,0.0,-21.045267597596403,0.020370370370370372,-0.012627492635510862,0.0,-9.859114168547942,200.0,0.001984027397702448,-2.6530578488895116,0.24716336354613305,675.0,1,0.3465702370186412,-8.13942657448907,-8.087292671068116,0.0103271484375,0.0,0.16669862084090709,0.017660787887871267,-0.6121109830306523,3.4818464604840784,0.13454201444983482,-7.980523405243465,-20.33203516641942,0.0087890625,-16.71914773895712,-0.9935546398162842,-18.420756698421872,-0.020901661878451706,0.00802669848781079,0.0,-10.222393803962134,0.14903330393135547,2700.0
5.065605467443559,0.07818600293248892,-0.9983283445239067,0.0,8.664047251927187,-5.533163500306469,0.0,271477.0,75.0,0.0,-22.264085241633214,0.005555555555555556,-0.018124200636520982,0.0,-3.836054630943712,300.0,-0.012543143541552126,-2.6413677655564243,0.2528083622455597,675.0,2,0.34643760175404426,-8.846879899667645,-8.73294332356993,0.008056640625,0.0,0.21958992667496205,0.013574628555215896,-0.6168550381797104,5.052206363655509,0.1509657919406891,-8.661099179114206,-20.285710981377242,0.01083984375,-27.0,-0.9932298555970192,-25.106856812073254,-0.01744551407173276,0.004652959294617176,0.0,-5.596776761228214,0.16259391903877257,2700.0
3.2477844798911817,0.08426678534597158,-0.9985879987478257,0.0,8.748050574291295,-4.3164905057451195,0.0,362578.0,100.0,0.0,-26.65214415085884,0.00037037037037037035,-0.017325551761314274,0.0,-2.2388869957129005,400.0,-0.02021090337075293,-2.653302688727126,0.28789376765489577,675.0,3,0.32910426582636204,-8.927266333923413,-8.831014223961414,0.00712890625,0.0,0.24908596202731131,0.011531352670863271,-0.6187326873176062,1.0525938948864888,0.1557400304824114,-8.747464202458142,-21.486874878574348,0.0500244140625,-27.0,-0.9925564616918564,-21.029377825268202,-0.01296584545634687,0.0047886878601275384,0.0,-4.3479475925127655,0.175550365075469,2700.0
2.5089540211045804,0.09419045168906451,-0.9986978396773338,0.0,8.986967665097437,-3.824610339117703,0.0,453654.0,125.0,0.0,-26.658281955017234,0.0007407407407407407,-0.02046169210225344,0.0,-1.5173254417563502,500.0,-0.027565789828076958,-2.688349000510425,0.2718996234238148,675.0,4,0.3054272568337299,-9.188001295851958,-9.05876310893288,0.0068359375,0.0,0.2712717466056347,0.010666706110350787,-0.6150248013971578,1.6772937928759588,0.16576949059963225,-8.985196292696564,-20.978087583071535,0.06181640625,-26.999985827877396,-0.9914575174450875,-20.336988418354135,-0.011257761530578137,-0.002861175744328648,0.0,-3.823658470277498,0.19461504146456718,2700.0
1.8145584093715654,0.09816287402063609,-0.9987860560417176,0.0,9.043499262877852,-3.2994015550810523,0.0,544690.0,150.0,0.0,-26.717706879376465,0.0014814814814814814,-0.022000333527103066,0.0,-0.8153760374292972,600.0,-0.026044351141899826,-2.693201179933021,0.32369915395975113,675.0,5,0.26891409845853625,-9.267619880531209,-9.131573939441177,0.0062744140625,0.0,0.29065086618065833,0.009972465550526976,-0.608546609953919,0.9266085307422223,0.17047908194363118,-9.040234392393081,-19.85999202695373,0.040234375,-26.99600967196546,-0.9910176262259484,-19.877596861490915,-0.015197468642145395,-0.002940616960404441,0.0,-3.312146575564552,0.21049676574766635,2700.0
1.9773087451299083,0.09630292356014251,-0.9988669604063034,0.0,9.18167788849254,-3.3983414536525323,0.0,635815.0,175.0,0.0,-26.991701512825433,0.0,-0.02130293771624565,0.0,-0.9768838444585866,700.0,-0.02578782821074128,-2.6647065296114305,0.40053127259016036,675.0,6,0.25850328734218825,-9.407828392748423,-9.261484268733408,0.006298828125,0.0,0.3078257992863655,0.009335743519477547,-0.6084752826624026,0.5526183364986366,0.17517822980880737,-9.17720047356209,-20.01445757876328,0.087744140625,-26.99999410846115,-0.9912235826253891,-20.964612350916006,-0.026261581247672437,-0.003180824493756518,0.0,-3.4071888261836962,0.22232843190431595,2700.0
1.0000457115187742,0.09415766224265099,-0.9989107310771942,0.0,9.312912735293821,-2.6739908042332763,0.0,726940.0,200.0,0.0,-26.999349460871223,0.0,-0.021004304755479097,0.0,-4.8064174705135225e-05,800.0,-0.027160291466861962,-2.6739578166820137,0.42816840186715127,675.0,7,0.2406433420273036,-9.551118112001332,-9.395442523742549,0.0068603515625,0.0,0.3166284091770649,0.00899120110552758,-0.6058678188226623,0.17647062915835915,0.1797722525894642,-9.310012368341571,-20.21829129299807,0.10126953125,-27.0,-0.9914611473679542,-20.58407834728433,-0.025764578208327293,-0.0033124835637863724,0.0,-2.6878779830136716,0.23423854485154152,2700.0
1.0000177475490264,0.08759107626974583,-0.9989947482943535,0.0,9.300112795122935,-2.6781453672278075,0.0,818065.0,225.0,0.0,-27.0,0.0,-0.016352910781279206,0.0,-1.982405663464118e-05,900.0,-0.028878189530223607,-2.67813131053299,0.42871880903840065,675.0,8,0.22430012204554703,-9.541570680870413,-9.38585836281718,0.006689453125,0.0,0.3297679550945759,0.008329999970737845,-0.6043141151763848,0.11085042597625616,0.18419832251966,-9.29406016138835,-20.114923033049504,0.141259765625,-27.0,-0.9921883389353752,-19.53836864437751,-0.02649200139567256,-0.0038380462967325,0.0,-2.6887266810129176,0.24453637935221195,2700.0
1.0000026579115129,0.08564452175050974,-0.9990208238363266,0.0,9.31680208292139,-2.6494031228573753,0.0,909190.0,250.0,0.0,-27.0,0.0,-0.014601844549179076,0.0,-3.061878305023238e-06,1000.0,-0.03147388994693756,-2.6494010219619666,0.42946378588676454,675.0,9,0.2182673032709947,-9.564637719378187,-9.410792704959931,0.0070556640625,0.0,0.34242496863007543,0.008124753856100142,-0.6055840625242126,0.11335564285697668,0.19007186330854892,-9.312069162221412,-20.18566273661081,0.14677734375,-27.0,-0.9924039021134377,-20.504415735397327,-0.026265426119789482,-0.003925201727543026,0.0,-2.6572691566025632,0.2552155047655106,2700.0
1.0000024136218035,0.08267178200185299,-0.9990088537335395,0.0,9.410987595110564,-2.659135253899465,0.0,1000315.0,275.0,0.0,-27.0,0.0,-0.013262977940030396,0.0,-3.2903829426590675e-06,1100.0,-0.03319719135761261,-2.659132980856884,0.4321429945528507,675.0,10,0.20430376740604062,-9.672778798953516,-9.51468266058109,0.007421875,0.0,0.35299974456429484,0.008218913001473992,-0.6100488449108525,0.0720915787695278,0.19523563385009765,-9.405677065065918,-20.24001437726435,0.15498046875,-27.0,-0.9927330955862999,-20.411199233743716,-0.024692238448187707,-0.004830156883690507,0.0,-2.6669990815139664,0.2641466177999973,2700.0
1.0000000920311607,0.08065066952258348,-0.9990023016929627,0.0,9.348339721147646,-2.6335908459544575,0.0,1091440.0,300.0,0.0,-27.0,0.0,-0.01523200327064842,0.0,-8.441849210204973e-08,1200.0,-0.03569547738879919,-2.6335907906155627,0.4348102755844593,675.0,11,0.21707076390143212,-9.618762022427813,-9.460193653556303,0.0064453125,0.0,0.36133487448096274,0.00827054182300344,-0.6169685916560411,0.05723651046599837,0.20114602334797382,-9.34155818468246,-19.95528040034033,0.15322265625,-27.0,-0.9929568976163864,-20.368361864473464,-0.023548056464642288,-0.004610777145717293,0.0,-2.640927335641409,0.2747615225613117,2700.0
1.0000000332395942,0.07786089014261961,-0.9989900469779969,0.0,9.29998345184754,-2.6826487673428927,0.0,1182565.0,325.0,0.0,-27.0,0.0,-0.012906667636707425,0.0,-3.6498086788714485e-08,1300.0,-0.03741148607805371,-2.6826487379843456,0.4393330566585064,675.0,12,0.22782785899872054,-9.583935019052063,-9.429309579633218,0.0071044921875,0.0,0.37020597159862517,0.008366944768931716,-0.6276588885688398,0.07127195843987964,0.20726318173110486,-9.292300553872598,-20.20799068083775,0.143359375,-27.0,-0.993265850841999,-20.06914592807738,-0.021673875488340856,-0.005354282271582633,0.0,-2.688220287275371,0.2810298129916191,2700.0
1.0000000027094331,0.07642029598355293,-0.9990049511194229,0.0,9.442805198208523,-2.6865887698407542,0.0,1273690.0,350.0,0.0,-27.0,0.0,-0.010592459444887936,0.0,-3.4875146515873678e-09,1400.0,-0.04024164993315935,-2.6865887674368425,0.45329528078436854,675.0,13,0.22895718884008903,-9.733132065795868,-9.577719116411561,0.0071533203125,0.0,0.37995249405503273,0.008249655028339475,-0.6354445968958317,0.09820025888595327,0.21437140516936778,-9.436363831780552,-20.03257846416904,0.153955078125,-27.0,-0.993425378203392,-20.490006263425247,-0.01915997751057148,-0.0067427730071358384,0.0,-2.689913828935874,0.28889253437519075,2700.0
1.000235208078872,0.07520106136798858,-0.9990176230669021,0.0,9.410942891125732,-2.6424536171294513,0.0,1364815.0,375.0,0.0,-27.0,0.0,-0.009554768074303865,0.0,-0.00011902440610531823,1500.0,-0.041906677093356846,-2.642365930027154,0.5389974057674408,675.0,14,0.22936243816063798,-9.704873675703954,-9.550284159546848,0.0073486328125,0.0,0.3897554248571396,0.008149956294801086,-0.6389084573038417,0.11981526836353976,0.220788486674428,-9.402464174593337,-20.213984580136028,0.169921875,-27.0,-0.9935604006052017,-20.035665781298587,-0.0015153661428485067,-0.007831280445680022,0.0,-2.6434175398170288,0.2965505883097649,2700.0
28.0,0.07193564344197512,-0.9990042954683304,0.0,9.432272076736044,-23.625771032691965,0.0,1455940.0,400.0,0.0,-27.0,0.0,-0.009376435168087482,0.0,-27.0,1600.0,-0.04247446544468403,-2.6360659545669476,0.5423035025596619,675.0,15,0.21863127615638298,-9.734740129113751,-9.579454789206233,0.0074462890625,0.0,0.3973499909043312,0.008254751039203256,-0.6422193373986375,9.48094381968436,0.2267045296728611,-9.425378597038607,-24.06007936010844,0.1349609375,-27.0,-0.9939220070838928,-26.999997126587168,-0.0019247004529461265,-0.008238213183358312,0.0,-23.864158884739634,0.3120743803679943,2700.0
28.0,0.06947948057204485,-0.9990819379687309,0.0,9.336242800674594,-23.711659096948164,0.0,1547065.0,425.0,0.0,-27.0,0.0,-0.010350359766744078,0.0,-27.0,1700.0,-0.04195302547886968,-2.6644603664793975,0.5423035025596619,675.0,16,0.2189413588452025,-9.639903623517853,-9.485121365617355,0.008349609375,0.0,0.40333556309342383,0.00764374245190993,-0.63919919543805,6.192756042459843,0.2322749249637127,-9.32838513858582,-26.742977631649723,0.1863037109375,-27.0,-0.9941940158605576,-26.988312609346345,-0.0019247004529461265,-0.00871745334006846,0.0,-23.887710485990112,0.318947310000658,2700.0
28.0,0.06454975148662925,-0.9991277188062668,0.0,9.350426607112835,-23.41885172998735,0.0,1638190.0,450.0,0.0,-27.0,0.0,-0.01017522111069411,0.0,-27.0,1800.0,-0.04277343638241291,-2.6545992885810845,0.5423035025596619,675.0,17,0.2172119476691527,-9.653944542109874,-9.49692032938319,0.008203125,0.0,0.41023681685328484,0.007283402769826352,-0.6343217257290235,5.08100435816291,0.23678703606128693,-9.346842200110075,-26.090572920320216,0.1615234375,-27.0,-0.9947399228811264,-24.99585914538797,-0.0019247004529461265,-0.009852721984498203,0.0,-23.50478148634986,0.3270177379250526,2700.0
28.0,0.05922817438840866,-0.9991761520504951,0.0,9.281572709738937,-23.321562045610218,0.0,1729315.0,475.0,0.0,-27.0,0.0,-0.009738895972259343,0.0,-27.0,1900.0,-0.04256971599534154,-2.645811069047704,0.5423035025596619,675.0,18,0.19711911658580375,-9.57837789142673,-9.428257867511576,0.0073486328125,0.0,0.4156568057835102,0.006902216305024922,-0.6316238729694306,5.739157213849255,0.24100060537457466,-9.276480714757966,-25.098256641903077,0.1941650390625,-27.0,-0.9953292354941368,-25.36364980431432,-0.0019247004529461265,-0.010406692582182585,0.0,-23.331616919596293,0.3345519877970219,2700.0
28.0,0.054803519323468206,-0.9992195397615433,0.0,9.384942237151122,-23.41284982390862,0.0,1820440.0,500.0,0.0,-27.0,0.0,-0.0100533795543015,0.0,-27.0,2000.0,-0.042704211082309484,-2.670561249689854,0.5348801016807556,675.0,19,0.1979354221063364,-9.698223048430389,-9.54594742517119,0.00595703125,0.0,0.4223754771053791,0.0065608124248683454,-0.6411745127563335,7.003525230325529,0.24666329622268676,-9.381300935969445,-24.49201266227579,0.2123291015625,-27.0,-0.9958192095160484,-26.999999324938614,-0.01204595621675253,-0.011246808408759534,0.0,-23.621733805698888,0.3402103081345558,2700.0
28.0,0.054444652330130336,-0.9992281764745712,0.0,9.403231206644298,-23.438643205950854,0.0,1911565.0,525.0,0.0,-27.0,0.0,-0.01165545724797994,0.0,-27.0,2100.0,-0.04235292105004192,-2.645320940325837,0.5348801016807556,675.0,20,0.1926668992101262,-9.714478753238438,-9.562508922488487,0.005517578125,0.0,0.4294023305177689,0.006492781394626945,-0.6414513322673884,5.750159997626731,0.25155859142541886,-9.397401711928996,-26.98960512686082,0.2042724609375,-27.0,-0.9958589509129524,-26.99999985806387,-0.01204595621675253,-0.011378678074106575,0.0,-23.64120706910708,0.34247410073876383,2700.0
28.0,0.05639883521944285,-0.9992181494832039,0.0,9.411622581145071,-23.562891350345904,0.0,2002690.0,550.0,0.0,-27.0,0.0,-0.012116601667366922,0.0,-27.0,2200.0,-0.0425208454951644,-2.63907787378339,0.5348801016807556,675.0,21,0.18850168064705558,-9.724820489959097,-9.567932103540295,0.005859375,0.0,0.4360396809875965,0.006571785709820688,-0.6411375430423505,6.0741489702427485,0.2567678354680538,-9.4054742879683,-26.971398695327,0.201171875,-27.0,-0.9956425666809082,-26.99999972930731,-0.01204595621675253,-0.011867977771908044,0.0,-23.736096062928183,0.346555782109499,2700.0
28.0,0.05816768743097782,-0.9992006421089172,0.0,9.333764549973974,-23.654640477321603,0.0,2093815.0,575.0,0.0,-27.0,0.0,-0.012240871414542198,0.0,-27.0,2300.0,-0.042996104992926124,-2.646847508571591,0.5348801016807556,675.0,22,0.19374433128859803,-9.653285709766061,-9.497620976606987,0.0059814453125,0.0,0.4436462208628654,0.006709552416577935,-0.6445023077070801,6.997052076579469,0.26208404898643495,-9.329582598974923,-26.991083693969912,0.202392578125,-27.0,-0.9954466730356216,-26.999992966489664,-0.01204595621675253,-0.012601827224716543,0.0,-23.844405353930433,0.3518051035702229,2700.0
28.0,0.06445623822510242,-0.99919753074646,0.0,9.412870847590058,-23.744983468579072,0.0,2184940.0,600.0,0.0,-27.0,0.0,-0.012376315961591899,0.0,-27.0,2400.0,-0.04561519268900156,-2.6900327849853056,0.5368746519088745,675.0,23,0.2040140244310285,-9.723542377984703,-9.571362085667198,0.00576171875,0.0,0.4495192676782608,0.006734055245760828,-0.6457100252831879,4.5331224251092666,0.2676206551492214,-9.40764597783936,-26.753012332716423,0.194921875,-27.0,-0.9947502762079239,-25.068626577689386,-0.020654693245887756,-0.012966234795749187,0.0,-23.84764221107323,0.35689777955412866,2700.0
1.0,0.06513594286516308,-0.9991618618369102,0.0,9.315915993341626,-2.6004021510605524,0.0,2276065.0,625.0,0.0,-27.0,0.0,-0.0125000104540959,0.0,-3.651417937143917e-24,2500.0,-0.04507812736555934,-2.6004021510605524,0.5800696015357971,675.0,24,0.1992575953136817,-9.637466201403711,-9.482057427102543,0.006689453125,0.0,0.4557022228837013,0.0070146357640624045,-0.6455180072411167,7.335294113247369,0.27312454432249067,-9.308953891261638,-22.97532698004937,0.16142578125,-27.0,-0.9946750149130821,-26.999999999996955,-0.04661758244037628,-0.01380912885069847,0.0,-2.1343319232194884,0.3651453398168087,2700.0
28.0,0.07118276059627533,-0.9991647616028786,0.0,9.411670828620682,-23.60005603307311,0.0,2367190.0,650.0,0.0,-27.0,0.0,-0.013691551564261318,0.0,-27.0,2600.0,-0.042628563940525055,-2.696914431510595,0.5806608200073242,675.0,25,0.2011723867259604,-9.728156547220982,-9.573168765099917,0.0066162109375,0.0,0.46166974902153013,0.006991841504350305,-0.6438341611199576,88.74296758633983,0.2780558630824089,-9.407713478919101,-26.136402057046837,0.196337890625,-27.0,-0.9940053775906563,-27.0,-0.04796074330806732,-0.014850126300007104,0.0,-26.99999999069262,0.36704298853874207,2700.0
28.0,0.07389822043478489,-0.999177274107933,0.0,9.390818990216314,-23.755874655229416,0.0,2458315.0,675.0,0.0,-27.0,0.0,-0.013449364528059959,0.0,-27.0,2700.0,-0.042628563940525055,-2.645368307573153,0.5806608200073242,675.0,26,0.1995486695016509,-9.709361385900547,-9.555012866882796,0.0079833984375,0.0,0.4661767467856407,0.006893440778367221,-0.6442584291522507,85.0435166420214,0.28275234550237655,-9.386478673982085,-27.0,0.2010498046875,-27.0,-0.9937046691775322,-27.0,-0.04796074330806732,-0.01520398531574756,0.0,-26.999999999869544,0.36704298853874207,2700.0
28.0,0.0777502192184329,-0.9991762414574623,0.0,9.564379079109006,-23.571941108842147,0.0,2549440.0,700.0,0.0,-27.0,0.0,-0.012949269847013056,0.0,-27.0,2800.0,-0.042628560215234756,-2.658463569779633,0.5806608200073242,675.0,27,0.19712820000651168,-9.881214959674422,-9.723607711574173,0.0063232421875,0.0,0.46985144913196564,0.006901470827870071,-0.648140010013958,89.74657887472162,0.28727310225367547,-9.557292435978217,-26.99999999999996,0.2009033203125,-27.0,-0.9932781055569648,-27.0,-0.04796074330806732,-0.015129776229150594,0.0,-26.999999999872536,0.36704298853874207,2700.0
28.0,0.07508686147630214,-0.9992435961961746,0.0,9.28874813749,-23.50244721826102,0.0,2640565.0,725.0,0.0,-27.0,0.0,-0.012534347106702625,0.0,-27.0,2900.0,-0.04262855648994446,-2.6335434096672543,0.5806608200073242,675.0,28,0.19299638433214308,-9.602373433805573,-9.445986129795068,0.0073486328125,0.0,0.4729979023337364,0.006371384661179036,-0.636639514511262,91.73980982534859,0.29148530289530755,-9.284347884426854,-27.0,0.1964111328125,-27.0,-0.9935730472207069,-27.0,-0.04796074330806732,-0.015973225189372896,0.0,-26.99999999998517,0.36704298853874207,2700.0
28.0,0.07351978700608015,-0.9992662161588669,0.0,9.422349572299355,-23.412347045734467,0.0,2731690.0,750.0,0.0,-27.0,0.0,-0.01245941799134016,0.0,-27.0,3000.0,-0.04262855648994446,-2.668120483234452,0.5806608200073242,675.0,29,0.189141148030193,-9.72868978223841,-9.577206118790963,0.0069091796875,0.0,0.47648187801241876,0.006193484272807836,-0.6394100577803329,93.84462283246302,0.2947086736559868,-9.41828239408694,-27.0,0.201953125,-27.0,-0.9937465950846672,-27.0,-0.04796074330806732,-0.016113112214952707,0.0,-26.999999999995488,0.36704298853874207,2700.0
28.0,0.07473162915557623,-0.9992883056402206,0.0,9.466245283085692,-23.570017111430527,0.0,2822815.0,775.0,0.0,-27.0,0.0,-0.013469750224612654,0.0,-27.0,3100.0,-0.04262855648994446,-2.6810874239305122,0.5806608200073242,675.0,30,0.18484914941084285,-9.77276299158726,-9.613727026254496,0.0065673828125,0.0,0.4813107267022133,0.0060195829952135686,-0.6390310605635022,89.63619697362029,0.2981576532125473,-9.459887968223033,-27.0,0.202685546875,-27.0,-0.9936123803257942,-27.0,-0.04796074330806732,-0.01645605550147593,0.0,-26.999999999983896,0.36704298853874207,2700.0
28.0,0.07286780457943678,-0.9992791742086411,0.0,9.24236144931748,-23.43466075103462,0.0,2913940.0,800.0,0.0,-27.0,0.0,-0.014671306475065649,0.0,-27.0,3200.0,-0.042628560215234756,-2.7466358486908575,0.5806608200073242,675.0,31,0.1872076122658172,-9.549477581641948,-9.395641797964881,0.0070556640625,0.0,0.48699837923049927,0.006091325881425291,-0.6339201389102527,92.70064112124304,0.30218639224767685,-9.237773845724567,-27.0,0.1965576171875,-27.0,-0.9938187927007676,-27.0,-0.04796074330806732,-0.01664200290106237,0.0,-26.999999999988923,0.36704298853874207,2700.0
28.0,0.07502545677125454,-0.9993146672844887,0.0,9.475521476779731,-23.44562836064308,0.0,3005065.0,825.0,0.0,-27.0,0.0,-0.015444313571788371,0.0,-27.0,3300.0,-0.042628590017557144,-2.655536075486816,0.5806608200073242,675.0,32,0.19655649907494258,-9.784156190242278,-9.629794290371636,0.006982421875,0.0,0.4919407345354557,0.005812084255740047,-0.6409968802930962,93.06582468100994,0.30521474704146384,-9.47399836544698,-27.0,0.20576171875,-27.0,-0.9935798406600952,-27.0,-0.04796074330806732,-0.016409241780638694,0.0,-26.999999999993385,0.36704298853874207,2700.0
28.0,0.07091264724731446,-0.9992861926555634,0.0,9.362357188441006,-23.550937779805245,0.0,3096190.0,850.0,0.0,-27.0,0.0,-0.015589196956716478,0.0,-27.0,3400.0,-0.04262878922745585,-2.7537395376177303,0.5806608200073242,675.0,33,0.18859837319624248,-9.674117429224264,-9.520135691090209,0.0067138671875,0.0,0.49677109345793724,0.006036194902844727,-0.640513687139537,89.61715817541743,0.3081914894282818,-9.359288486526621,-27.0,0.1978515625,-27.0,-0.9940352991223336,-27.0,-0.04796074330806732,-0.016872233850881456,0.0,-26.99999999999726,0.3670429587364197,2700.0
28.0,0.07011609999462962,-0.9993102654814721,0.0,9.34487001325716,-23.404808708493146,0.0,3187315.0,875.0,0.0,-27.0,0.0,-0.01706801075488329,0.0,-27.0,3500.0,-0.04262970592826605,-2.646370231930632,0.5806608200073242,675.0,34,0.18575293337326587,-9.649426506244096,-9.495593042739534,0.0078369140625,0.0,0.5010353624820709,0.005846702074632048,-0.6376266399995074,94.20085374044902,0.31163536086678506,-9.341030259523766,-26.99999999999957,0.2027587890625,-27.0,-0.9941235065460206,-27.0,-0.04796074330806732,-0.017590714804828166,0.0,-26.999999999997932,0.36704268380999566,2700.0
28.0,0.07376857362687587,-0.9993275597691536,0.0,9.406543793360731,-23.263673899404107,0.0,3278440.0,900.0,0.0,-27.0,0.0,-0.017258409410715103,0.0,-27.0,3600.0,-0.042633145954459904,-2.646708567372843,0.5806608200073242,675.0,35,0.18283761268096144,-9.718804521601495,-9.560752356486075,0.0071044921875,0.0,0.5044960990548134,0.005710653483401984,-0.6370450239344791,97.87835584460505,0.3156162314116955,-9.401717884587239,-27.0,0.2063232421875,-27.0,-0.9937190353870392,-27.0,-0.04796074330806732,-0.017947753006592394,0.0,-26.999999999999023,0.3670416034758091,2700.0
28.0,0.07094308361411095,-0.9993234559893608,0.0,9.340552102118291,-23.268805832566663,0.0,3369565.0,925.0,0.0,-27.0,0.0,-0.01744972914457321,0.0,-27.0,3700.0,-0.04534032810479403,-2.70029020756665,0.5806608200073242,675.0,36,0.1786483186079017,-9.640926574899254,-9.484976950584265,0.0064208984375,0.0,0.5064948692917823,0.005742984870448708,-0.632832571437757,9.7252423100731,0.31895101964473727,-9.336071841396347,-26.999999999999435,0.200341796875,-27.0,-0.9940319269895553,-26.99999999999932,-0.04796074330806732,-0.01912574884481728,0.0,-23.478971133749802,0.3641727715730667,2700.0
1.0,0.07230311203747988,-0.9993344455957412,0.0,9.3342300717789,-2.6897423026548495,0.0,3460690.0,950.0,0.0,-27.0,0.0,-0.016825481737032532,0.0,-2.4225485869254027e-30,3800.0,-0.043896949663758275,-2.6897423026548495,0.5834740996360779,675.0,37,0.1798968658125209,-9.63122517221133,-9.478113644451263,0.0061279296875,0.0,0.5090430989861489,0.005656458658631891,-0.6333113940592738,5.772610909374071,0.32252218648791314,-9.331435663863784,-26.12643041643778,0.1969970703125,-27.0,-0.9938813090324402,-26.999999999477286,-0.04059871658682823,-0.02022753991186619,0.0,-2.4190803824640112,0.36964761316776273,2700.0
1.0,0.0746912082657218,-0.9993196576833725,0.0,9.364550236213441,-2.670743082084664,0.0,3551815.0,975.0,0.0,-27.0,0.0,-0.016098379530012606,0.0,-1.8999897004318064e-16,3900.0,-0.04316186895594001,-2.670743082084664,0.5874417424201965,675.0,38,0.18015913992830726,-9.669116300639129,-9.514884973357796,0.0071533203125,0.0,0.5111320421099663,0.005772878765128553,-0.637097979264945,4.922500602095774,0.32596084997057917,-9.358023705699779,-25.997028193894323,0.1896728515625,-27.0,-0.9936168536543846,-26.999999999999993,-0.041399337351322174,-0.02071662377566099,0.0,-2.4278202095720767,0.371001298725605,2700.0
28.0,0.07970907092094422,-0.9993382558226586,0.0,9.209065692571556,-23.57037296152156,0.0,3642940.0,1000.0,0.0,-27.0,0.0,-0.016352695133537053,0.0,-27.0,4000.0,-0.04169776663184166,-2.6607713990215416,0.5998184084892273,675.0,39,0.18014462817205618,-9.521147847646393,-9.366885433487258,0.00595703125,0.0,0.5141767457127571,0.005626390036195516,-0.6340630816179328,89.76823742048039,0.32917757481336596,-9.203374330510778,-26.589347459547948,0.188720703125,-27.0,-0.9930611923336983,-27.0,-0.04138151556253433,-0.021565031539648772,0.0,-26.999999999999993,0.37457433342933655,2700.0
28.0,0.07919066753238439,-0.9993729904294014,0.0,9.428915003876595,-23.710881944730207,0.0,3734065.0,1025.0,0.0,-27.0,0.0,-0.017025562236085534,0.0,-27.0,4100.0,-0.04169776663184166,-2.7069649525426938,0.5998184084892273,675.0,40,0.18556725097763216,-9.75238484999967,-9.598277214714935,0.0061767578125,0.0,0.5172792226076126,0.005353109096176922,-0.6461933444072201,85.77119781468409,0.33260994255542753,-9.42423363244904,-27.0,0.1984130859375,-27.0,-0.9931185886263847,-27.0,-0.04138151556253433,-0.021169419679790736,0.0,-26.999999999999915,0.37457433342933655,2700.0
28.0,0.08000179547816515,-0.9993986204266548,0.0,9.383557816046402,-23.98291612830521,0.0,3825190.0,1050.0,0.0,-27.0,0.0,-0.01831358321942389,0.0,-27.0,4200.0,-0.04169776663184166,-2.7115567533051945,0.5998184084892273,675.0,41,0.17376377100876372,-9.716145088122566,-9.56166657657253,0.0065673828125,0.0,0.5210312023758888,0.005151429341640324,-0.6476645944374468,78.63829542157671,0.33627376407384874,-9.378336974766658,-27.0,0.1702392578125,-27.0,-0.9930287629365921,-27.0,-0.04138151556253433,-0.022432092111557722,0.0,-26.99999999999998,0.37457433342933655,2700.0
28.0,0.07702247500419616,-0.999360416829586,0.0,9.356919169682337,-24.173035719558627,0.0,3916315.0,1075.0,0.0,-27.0,0.0,-0.0197455873247236,0.0,-27.0,4300.0,-0.04169776663184166,-2.690435621902361,0.5998184084892273,675.0,42,0.17938595344449312,-9.695516901643575,-9.540559479294698,0.00703125,0.0,0.5243229731917382,0.0054520228295587,-0.649815690705509,73.83156793472128,0.34029108509421346,-9.351971070671107,-27.0,0.1837646484375,-27.0,-0.9933586895465851,-27.0,-0.04138151556253433,-0.023226782074198128,0.0,-26.999999999999908,0.37457433342933655,2700.0
28.0,0.07652508597820998,-0.9993379682302475,0.0,9.486103440800225,-24.070886159866934,0.0,4007440.0,1100.0,0.0,-27.0,0.0,-0.021263409731909634,0.0,-27.0,4400.0,-0.04169776663184166,-2.7116713161169175,0.5998184084892273,675.0,43,0.18536179959592106,-9.817448156245067,-9.660155301689672,0.005908203125,0.0,0.5281274020671844,0.005628674151375889,-0.6503960168025514,76.3461567450893,0.3442608408629894,-9.480536533935563,-27.0,0.191455078125,-27.0,-0.9934137761592865,-27.0,-0.04138151556253433,-0.023644911590963602,0.0,-26.999999999999876,0.37457433342933655,2700.0
28.0,0.08183322567492723,-0.9993328273296356,0.0,9.319445076104913,-23.767507026310792,0.0,4098565.0,1125.0,0.0,-27.0,0.0,-0.02139158365316689,0.0,-27.0,4500.0,-0.04169776663184166,-2.720954291935777,0.5998184084892273,675.0,44,0.19501946192186698,-9.63676254407512,-9.487823793377233,0.0063232421875,0.0,0.5307668685913086,0.005669319804292172,-0.640635204174032,84.19256518439038,0.34953094497323034,-9.316550676977348,-27.0,0.1671630859375,-27.0,-0.9928259536623955,-27.0,-0.04138151556253433,-0.023943188972771166,0.0,-26.999999999999943,0.37457433342933655,2700.0
28.0,0.081956079415977,-0.9993079528212547,0.0,9.310045712180633,-23.616874475340943,0.0,4189690.0,1150.0,0.0,-27.0,0.0,-0.020824196003377437,0.0,-27.0,4600.0,-0.041697729378938675,-2.6749731081534263,0.5998184084892273,675.0,45,0.1960783973626228,-9.626723627498015,-9.473300374846295,0.0060302734375,0.0,0.5340770035982132,0.00586492212023586,-0.6384317253232439,88.45341473351297,0.35419923812150955,-9.306164493427792,-27.0,0.1565185546875,-27.0,-0.9928123563528061,-27.0,-0.04138151556253433,-0.023612618120387195,0.0,-26.99999999991084,0.37457430362701416,2700.0
28.0,0.08362076859921216,-0.9993378832936287,0.0,9.408156487946302,-23.389787861650927,0.0,4280815.0,1175.0,0.0,-27.0,0.0,-0.020591528387740254,0.0,-27.0,4700.0,-0.04169744998216629,-2.6080935257134117,0.5998184084892273,675.0,46,0.1837163552803862,-9.720615568034285,-9.564013294680702,0.0062255859375,0.0,0.536810801923275,0.005629346775822342,-0.6377434077578072,94.85624810958281,0.35812009274959566,-9.403816187453021,-27.0,0.1758056640625,-27.0,-0.9926280036568642,-27.0,-0.04138151556253433,-0.02350961584597826,0.0,-26.999999999950624,0.3745742440223694,2700.0
28.0,0.07869517393410205,-0.9993812695145607,0.0,9.308028029636349,-23.37307119701423,0.0,4371940.0,1200.0,0.0,-27.0,0.0,-0.020462137646973133,0.0,-27.0,4800.0,-0.04169627204537392,-2.6592064509204647,0.5998184084892273,675.0,47,0.17861025286576457,-9.617725386381773,-9.463158212311438,0.005517578125,0.0,0.5402707770466805,0.005287886608857662,-0.6321878478011058,94.93004823816044,0.3613055877387524,-9.303345652687675,-27.0,0.1378662109375,-27.0,-0.9931734681129456,-27.0,-0.04138151556253433,-0.023797405930235983,0.0,-26.999999999978492,0.37457430362701416,2700.0
28.0,0.07741144727915525,-0.9994185507297516,0.0,9.358791260720958,-23.435411669182315,0.0,4463065.0,1225.0,0.0,-27.0,0.0,-0.02057941104285419,0.0,-27.0,4900.0,-0.041691282950341704,-2.6369214348073,0.5998184084892273,675.0,48,0.1669215184695852,-9.675875794748862,-9.521699504096052,0.00458984375,0.0,0.5447602346539497,0.004994482256006449,-0.6373973633664718,93.46257266814175,0.36464512571692465,-9.354440585179766,-27.0,0.1381103515625,-27.0,-0.9933156207203865,-27.0,-0.04138151556253433,-0.023829758726060392,0.0,-26.999999999950727,0.3745749890804291,2700.0
28.0,0.07270236872136593,-0.999444143474102,0.0,9.284001330696857,-23.532733690660592,0.0,4554190.0,1250.0,0.0,-27.0,0.0,-0.02049020128324628,0.0,-27.0,5000.0,-0.041680892929434776,-2.697421678941828,0.5998184084892273,675.0,49,0.1736821119359994,-9.597174459411086,-9.445788265494633,0.00478515625,0.0,0.548695282638073,0.004793161351699382,-0.6370192368161952,90.49360905848312,0.3680903948843479,-9.27876565378746,-27.0,0.1446044921875,-27.0,-0.9938370972871781,-27.0,-0.04138151556253433,-0.024299356807023286,0.0,-26.999999999959403,0.3745780438184738,2700.0
28.0,0.07661021631211043,-0.9994475826621055,0.0,9.320786549815068,-23.715150892945427,0.0,4645315.0,1275.0,0.0,-27.0,0.0,-0.021381709165871142,0.0,-27.0,5100.0,-0.041671911533921954,-2.576866713257914,0.5998184084892273,675.0,50,0.17152968708923141,-9.641085085138602,-9.486963987919852,0.0050537109375,0.0,0.5520363181829453,0.004766031156759709,-0.6400962704221456,86.59380863852682,0.3710347831249237,-9.315788841949523,-27.0,0.139208984375,-27.0,-0.9934043556451797,-27.0,-0.04138151556253433,-0.024706959119066597,0.0,-26.99999999999625,0.3745813310146332,2700.0
28.0,0.08103363271802663,-0.999422450363636,0.0,9.31265315480927,-23.69055968155421,0.0,4736440.0,1300.0,0.0,-27.0,0.0,-0.022122744331136347,0.0,-27.0,5200.0,-0.041666018404066564,-2.645298939366694,0.5998184084892273,675.0,51,0.16752254407930942,-9.626731990469949,-9.472335700991183,0.00556640625,0.0,0.5545545309782028,0.004963927564676851,-0.638240618902637,86.74383986256511,0.3741197884082794,-9.306978823708018,-27.0,0.152197265625,-27.0,-0.9929144993424416,-27.0,-0.04138151556253433,-0.024423630302771927,0.0,-26.99999999999858,0.37458363100886344,2700.0
28.0,0.0813830815255642,-0.9994489088654518,0.0,9.398721254614232,-23.353190631768303,0.0,4827565.0,1325.0,0.0,-27.0,0.0,-0.021751325065270066,0.0,-27.0,5300.0,-0.04166008839383721,-2.6432018622370377,0.5998184084892273,675.0,52,0.1693012804749126,-9.71380285486315,-9.562783826281246,0.0051513671875,0.0,0.5587865561246872,0.004755610460415482,-0.6357203806812322,95.5623106394007,0.37724435776472093,-9.397051056314574,-27.0,0.130615234375,-27.0,-0.9928758054971695,-27.0,-0.04138151556253433,-0.02431143866851926,0.0,-26.999999999999204,0.37458647787570953,2700.0
28.0,0.07799348365515471,-0.9994471728801727,0.0,9.201170352407749,-23.24439824110242,0.0,4918690.0,1350.0,0.0,-27.0,0.0,-0.020662721013650298,0.0,-27.0,5400.0,-0.04165872223675251,-2.5912571278211542,0.5998184084892273,675.0,53,0.16382949377943062,-9.522593726874941,-9.36920358485697,0.004638671875,0.0,0.561651585996151,0.004769203590694815,-0.6301718532045925,98.77527095956205,0.3800865702331066,-9.197719240501794,-27.0,0.102392578125,-27.0,-0.9932511761784554,-27.0,-0.04138151556253433,-0.024167865933850407,0.0,-26.999999999999716,0.374587744474411,2700.0
28.0,0.08006499949842691,-0.9994278609752655,0.0,9.375563837027261,-23.146596996607155,0.0,5009785.0,1375.0,0.0,-27.0,0.0,-0.0203625135589391,0.01,-27.0,5500.0,-0.04165775887668133,-2.6413889887946427,0.5998184084892273,675.0,54,0.1683827284628157,-9.688675383717749,-9.531596904360978,0.00478515625,0.0,0.5647879302501678,0.004921263002324849,-0.631833282952357,100.96765137508979,0.3830763213336468,-9.37284759642391,-27.0,0.1485595703125,-27.0,-0.9930217772722244,-27.0,-0.04138151556253433,-0.024147159419953823,0.0,-26.999999999999496,0.37458932399749756,2699.0
28.0,0.07686034478247165,-0.9994386494159698,0.0,9.327785821005046,-22.988659103446203,0.0,5100910.0,1400.0,0.0,-27.0,0.0,-0.02037344886921346,0.0,-27.0,5600.0,-0.04511388316750527,-2.668851974539939,0.5998184084892273,675.0,55,0.16690770449338882,-9.645881282143831,-9.494091049299614,0.00478515625,0.0,0.5685733735561371,0.004836289072409272,-0.6309936967751127,10.46322688753049,0.38503977209329604,-9.323650371343945,-26.999999999974854,0.149755859375,-27.0,-0.9933766558766365,-27.0,-0.04138151556253433,-0.02436025640927255,0.0,-23.204660305097303,0.3721617363393307,2700.0
28.0,0.0675314124673605,-0.9994666457176209,0.0,9.401139883780626,-23.087992082455326,0.0,5192035.0,1425.0,0.0,-27.0,0.0,-0.020286683365702628,0.0,-27.0,5700.0,-0.04255500501021743,-2.680975480892812,0.5998184084892273,675.0,56,0.17100920561587224,-9.722187045318595,-9.566366258920052,0.0041015625,0.0,0.5716639697551728,0.0046160481753759084,-0.6311837982771976,6.519576741655665,0.3866854101419449,-9.401311484814613,-26.999999836256567,0.140576171875,-27.0,-0.9944097220897674,-27.0,-0.04138151556253433,-0.02466048952192068,0.0,-23.282908623912352,0.37970670163631437,2700.0
28.0,0.06681529153138399,-0.9995033770799637,0.0,9.3192847207914,-23.334146674342684,0.0,5283160.0,1450.0,0.0,-27.0,0.0,-0.020887989597395063,0.0,-27.0,5800.0,-0.042987754382193086,-2.728163275905172,0.5998184084892273,675.0,57,0.16848962332649867,-9.644726268084792,-9.48985100487599,0.0031982421875,0.0,0.573986354470253,0.004326869209762663,-0.6370523591343954,7.032470540852108,0.38910815864801407,-9.315238807990017,-26.999999999986386,0.095556640625,-27.0,-0.9944890335202217,-27.0,-0.04138151556253433,-0.024817659659311174,0.0,-23.506072588259045,0.3862152129411697,2700.0
28.0,0.06482575861737132,-0.999510882794857,0.0,9.310376097295954,-23.25184237943613,0.0,5374285.0,1475.0,0.0,-27.0,0.0,-0.02036172114312649,0.0,-27.0,5900.0,-0.042327688075602055,-2.703352633342365,0.5998184084892273,675.0,58,0.1631072331582562,-9.644325288154509,-9.488994586576581,0.0033447265625,0.0,0.5760071858763695,0.004267844988498836,-0.6379331403404649,5.8133192225022485,0.39180481657385824,-9.306352978812914,-26.99999999994371,0.11943359375,-27.0,-0.99470936357975,-27.0,-0.04138151556253433,-0.025328241335228086,0.0,-23.439159802368597,0.39115663543343543,2700.0
28.0,0.06313977856189013,-0.9995418712496758,0.0,9.27555831583862,-23.32597865472942,0.0,5465410.0,1500.0,0.0,-27.0,0.0,-0.02122716624289751,0.0,-27.0,6000.0,-0.04218759192153811,-2.599193986760656,0.5998184084892273,675.0,59,0.1636413791673835,-9.610664266682713,-9.458857237841118,0.0037353515625,0.0,0.5783222436904907,0.004023867892101407,-0.635230929242607,6.002718682842145,0.39462740421295167,-9.272069253885093,-27.0,0.0955322265625,-27.0,-0.9948960602283478,-26.999999999999947,-0.04138151556253433,-0.02564658271148801,0.0,-23.46038307197022,0.3962827235460281,2700.0
28.0,0.06478966921567916,-0.9995194733142853,0.0,9.36253270364288,-23.306978630593136,0.0,5556535.0,1525.0,0.0,-27.0,0.0,-0.0207376214209944,0.0,-27.0,6100.0,-0.04261302035301924,-2.642855583718119,0.5998184084892273,675.0,60,0.1614476711110672,-9.691922858448532,-9.535321724303392,0.004296875,0.0,0.5805325284600258,0.004200116608990357,-0.6351337779025925,5.856164029645262,0.39723070040345193,-9.360386024971138,-26.999999996728235,0.1090087890625,-27.0,-0.9947133556008338,-27.0,-0.04138151556253433,-0.025582735799252986,0.0,-23.46206728503734,0.4011748142540455,2700.0
28.0,0.07101591546088457,-0.9995019257068634,0.0,9.200523647364673,-23.12469395348645,0.0,5647655.0,1550.0,0.0,-27.0,0.0,-0.0204881408251822,0.01,-27.0,6200.0,-0.042675234563648703,-2.6492017659864358,0.5998184084892273,675.0,61,0.16856788366538847,-9.525858663425709,-9.371501523473725,0.0037109375,0.0,0.5815632805228234,0.004338363191345706,-0.6295446699121385,6.43073474977003,0.40025152564048766,-9.19732946075275,-26.99947064223127,0.075244140625,-27.0,-0.994023859500885,-26.999999999999837,-0.04138151556253433,-0.025510558066889642,0.0,-23.275507496710286,0.4061411924660206,2700.0
28.0,0.08131501823663712,-0.9994765013456345,0.0,9.251928015991135,-23.075434701948165,0.0,5738780.0,1575.0,0.0,-27.0,0.0,-0.020243618451058865,0.0,-27.0,6300.0,-0.04297474343329668,-2.62449036601065,0.5998184084892273,675.0,62,0.16827156978106378,-9.562766383958254,-9.4061691672196,0.0045166015625,0.0,0.5843046680092812,0.004538509552367032,-0.6263888979872718,6.441753872017424,0.4033421091735363,-9.248871646740792,-26.999964209745823,0.109130859375,-27.0,-0.9928833484649658,-26.999997699695104,-0.04138151556253433,-0.025521563133224845,0.0,-23.20772816770008,0.40977949276566505,2700.0
28.0,0.08396481182426214,-0.9994900315999985,0.0,9.269222463926619,-22.81585108902691,0.0,5829905.0,1600.0,0.0,-27.0,0.0,-0.02017190186306834,0.0,-27.0,6400.0,-0.04354826034978032,-2.671108901526895,0.5998184084892273,675.0,63,0.16370211030015636,-9.569865742099662,-9.418665429138684,0.0035400390625,0.0,0.5867470234632493,0.0044319398177322,-0.6203681132741622,6.959866982408569,0.40659490451216695,-9.265816951858413,-26.999998999104008,0.100830078125,-27.0,-0.9925899043679237,-26.99999999952821,-0.04138151556253433,-0.025439051305875184,0.0,-22.993184350942443,0.41415851190686226,2700.0
28.0,0.08807791545987129,-0.9994713678956032,0.0,9.25982702347645,-22.671830235680854,0.0,5921030.0,1625.0,0.0,-27.0,0.0,-0.02127551711164415,0.0,-27.0,6500.0,-0.0444306418299675,-2.6776051380245915,0.5998184084892273,675.0,64,0.15649910641240597,-9.558185989347697,-9.405230337578882,0.0038330078125,0.0,0.588230749964714,0.004578838648740202,-0.6168844429401361,6.698312202042944,0.4097105339169502,-9.257004313105545,-26.98377435761059,0.0895263671875,-27.0,-0.9921344295144081,-26.995888171623324,-0.04138151556253433,-0.025201989710330962,0.0,-22.825914472720047,0.41838494017720224,2700.0
28.0,0.09782551135867834,-0.9993899464607239,0.0,9.266795719666874,-23.003094066967662,0.0,6012155.0,1650.0,0.0,-27.0,0.0,-0.020497242640703916,0.0,-27.0,6600.0,-0.045679394900798795,-2.639359203686399,0.5998184084892273,675.0,65,0.16452707795109883,-9.558950989370677,-9.404178695569081,0.006298828125,0.0,0.5905276492238045,0.005219651898369193,-0.6210022710321936,5.945558582150813,0.4124281220138073,-9.263163419915685,-26.998967700859566,0.115380859375,-27.0,-0.9910549655556679,-27.0,-0.04138151556253433,-0.025492662470787762,0.0,-23.15315894286267,0.4221174269914627,2700.0
28.0,0.1044102756306529,-0.9993840500712394,0.0,9.294532810011606,-23.202389794111458,0.0,6103280.0,1675.0,0.0,-27.0,0.0,-0.020261005125939847,0.0,-27.0,6700.0,-0.04663399178534746,-2.662943993330191,0.5998184084892273,675.0,66,0.17013147143215285,-9.594647340938717,-9.438500066461785,0.0054443359375,0.0,0.5950589388608932,0.005266013892833143,-0.6261826832542283,5.7106484608786685,0.4164245218038559,-9.28997337594711,-26.99810780466389,0.1388671875,-27.0,-0.9903257772326469,-27.0,-0.04138151556253433,-0.025819591153413056,0.0,-23.364017011302188,0.42604047656059263,2700.0
28.0,0.1113220838829875,-0.9993640199303627,0.0,9.339104784872527,-23.352254836879975,0.0,6194405.0,1700.0,0.0,-27.0,0.0,-0.020277162129059435,0.0,-27.0,6800.0,-0.04765237299725413,-2.6765038603174616,0.5998184084892273,675.0,67,0.17157875865365563,-9.641585336262981,-9.487533440188402,0.005908203125,0.0,0.5979353621602058,0.005423691566102206,-0.6261593639945204,5.973090351509672,0.4198143623769283,-9.335664151102964,-26.993355609393415,0.14697265625,-27.0,-0.9895603597164154,-27.0,-0.04138151556253433,-0.02599025461822748,0.0,-23.521680259966274,0.42930885404348373,2700.0
28.0,0.1130470123142004,-0.9993507087230682,0.0,9.260976585529232,-23.1697549348811,0.0,6285530.0,1725.0,0.0,-27.0,0.0,-0.019496722705662252,0.0,-27.0,6900.0,-0.04818309210240841,-2.6839268098810862,0.5998184084892273,675.0,68,0.1640115065510227,-9.560095478348837,-9.40652442197775,0.006103515625,0.0,0.6005903884768486,0.005528432631399483,-0.62060794127392,5.96797124179937,0.42213221564888953,-9.259059416666444,-26.991723701797767,0.1464599609375,-27.0,-0.9893693625926971,-27.0,-0.04138151556253433,-0.026069400319829582,0.0,-23.348266602113775,0.43181445747613906,2700.0
28.0,0.11851536575704813,-0.9993406981229782,0.0,9.189591481303289,-22.932151639328513,0.0,6376655.0,1750.0,0.0,-27.0,0.0,-0.019498831359669566,0.0,-27.0,7000.0,-0.0491856231354177,-2.6517502721409985,0.5998184084892273,675.0,69,0.16335984695504985,-9.481094451451222,-9.330978314028792,0.0052490234375,0.0,0.6042178645730019,0.005607206898275763,-0.6188659371699032,5.730496787560101,0.42523128241300584,-9.184142395528077,-26.97014264183129,0.13076171875,-27.0,-0.9887637928128242,-26.894616587594523,-0.04138151556253433,-0.026007159193977714,0.0,-23.111584334186066,0.43499005660414697,2700.0
28.0,0.11732004918158054,-0.9993540778756141,0.0,9.282339273821453,-22.931241372841193,0.0,6467780.0,1775.0,0.0,-27.0,0.0,-0.02023112610913813,0.0,-27.0,7100.0,-0.05052357977256179,-2.6243541658099274,0.5998184084892273,675.0,70,0.16751735868577397,-9.570523226786582,-9.418296590171064,0.004345703125,0.0,0.6080569580197335,0.005501918611116707,-0.6176424749777653,6.221432294504815,0.4281374715268612,-9.27842121757862,-26.988710048996836,0.1490478515625,-27.0,-0.9888961419463158,-27.0,-0.04138151556253433,-0.026626202231273054,0.0,-23.089433728372175,0.4383513547480106,2700.0
28.0,0.11117788814008236,-0.9993861749768257,0.0,9.299951067284063,-22.585632121515577,0.0,6558905.0,1800.0,0.0,-27.0,0.0,-0.020504701789468525,0.0,-27.0,7200.0,-0.05163498753681779,-2.6159548754218123,0.5998184084892273,675.0,71,0.159857657892266,-9.594160587277027,-9.43594825599082,0.0053955078125,0.0,0.6111388564109802,0.005249302624724806,-0.6156180286343442,5.981527473973965,0.4306810714304447,-9.296597436668744,-26.95452563491995,0.11484375,-27.0,-0.9895763292908668,-27.0,-0.04138151556253433,-0.026393341831862926,0.0,-22.72767948385126,0.44113148748874664,2700.0
28.0,0.10630537308752537,-0.9994442611932755,0.0,9.389057806248292,-22.461588548870118,0.0,6650030.0,1825.0,0.0,-27.0,0.0,-0.02030055704526603,0.0,-27.0,7300.0,-0.0527280448935926,-2.6275704824638524,0.5998184084892273,675.0,72,0.16782335942306398,-9.6709065236328,-9.517023736938787,0.0052490234375,0.0,0.6149102091789246,0.004792151553556323,-0.6181594054036396,7.062918475127856,0.43255185410380365,-9.385809594138777,-26.989383281170404,0.1027099609375,-27.0,-0.9901159092783928,-26.99999999970147,-0.04138151556253433,-0.026509725162759422,0.0,-22.615080545687526,0.4452615141868591,2700.0
28.0,0.10460160989314318,-0.9994493409991264,0.0,9.268152600083516,-22.86701584430267,0.0,6741155.0,1850.0,0.0,-27.0,0.0,-0.019907310232520105,0.0,-27.0,7400.0,-0.053300471417605876,-2.598888402896409,0.5998184084892273,675.0,73,0.17205998514618834,-9.568408664065043,-9.414556480365912,0.0058837890625,0.0,0.6173979565501213,0.004752074007410556,-0.6229214209819475,6.702494409124446,0.4341880641877651,-9.265968246958352,-26.97731370746232,0.1365966796875,-27.0,-0.9903045937418937,-26.99999999999986,-0.04138151556253433,-0.02632874371483922,0.0,-22.998596441111903,0.44964052811264993,2700.0
28.0,0.10153677742928266,-0.9994947537779808,0.0,9.306849272669856,-23.304202744915468,0.0,6832280.0,1875.0,0.0,-27.0,0.0,-0.018822920508682728,0.0,-27.0,7500.0,-0.05363484714180231,-2.7163072371029555,0.5998184084892273,675.0,74,0.16898388901192649,-9.617779191010147,-9.465534098378669,0.0052978515625,0.0,0.6194532155990601,0.00439474901650101,-0.6313556226992659,6.360791929747083,0.43609519302845,-9.303000043512856,-26.978247565804867,0.0866943359375,-27.0,-0.9906439900398254,-26.999999999992962,-0.04138151556253433,-0.027233033208176494,0.0,-23.467380035197124,0.4535594418644905,2700.0
28.0,0.0999959172680974,-0.999502569437027,0.0,9.327579619170333,-23.321068402329665,0.0,6923405.0,1900.0,0.0,-27.0,0.0,-0.018526053382083775,0.0,-27.0,7600.0,-0.054506377410143615,-2.689891156235899,0.5998184084892273,675.0,75,0.1784546500094682,-9.635584014809325,-9.48205660492619,0.0048095703125,0.0,0.6206122756004333,0.004333262360887602,-0.6352760330511955,6.507777818078743,0.43815495893359185,-9.321653335365568,-26.978254920684282,0.1303466796875,-27.0,-0.9908146187663078,-26.999999999999428,-0.04138151556253433,-0.02792422561906278,0.0,-23.480405016883076,0.4572105288505554,2700.0
28.0,0.09946915321052074,-0.9995350807905197,0.0,9.223642710726224,-23.433211648951282,0.0,7014530.0,1925.0,0.0,-27.0,0.0,-0.018156794272363184,0.0,-27.0,7700.0,-0.05393816288560629,-2.68963108254502,0.5998184084892273,675.0,76,0.17466649782448856,-9.540470635767658,-9.389348252042073,0.004248046875,0.0,0.6217744171619415,0.004077407123986632,-0.6361996876217745,6.198178393122968,0.4395075708627701,-9.220557951519423,-26.9997343754132,0.083203125,-27.0,-0.9908729523420334,-27.0,-0.04138151556253433,-0.028300707368180154,0.0,-23.587543251016903,0.46083945855498315,2700.0
28.0,0.09727033711969853,-0.9995440065860748,0.0,9.309017513325363,-23.438340881735815,0.0,7105655.0,1950.0,0.0,-27.0,0.0,-0.018692757561802865,0.0,-27.0,7800.0,-0.05364242680370808,-2.7206001590795497,0.5998184084892273,675.0,77,0.16553004879693956,-9.627894014598295,-9.476744993567976,0.0033203125,0.0,0.6225701972842217,0.004007053532404825,-0.6371906919972389,6.640365236803007,0.4405439756810665,-9.304501657133143,-26.973702175310276,0.087939453125,-27.0,-0.9911164566874504,-27.0,-0.04138151556253433,-0.028071872889995575,0.0,-23.617564715342223,0.46431752368807794,2700.0
28.0,0.0993051091209054,-0.999529555439949,0.0,9.242475201840449,-23.25723572137709,0.0,7196780.0,1975.0,0.0,-27.0,0.0,-0.01923114601522684,0.0,-27.0,7900.0,-0.05335772288963199,-2.6564202916895736,0.5998184084892273,675.0,78,0.17385446751316874,-9.5594833932869,-9.406983074178417,0.0026611328125,0.0,0.6240751892328262,0.0041209119372069836,-0.6314741847643746,5.48011922626722,0.4426925003528595,-9.240060750875841,-26.987234309939087,0.1144287109375,-27.0,-0.9908911198377609,-27.0,-0.04138151556253433,-0.027687818743288517,0.0,-23.423212578905105,0.4666648395359516,2700.0
28.0,0.10318399183452129,-0.9995309501886368,0.0,9.297708475418336,-23.067183509837083,0.0,7287905.0,2000.0,0.0,-27.0,0.0,-0.020088830264285207,0.0,-27.0,8000.0,-0.053994841128587726,-2.6659808731183148,0.5998184084892273,675.0,79,0.16699641472932214,-9.624654763801436,-9.472739370369169,0.0035888671875,0.0,0.625836917757988,0.004109855595743284,-0.6341478757509321,5.561268255030937,0.4450704112648964,-9.296031205023022,-26.960255563369742,0.0837646484375,-27.0,-0.9904615864157676,-26.999730955421658,-0.04138151556253433,-0.028112333128228785,0.0,-23.246733169550033,0.46972639486193657,2700.0
28.0,0.10017114039510489,-0.9995429456233978,0.0,9.368925192439354,-23.018125075192906,0.0,7379030.0,2025.0,0.0,-27.0,0.0,-0.020103627163916827,0.0,-27.0,8100.0,-0.05527982674539089,-2.704131911130389,0.5998184084892273,675.0,80,0.16370393761677066,-9.683752248456816,-9.529879572735396,0.0034423828125,0.0,0.6273788437247276,0.004015500727109611,-0.6319352967133455,5.46349184418978,0.4473003357648849,-9.364470533401246,-26.953661222353553,0.08759765625,-27.0,-0.9907952308654785,-27.0,-0.04138151556253433,-0.02834950969554484,0.0,-23.210065459899333,0.4736155360937119,2700.0
28.0,0.10697271544486284,-0.9995225131511688,0.0,9.316405500988257,-22.99445459507739,0.0,7470155.0,2050.0,0.0,-27.0,0.0,-0.02116212248802185,0.0,-27.0,8200.0,-0.055407194700092074,-2.7114692435148755,0.5998184084892273,675.0,81,0.16218132852196368,-9.631359202892423,-9.47737555557585,0.0047607421875,0.0,0.6307281032204628,0.004176339897094294,-0.6302273067474744,5.436692964734877,0.4499343499541283,-9.31449000930957,-26.955544151885757,0.1064453125,-27.0,-0.9900420159101486,-27.0,-0.04138151556253433,-0.029105735803022982,0.0,-23.195259096686673,0.47766185700893404,2700.0
28.0,0.10982079487293958,-0.9995133325457572,0.0,9.35365784330132,-23.094653822399096,0.0,7561280.0,2075.0,0.0,-27.0,0.0,-0.02123510749079287,0.0,-27.0,8300.0,-0.05686843264847994,-2.6766552872428293,0.5998184084892273,675.0,82,0.16663764200639736,-9.658891901354622,-9.507157830707545,0.0043212890625,0.0,0.633855339884758,0.004248550831107423,-0.6312137824821548,6.680577886648943,0.4528598144650459,-9.347622085474919,-26.99730269291778,0.0877197265625,-27.0,-0.9897266119718552,-26.999999977887555,-0.04138151556253433,-0.029349073488265275,0.0,-23.272384558398677,0.48143097683787345,2700.0
28.0,0.11141756735742092,-0.9995161786675453,0.0,9.307569418700735,-23.3128273891172,0.0,7652405.0,2100.0,0.0,-27.0,0.0,-0.022666432010009886,0.0,-27.0,8400.0,-0.05774158025160432,-2.704260006304685,0.5998184084892273,675.0,83,0.15781218784302747,-9.619257359054414,-9.466769526758647,0.004638671875,0.0,0.6370003342628479,0.004226111201569438,-0.6339610771654407,6.087734515250654,0.4557025745511055,-9.300688530373002,-26.946582816594326,0.0949951171875,-27.0,-0.9895497918128967,-26.98470485248769,-0.04138151556253433,-0.030361654283478857,0.0,-23.4952073705545,0.4848046742379665,2700.0
28.0,0.11162236444652081,-0.9994912207126617,0.0,9.370348141860683,-23.206036808848033,0.0,7743530.0,2125.0,0.0,-27.0,0.0,-0.022632441064342857,0.0,-27.0,8500.0,-0.058372149243950844,-2.6594850510355172,0.5998184084892273,675.0,84,0.16880422541333143,-9.682906378635371,-9.525613244685962,0.00537109375,0.0,0.6401008665561676,0.004422642890131101,-0.6335153814019577,6.008704189040133,0.45804487243294717,-9.366807083876001,-26.88601146987537,0.1005859375,-27.0,-0.9895271107554435,-26.97940318811255,-0.04138151556253433,-0.029757225513458253,0.0,-23.359477770057314,0.48721447959542274,2700.0
28.0,0.12157888263463974,-0.9994486525654793,0.0,9.35671359033812,-23.43588957982011,0.0,7834655.0,2150.0,0.0,-27.0,0.0,-0.022537709027528764,0.0,-27.0,8600.0,-0.05903102764859795,-2.6722831345075972,0.5998184084892273,675.0,85,0.17451997058699337,-9.662056030320553,-9.51071096673017,0.0052001953125,0.0,0.6425995975732803,0.004757581604644656,-0.6375513727689395,5.791628619650934,0.46095039173960684,-9.35245794048792,-26.918870520946932,0.1372314453125,-27.0,-0.9884245321154594,-26.938712779506222,-0.04138151556253433,-0.030315932631492615,0.0,-23.603363990063386,0.4899351865053177,2700.0
28.0,0.12653353605419398,-0.9994333431124687,0.0,9.31765043848955,-23.390952362705093,0.0,7925780.0,2175.0,0.0,-27.0,0.0,-0.02118860078044236,0.0,-27.0,8700.0,-0.05989812910556793,-2.72812130801758,0.5998184084892273,675.0,86,0.1705385310426641,-9.628593169658199,-9.47801996649319,0.0052001953125,0.0,0.6441081821918487,0.004878096270840615,-0.6344164412152168,6.109287448313763,0.46412546262145044,-9.31560969995039,-26.867693805669806,0.1375244140625,-27.0,-0.987875871360302,-26.99707426767117,-0.04138151556253433,-0.030480542732402683,0.0,-23.56659077347291,0.4931871831417084,2700.0
28.0,0.12917306628078223,-0.9994306892156601,0.0,9.3577029908765,-23.21636732343695,0.0,8016905.0,2200.0,0.0,-27.0,0.0,-0.02173643670976162,0.0,-27.0,8800.0,-0.06014921069145203,-2.7189112687494346,0.5998184084892273,675.0,87,0.16715148265620783,-9.659215661270395,-9.503642559229883,0.0051025390625,0.0,0.645313972234726,0.004899029643274844,-0.6271647996014508,6.073484162993202,0.4661788731813431,-9.353301334218703,-26.84496220616783,0.1462158203125,-27.0,-0.98758355230093,-26.954900841633783,-0.04138151556253433,-0.03097916110418737,0.0,-23.390363846192916,0.4975184604525566,2700.0
28.0,0.1359338952228427,-0.9994322821497917,0.0,9.373391366503906,-23.292355687687028,0.0,8108030.0,2225.0,0.0,-27.0,0.0,-0.02209916734136641,0.0,-27.0,8900.0,-0.060576492361724375,-2.6237106681557636,0.5998184084892273,675.0,88,0.16507771268539875,-9.66785613763686,-9.509594415153657,0.006298828125,0.0,0.6472140476107597,0.0048864483716897665,-0.6275314100916148,5.010812823357542,0.46828521266579626,-9.369361446436693,-26.87159003706002,0.1147705078125,-27.0,-0.9868348553776741,-26.938000770412906,-0.04138151556253433,-0.03230712348595262,0.0,-23.43598322245948,0.5009251236915588,2700.0
28.0,0.13861280102282764,-0.9994434863328934,0.0,9.276097039633399,-23.276032009829112,0.0,8199155.0,2250.0,0.0,-27.0,0.0,-0.021746549196541308,0.0,-27.0,9000.0,-0.06089930823072791,-2.7029944121728477,0.5998184084892273,675.0,89,0.1721889233262905,-9.572884924936456,-9.420337352695622,0.00673828125,0.0,0.6487821608781814,0.004798287758603692,-0.6271313786193786,5.928424787503327,0.4705271765589714,-9.271274177903498,-26.802311772758806,0.1098876953125,-27.0,-0.9865382149815559,-26.89563551637372,-0.04138151556253433,-0.03180275782942772,0.0,-23.423465308307506,0.5046890616416931,2700.0
28.0,0.132963103428483,-0.9994437679648399,0.0,9.342956931647942,-23.315953803254626,0.0,8290280.0,2275.0,0.0,-27.0,0.0,-0.0223819425329566,0.0,-27.0,9100.0,-0.06162807997316122,-2.6951124946608616,0.5998184084892273,675.0,90,0.165560166596947,-9.642453409838385,-9.487454887034286,0.005859375,0.0,0.650421042740345,0.00479606845183298,-0.628321634565873,6.1425511750900785,0.4726525589823723,-9.339354268077901,-26.771929302442672,0.1322509765625,-27.0,-0.9871638521552086,-26.74384042125235,-0.04138151556253433,-0.03230570899322629,0.0,-23.451377956888912,0.5078146129846572,2700.0
28.0,0.13526559732854365,-0.9994356915354728,0.0,9.402056496835275,-23.34522868245248,0.0,8381405.0,2300.0,0.0,-27.0,0.0,-0.022413405915722252,0.0,-27.0,9200.0,-0.06262508518993855,-2.7237413777649637,0.5998184084892273,675.0,91,0.1767619561683182,-9.703230337697647,-9.548525694376224,0.0069091796875,0.0,0.6526140168309211,0.004859585885424167,-0.6342888553332159,5.658052327828726,0.4747088268399239,-9.396969625709758,-26.657416037565106,0.1091796875,-27.0,-0.9869088739156723,-26.425287584787466,-0.04138151556253433,-0.031878802180290225,0.0,-23.504597206627384,0.5113272994756699,2700.0
28.0,0.13065972942858933,-0.9994530946016311,0.0,9.205713059080674,-23.445699456799254,0.0,8472530.0,2325.0,0.0,-27.0,0.0,-0.021764769172295927,0.0,-27.0,9300.0,-0.06337895654141903,-2.784806390392987,0.5998184084892273,675.0,92,0.16964452799385912,-9.512976947663237,-9.362048275216058,0.00625,0.0,0.6555305033922195,0.004722659441176802,-0.6323889079096261,5.126827382079236,0.47600380778312684,-9.202807115584,-26.732753590579794,0.1208740234375,-27.0,-0.9874189332127571,-26.426416631670964,-0.04138151556253433,-0.031835004407912496,0.0,-23.647333013570442,0.5127696499228478,2700.0
28.0,0.13807875476777554,-0.9994390681385994,0.0,9.24425846262829,-23.549432782187317,0.0,8563655.0,2350.0,0.0,-27.0,0.0,-0.020960620371624827,0.0,-27.0,9400.0,-0.06394536532461643,-2.7283326845310514,0.5998184084892273,675.0,93,0.1651090053047241,-9.558789795510332,-9.405975522267786,0.007421875,0.0,0.6586242705583573,0.004833011759910732,-0.6366517599028156,5.460587539215663,0.4778578050434589,-9.238761830564197,-26.4707814238609,0.112353515625,-27.0,-0.9865973368287086,-26.896510267065164,-0.04138151556253433,-0.032652299478650094,0.0,-23.722749616578,0.5150045782327652,2700.0
28.0,0.1462384108453989,-0.9994059383869172,0.0,9.337519005910586,-23.303781835603747,0.0,8654780.0,2375.0,0.0,-27.0,0.0,-0.019430529372766615,0.0,-27.0,9500.0,-0.06458877250552178,-2.6545166988849815,0.5998184084892273,675.0,94,0.17533447868210433,-9.649491751104659,-9.491909608455966,0.0082275390625,0.0,0.6608042895793915,0.005093735689297318,-0.6366984097257955,4.241474789806096,0.4793967954814434,-9.332659286695579,-26.524983462916225,0.1504150390625,-27.0,-0.9856937497854232,-26.499035158564823,-0.04138151556253433,-0.03273788010701537,0.0,-23.4333621650347,0.5165227308869362,2700.0
