ReemS3/reg_curious_hac/data/d4a6886/AntReacherEnv-v0/alg:chac|eta:0.5|fw:1|fwhidsiz:256,256,256|nlev:2|reg:True|rolbatsiz:1|timsca:27,27|101/progress.csv
train_1/mu_loss,test_1/subgoal_succ_rate,train_0/next_q,train_1/fw_loss,train_1/q_grads_std,train_1/mu_grads,train_1/fw_bonus,train_1/avg_q,train_1/n_subgoals,train_0/mu_loss,train_1/current_q,epoch,train_0/q_grads_std,train_1/target_q,policy/steps,train_0/fw_bonus,test/episodes,train_0/target_q,train_1/reward,train_1/subgoal_succ_rate,train_1/reward_-0.0_frac,test/success_rate,train_0/mu_grads,train/success_rate,test_1/n_subgoals,train_1/q_grads,train_1/q_loss,train_1/reward_-27.0_frac,train_0/q_grads,train_1/mu_grads_std,train_0/q_loss,test_1/avg_q,train_1/next_q,train_0/reward_-1.0_frac,train_0/fw_loss,train_0/reward,train_0/reward_-0.0_frac,train_0/mu_grads_std,train_0/current_q,train_1/reward_-1.0_frac,test_0/avg_q,train/episodes,train_0/avg_q
5.99220025926172,0.0,-1.4005471576042094,0.06503210151568055,0.10842520222067834,-0.026278658397495748,-0.9945215493440628,-7.3542250708914665,2700.0,1.4086149412559306,-7.91587787528537,0,0.11860734820365906,-7.8992017512914945,91125.0,-0.9965754583477974,25.0,-1.6915956132414025,-2.0761181951609613,0.0,0.0,0.0,-0.014034394710324704,0.0,675.0,0.0025062220520339906,2.4627300858123276,0.0,-0.004129016911610961,0.14455009512603284,0.5425063342028432,-11.48327708975845,-7.64822180640726,0.0005859375,0.0320427009370178,-0.7549649776919978,0.0,0.15338456854224206,-1.5861172928479117,0.0057861328125,-5.052986065300981,100.0,-5.012121845659217
6.304968998151423,0.0,-9.238368824273314,0.07930857297033071,0.12988534308969973,-0.04539453536272049,-0.9929600834846497,-12.78159104227637,2700.0,9.253700878266418,-9.086331843643036,1,0.14270802550017833,-9.046855392118156,182250.0,-0.9982167318463325,50.0,-9.356094122751614,-2.1252398085111053,0.0,0.0,0.0,-0.02148301820270717,0.0,675.0,-0.011024166294373573,1.6949262912191394,0.0,-0.004227137740235776,0.17858834564685822,0.4354023635049777,-12.620871795233521,-8.819597336580715,0.004541015625,0.01686308770440519,-0.7539911778651003,0.0,0.19083036109805107,-9.278342916503846,0.00361328125,-26.999995552495168,200.0,-13.154222078477659
6.156422304188983,0.0,-9.200047282158213,0.08432532604783774,0.14453167840838432,-0.04628324415534735,-0.992411395907402,-13.36381367995415,2700.0,9.196449359417606,-8.515081158733555,2,0.16189654245972634,-8.501560440354856,273375.0,-0.9985987693071365,75.0,-9.359013174578305,-2.115468389275338,0.0,0.0,0.0,-0.022284635109826922,0.0,675.0,-0.014007216738536953,0.7624749463940942,0.0,-0.004587202589027584,0.21058058068156243,0.3570589008839593,-13.154066569731947,-8.130295002516874,0.009423828125,0.013329700566828251,-0.7502759485301794,0.0,0.21477207504212856,-9.2127705980289,0.00263671875,-25.78873725613227,300.0,-23.800369765222015
5.935034982286066,0.0,-9.333150499478126,0.0920317279174924,0.15819815695285797,-0.05131389247253537,-0.9915685281157494,-13.739852661654623,2700.0,9.330289898638114,-8.053141492692099,3,0.17193811386823654,-8.096168338133984,364500.0,-0.998706167936325,100.0,-9.525667194989234,-2.095674394749949,0.0,0.0,0.0,-0.01952634765766561,0.0,675.0,-0.01906187692657113,0.8850363948421176,0.0,-0.00579804580193013,0.23190404437482356,0.31993951055866965,-12.706297934855982,-7.564501485298581,0.0072998046875,0.012336471606977284,-0.7496948782965773,0.0,0.22919817566871642,-9.390314239821265,0.0025390625,-26.958403274537517,400.0,-23.29612498335379
5.848391731887764,0.0,-9.553673339932278,0.09886382557451726,0.17531764768064023,-0.05263277729973197,-0.9908212676644326,-13.6630593523209,2700.0,9.552016788366926,-7.829835058500907,4,0.17488648369908333,-7.83224779655375,455615.0,-0.998863185942173,125.0,-9.761171254104257,-2.0928593648801326,0.00037037037037037035,0.0,0.0,-0.019033067300915717,0.0,675.0,-0.02862542779184878,0.5073370621368646,0.0,-0.005883206706494093,0.24298993982374667,0.38871726482679225,-13.87697554421484,-7.251979364225514,0.020556640625,0.010884128254838287,-0.7515067928019562,0.0,0.2600613057613373,-9.60593608760853,0.0022705078125,-26.637936250991963,500.0,-25.77832779207016
5.823135233445975,0.0,-9.445197318323242,0.10558359790593386,0.19150602184236049,-0.0523783047683537,-0.9900862976908684,-13.965607513051687,2700.0,9.445796626914802,-7.81210482986595,5,0.1789074070751667,-7.82221386358264,546714.0,-0.9989254981279373,150.0,-9.666642228208968,-2.144383974037919,0.00037037037037037035,0.0,0.0,-0.018788445740938187,0.0,675.0,-0.03069950742647052,0.4219165023651607,0.0,-0.006983624340500682,0.2541673518717289,0.3103957264613755,-13.479677602183976,-7.251623019817369,0.035205078125,0.010307940538041294,-0.7467283722158754,0.0,0.2775484211742878,-9.516212335405575,0.002685546875,-26.920643410434387,600.0,-26.862405367426906
5.4123984225018855,0.0,-9.433554704689286,0.10618862099945545,0.20518625974655152,-0.05518177449703217,-0.9900201201438904,-13.817613978410348,2700.0,9.433071558448571,-9.506445606031985,6,0.18464600704610348,-9.568029394375163,637839.0,-0.9989495977759362,175.0,-9.677356254483238,-2.111208797524887,0.0,0.0,0.0,-0.018949497118592264,0.0,675.0,-0.041450966708362104,3.2281354734506538,0.0,-0.006340374262072146,0.2593634434044361,0.29142309328149957,-11.208782727397963,-9.349395743170868,0.0467041015625,0.010085065150633454,-0.7498043860003236,0.0,0.28393415436148645,-9.529265859102011,0.0027099609375,-26.234666950096322,700.0,-26.65566946629518
5.513651356613974,0.0,-9.400477389468254,0.1040443830192089,0.21628154814243317,-0.05472089434042573,-0.990254656970501,-13.792542069531178,2700.0,9.400822527807447,-8.070994234169735,7,0.19449688196182252,-8.080271092295195,728964.0,-0.9989383831620217,200.0,-9.635578462520774,-2.12450965199605,0.0,0.0,0.0,-0.019993544928729533,0.0,675.0,-0.04194987704977393,0.587144865771883,0.0,-0.005068431177642196,0.26476135179400445,0.2832971311801246,-13.33849383046516,-7.555264636553889,0.0328125,0.010188776045106351,-0.7506654782839177,0.0,0.2911834686994553,-9.491867330337744,0.0021728515625,-26.996375634028688,800.0,-25.920894573777918
5.663899894250688,0.0,-9.545717361181776,0.10428291503340006,0.22561900541186333,-0.055369903519749644,-0.9902285620570183,-13.97910975899716,2700.0,9.545211985491258,-8.800092962716965,8,0.201025103777647,-8.816923654930866,820089.0,-0.9989316746592521,225.0,-9.761677068370833,-2.1060273694238276,0.0,0.0,0.0,-0.02229467947036028,0.0,675.0,-0.04692673645913601,0.9766328279557062,0.0,-0.005799438792746514,0.27218544855713844,0.3066695216258292,-14.078884828726974,-8.363163609835762,0.02216796875,0.010250676632858812,-0.7514922100999684,0.0,0.30018370151519774,-9.625433365691727,0.0016845703125,-26.992016666650827,900.0,-26.699774165481276
6.011654319271506,0.0,-9.397660556850585,0.1013040479272604,0.23756188824772834,-0.05757259931415319,-0.9905543819069862,-14.025059440954625,2700.0,9.3968558891455,-9.06220094513864,9,0.2074868131428957,-9.059975115187655,911211.0,-0.998982948064804,250.0,-9.6205782903574,-2.1100354878537475,0.0,0.0,0.0,-0.02425819877535105,0.01,675.0,-0.048926559276878834,0.8810837209970366,0.0,-0.005212613346520812,0.27471868619322776,0.2834542307063207,-13.758613649152583,-8.679254759885664,0.0414794921875,0.009776625130325556,-0.7484538731703652,0.0,0.30976256653666495,-9.486827917768206,0.001220703125,-26.999998386613157,1000.0,-26.972577595612666
4.011652105372699,0.0,-9.553954210808204,0.10270975809544325,0.24245042204856873,-0.06118894135579467,-0.9904006257653236,-13.310657439605162,2700.0,9.559966202595595,-5.028256685964731,10,0.21528648883104323,-5.382119256750287,1002336.0,-0.998957522213459,275.0,-9.757932674999282,-2.11323009912885,0.0,0.0,0.0,-0.02492635096423328,0.0,675.0,-0.049688890017569064,1.7147862714738715,0.0,-0.007661897328216582,0.28011215254664423,0.34032373073185906,-8.938627396450284,-4.272416198180023,0.026611328125,0.010011671483516693,-0.7501867716142442,0.0,0.32259825319051744,-9.615176472585388,0.0010986328125,-26.9972297972908,1100.0,-26.623012949446267
6.643223838521183,0.0,-9.633649010383973,0.10134335365146399,0.24387888461351395,-0.06070450423285365,-0.9905500754714012,-13.382359910237277,2700.0,9.633252216255016,-9.61823022676738,11,0.22196823805570604,-9.621042632868932,1092574.0,-0.9989988133311272,300.0,-9.872956431696446,-2.1078360730221903,0.014444444444444444,0.0,0.0,-0.026916521694511177,0.0,675.0,-0.04991962164640427,1.4813835640250872,0.0,-0.006703481427393854,0.2873482510447502,0.36364291443771857,-13.82670972914745,-9.318746941764749,0.059130859375,0.009629798005335033,-0.7529295840904524,0.0,0.3309340350329876,-9.692721927269606,0.001220703125,-25.33383644860139,1200.0,-24.88507118772647
5.604988208492569,0.0,-9.425811893191726,0.09951295685023069,0.24709734953939916,-0.062213454768061636,-0.9907502576708793,-14.038413516371241,2700.0,9.425710583687776,-7.404268711046521,12,0.2248984720557928,-7.7086832386765565,1183510.0,-0.9990171730518341,325.0,-9.645349033325328,-2.1071671282101305,0.004814814814814815,0.0,0.0,-0.028958668978884817,0.0,675.0,-0.05059330994263291,1.7901328171717856,0.0,-0.007010598655324429,0.2941277541220188,0.33968011242135365,-13.526167737601535,-7.19009686057768,0.0406982421875,0.009460108238272369,-0.7509856330449111,0.0,0.34176974669098853,-9.505228720995538,0.0010498046875,-25.662560989568018,1300.0,-25.61511100953073
6.55115281613257,0.0,-9.351036065953272,0.1032627260312438,0.2511068589985371,-0.06399311888962984,-0.9903401419520378,-14.259626423961755,2700.0,9.368107934078427,-10.563318375267121,13,0.22941202633082866,-10.599694710351638,1274587.0,-0.9989996537566185,350.0,-9.530166534344854,-2.1217936087952696,0.0007407407407407407,0.0,0.0,-0.032795894984155895,0.0,675.0,-0.0473732384853065,1.7984712487067256,0.0,-0.006613629451021552,0.2961264573037624,0.46014888307061785,-13.762424285820348,-10.678289593465484,0.0384521484375,0.009622038551606238,-0.7547854725402431,0.0,0.3502553038299084,-9.424266804940162,0.001416015625,-26.92036709031148,1400.0,-26.56372598246526
6.049012313686367,0.0,-9.466833997687583,0.10104148089885712,0.2523297518491745,-0.06362306009978055,-0.9905830949544907,-14.112056356319943,2700.0,9.472032711695169,-9.267583067818148,14,0.23344216421246528,-9.262740993138067,1365712.0,-0.9989997819066048,375.0,-9.690227303238895,-2.12339213183659,0.0,0.0,0.0,-0.03351273415610194,0.0,675.0,-0.04665928585454822,1.296897337346602,0.0,-0.0067653591511771085,0.3020305514335632,0.35776379795478674,-12.621044705520054,-8.956326189110735,0.0588623046875,0.009620841895230114,-0.7580326075541961,0.0,0.35996642112731936,-9.552860900807973,0.001513671875,-26.99772412666764,1500.0,-26.684644864072535
5.90103657167016,0.0,-9.545242788110134,0.10001573525369167,0.2568890519440174,-0.06295693460851907,-0.990695284307003,-13.735109125869661,2700.0,9.550159917308568,-9.426727251357704,15,0.24016491137444973,-9.444707125653293,1456837.0,-0.9989934027194977,400.0,-9.755265365980245,-2.1315781097502624,0.0,0.0,0.0,-0.03039588490501046,0.0,675.0,-0.04684571530669927,1.6213250050986125,0.0,-0.005210213758982718,0.3126705139875412,0.4166626812665353,-12.987816486363617,-9.181714824270827,0.044384765625,0.009679744951426983,-0.7605806926098012,0.0,0.37292083352804184,-9.627069865108325,0.0011474609375,-26.977536026649986,1600.0,-26.839530380685726
6.937347267906714,0.0,-9.573946276039583,0.09564495105296374,0.26368706300854683,-0.06431911829859019,-0.9911733239889144,-13.903086917281058,2700.0,9.58149723349608,-10.005903171751708,16,0.24367072619497776,-9.998918567286584,1547962.0,-0.9990499690175056,425.0,-9.795948132317822,-2.091558343076758,0.0,0.0,0.0,-0.033623731788247825,0.0,675.0,-0.049835398141294715,2.23043558990745,0.0,-0.005153939337469637,0.3144785687327385,0.36511501263641666,-14.949874758367164,-9.886953959079264,0.089990234375,0.009156762482598424,-0.7621470518388378,0.0,0.38177543580532075,-9.654720256072894,0.0016845703125,-26.99842637487234,1700.0,-26.98860045705703
7.423585985782276,0.0,-9.865304069678638,0.0945411253720522,0.2637503981590271,-0.0635991657152772,-0.9912940561771393,-14.711819200637983,2700.0,9.87379519005191,-9.788997439865247,17,0.2508533962070942,-9.740531255746443,1639087.0,-0.999018007516861,450.0,-10.057772350861999,-2.110637262398086,0.0,0.0,0.0,-0.03256903877481818,0.0,675.0,-0.04874216774478555,1.523521492939005,0.0,-0.004952410282567143,0.3216504126787186,0.5075019708662852,-13.649792484203008,-9.621476242837502,0.0701416015625,0.009452330460771919,-0.7654635924845934,0.0,0.3945888005197048,-9.901490076543677,0.0019775390625,-26.92831527944427,1800.0,-26.908297036688435
6.597742320110146,0.0,-9.94087786730653,0.10082533732056617,0.2666598066687584,-0.06097168866544962,-0.9906067222356796,-14.045451004875906,2700.0,9.94850163096741,-10.346980105472827,18,0.25422787144780157,-10.32747008862684,1730212.0,-0.9989640220999718,475.0,-10.169468130648358,-2.112942526543338,0.0,0.0,0.0,-0.029638563096523286,0.0,675.0,-0.05092141916975379,1.5377005862782407,0.0,-0.00535513071808964,0.33041265308856965,0.46235282967347613,-13.056030931577526,-10.086601234800868,0.060546875,0.009951685043051838,-0.7726021241403942,0.0,0.4046840950846672,-10.01007645957219,0.0015869140625,-26.99732371551139,1900.0,-26.92596802168671
6.243174340782015,0.0,-9.936422916378186,0.09644377864897251,0.2695181183516979,-0.06047877604141831,-0.9910859555006027,-13.810046216290301,2700.0,9.93982473508804,-9.368426653464683,19,0.2571793906390667,-9.355741400227071,1821196.0,-0.9990081712603569,500.0,-10.170848938054178,-2.06177832932226,0.0022222222222222222,0.0,0.0,-0.03092317469418049,0.0,675.0,-0.05162540366873145,1.1882893381179485,0.0,-0.005000864109024406,0.33262980431318284,0.4597683139168992,-13.275799332440279,-9.047346118330571,0.0774169921875,0.00954323667101562,-0.7703659045459063,0.0,0.41136572808027266,-10.010673056315127,0.0018798828125,-26.992643841154585,2000.0,-26.878540154029302
5.8332983394674525,0.0,-9.867806728437916,0.09882853496819735,0.27314490601420405,-0.05996587574481964,-0.9908251166343689,-13.919918175855683,2700.0,9.881657288665698,-9.211694427038134,20,0.26121543943881986,-9.225875562636944,1912184.0,-0.9990335792303086,525.0,-10.07347739897396,-2.065468716235773,0.0025925925925925925,0.0,0.0,-0.03169138636440039,0.0,675.0,-0.054244814161211255,0.8329305084479273,0.0,-0.004013638338074088,0.3388960547745228,0.5428305949066459,-13.19137602048423,-8.789203884665067,0.0895751953125,0.009308280097320676,-0.7715871028820402,0.0,0.42230005413293836,-9.925382595452485,0.002001953125,-24.560493219467098,2100.0,-25.301883753474804
7.8608801206654615,0.0,-9.952197758240393,0.11709845196455718,0.2764835447072983,-0.06306544784456491,-0.9888268932700157,-13.516206826411901,2700.0,9.956604151459223,-11.660450621145015,21,0.26903700828552246,-11.602224462854938,2003298.0,-0.998932284116745,550.0,-10.18213805691727,-2.1184368835442,0.00037037037037037035,0.0,0.0,-0.031649918667972086,0.0,675.0,-0.0505000957287848,2.670509483648441,0.0,-0.0021671548078302295,0.3409819580614567,0.6420942850454371,-14.427871048866681,-11.590513709634774,0.074853515625,0.010245003108866512,-0.77997152071257,0.0,0.4364433065056801,-10.025961520217043,0.002197265625,-26.979262734516137,2200.0,-22.678527784851852
7.137130788246054,0.8677908113391984,-9.40730328251405,0.12847088016569613,0.27751070335507394,-0.06376392487436533,-0.987583051621914,-14.527820415411146,2700.0,9.416449655378033,-9.306709860350354,22,0.2733917377889156,-9.327124220109642,2093804.0,-0.9988935783505439,575.0,-9.645749760871452,-2.125334496429423,0.011111111111111112,0.0,0.0,-0.03263786621391773,0.0,4092.0,-0.05067200157791376,1.6763716587119226,0.0,-0.002398457226809114,0.34375392869114874,1.2302151864795001,-13.553893544856951,-9.119390227686807,0.0696044921875,0.010603006673045456,-0.7900840023285127,0.0,0.44616314619779585,-9.516323999492302,0.001611328125,-16.212134978179463,2300.0,-26.51515178920077
7.229804522976815,0.0,-9.04677885441526,0.13376099839806557,0.27677899822592733,-0.06488805580884219,-0.9870044678449631,-13.901005264272465,2700.0,9.09669297240183,-10.653287985074886,23,0.2796210445463657,-10.641399068998972,2182163.0,-0.9988999471068383,600.0,-9.306394290582864,-2.0946496908080006,0.04666666666666667,0.0,0.0,-0.031575378589332105,0.0,675.0,-0.05117830950766802,2.095794583355057,0.0,-0.0014942691806936637,0.3481817603111267,0.8786791321392198,-13.907219147388947,-10.660617202517319,0.0677978515625,0.01054424319881946,-0.7958855192111514,0.0,0.4539199940860271,-9.196098612170122,0.0011474609375,-26.999937636818686,2400.0,-23.673785382498746
7.0804133957221085,0.016034985422740525,-10.161773946299457,0.16964448280632496,0.27925369814038276,-0.06476707011461258,-0.9830797746777534,-14.75626041324773,2700.0,10.173984508973998,-10.343507147134677,24,0.287276803702116,-10.326253498705645,2272330.0,-0.9986948311328888,625.0,-10.44152732032106,-2.0984246529464143,0.01814814814814815,0.0,0.0,-0.03185797529295087,0.0,686.0,-0.05411117784678936,1.9485753803600443,0.0,0.0004868609823461156,0.35196530967950823,0.8336607043063363,-14.271125269956562,-10.08702792747569,0.0521240234375,0.012441267422400416,-0.8222844276715477,0.0,0.4613273687660694,-10.295057967879831,0.00068359375,-25.29450358127243,2500.0,-26.072445549630533
5.877947049668736,0.0,-10.23129709826082,0.2044101431965828,0.2815908908843994,-0.06532070245593787,-0.9792773604393006,-14.501828817039163,2700.0,10.252131064034193,-9.273377251231533,25,0.29114352390170095,-9.281445693963253,2362384.0,-0.9985109910368919,650.0,-10.537279939621037,-2.1489404329535318,0.01814814814814815,0.0,0.0,-0.036459595803171395,0.0,675.0,-0.05514224348589778,1.577447796884838,0.0,1.9994534227407712e-05,0.35718610137701035,0.8940464888357582,-12.699471047241794,-8.820698605670222,0.0373779296875,0.014141537551768123,-0.8504151645051025,0.0,0.4682160161435604,-10.385977765581108,0.0006103515625,-26.97547886663786,2600.0,-26.29681154529911
5.271818893185265,0.0,-9.983068625706121,0.2311216000467539,0.2850634068250656,-0.06567221507430077,-0.9763558372855187,-13.508113225906257,2678.0,10.006967662612842,-7.905148483683044,26,0.2949044942855835,-7.925805918214996,2452774.0,-0.9983574181795121,675.0,-10.353774692451248,-2.135712098971271,0.0022404779686333084,0.0,0.0,-0.03847721815109253,0.02,675.0,-0.05540034109726548,1.627070894023824,0.0,-0.00012311765294725774,0.36099463850259783,0.9567599000172204,-10.943379009385227,-7.2542668167467355,0.0257080078125,0.015561906271614134,-0.8756923812936293,0.0,0.47359792366623876,-10.224201198113452,0.000439453125,-26.758335320025786,2700.0,-26.846150405226645
5.6096583338184205,0.0,-10.678030033770636,0.2509913433343172,0.2903829075396061,-0.06686527691781521,-0.9741826221346855,-12.837810583773853,2698.0,10.707614838172308,-8.584453006903505,27,0.29784934520721434,-8.612692207397796,2543777.0,-0.9981680110096931,700.0,-11.032521282910608,-2.127862797123089,0.0014825796886582653,0.0,0.0,-0.04130176296457648,0.01,675.0,-0.05756900580599904,1.3963262445501559,0.0,-0.0006003918897476979,0.3631108023226261,1.1422188149609542,-11.73994680851412,-8.069911542271758,0.0170654296875,0.017313704080879688,-0.8926997270464199,0.0,0.4777135714888573,-10.892778209510631,2.44140625e-05,-27.0,2800.0,-26.755120905459613
5.824438976108924,0.0,-11.141155369021176,0.26214276552200316,0.2960916168987751,-0.06763955857604742,-0.9729629516601562,-13.797020343900007,2698.0,11.179551787023717,-11.205157237287029,28,0.30067403987050056,-11.199780228123865,2634847.0,-0.9980474054813385,725.0,-11.506710681505567,-2.1357734729186633,0.0,0.0,0.0,-0.040611616987735036,0.01,675.0,-0.06001754403114319,1.038563250511363,0.0,-0.0013919514749431983,0.36487927809357645,1.2927367503477174,-13.486963279677083,-11.148687505349798,0.0064697265625,0.018429186567664145,-0.9125735042747692,0.0,0.48204947263002396,-11.368760450659341,0.0,-27.0,2900.0,-27.0
5.671380592396238,0.0,-11.248688502972191,0.25994490534067155,0.30455304533243177,-0.0684089906513691,-0.9732033386826515,-13.86365124226703,2700.0,11.286294173561227,-12.129369931394148,29,0.3046525098383427,-12.169113791864282,2725972.0,-0.9980884447693825,750.0,-11.630785317586094,-2.134538685709413,0.0,0.0,0.0,-0.03924193186685443,0.0,675.0,-0.06153498915955424,1.4185698042118886,0.0,-0.0016140971682034432,0.36592419892549516,1.2489512350523904,-13.052926553313478,-12.268126480570928,0.0029052734375,0.018049634294584394,-0.9194299608869188,0.0,0.4884458102285862,-11.48320014201057,0.0,-27.0,3000.0,-27.0
5.325738143570641,0.0,-11.269748976697187,0.24271025881171227,0.31465511694550513,-0.06899008825421334,-0.9750883519649506,-13.98516181636923,2700.0,11.302266153511187,-13.291543052130944,30,0.30667439475655556,-13.342331681514725,2817097.0,-0.9982527136802674,775.0,-11.679855472515815,-2.126179430133925,0.0,0.0,0.0,-0.039600944798439744,0.0,675.0,-0.06243438879027963,1.0480186716224462,0.0,-0.0016739779501222074,0.3676242984831333,1.1265423333558815,-11.517038865534486,-13.709321196265545,0.0053466796875,0.016530317394062875,-0.9199149297477561,0.0,0.4925308831036091,-11.522405245097243,9.765625e-05,-27.0,3100.0,-27.0
4.928607245544472,0.0,-10.800509375255812,0.22056947387754916,0.3194218769669533,-0.06833089403808117,-0.9775099575519561,-13.950064765729305,2699.0,10.827842755184896,-13.522498666832345,31,0.30758405327796934,-13.57321007268251,2908178.0,-0.9984553575515747,800.0,-11.230934469185632,-2.13185800522042,0.0,0.0,0.0,-0.04005141369998455,0.01,675.0,-0.06399768218398094,0.8025998217761746,0.0,-0.0019479530194075779,0.36771259307861326,0.8863880883074339,-13.371441539642449,-14.078293036077223,0.010400390625,0.014656076696701348,-0.9158780704710807,0.0,0.49778021648526194,-11.078438363083322,0.000146484375,-27.0,3200.0,-27.0
5.257016234751935,0.0,-10.702944970861742,0.2031299076974392,0.32729349508881567,-0.06839376743882894,-0.979417371749878,-14.107759886460343,2700.0,10.726214131018011,-13.448590898827922,32,0.3078631415963173,-13.491904247242928,2999303.0,-0.9986608266830445,825.0,-11.129291884832442,-2.089098335075687,0.0,0.0,0.0,-0.0414926839992404,0.0,675.0,-0.0660176295787096,0.5488781182438575,0.0,-0.002020856412127614,0.36866487711668017,0.7997439236042844,-13.031470400301238,-14.053258315986813,0.0162353515625,0.012755729025229812,-0.9090105915034655,0.0,0.5033559560775757,-10.97695916580378,0.00029296875,-27.0,3300.0,-27.0
5.689457145202386,0.0,-10.563775599439992,0.1873411674052477,0.33408455848693847,-0.06852237917482853,-0.9811442360281944,-14.062611564841644,2680.0,10.587518945996248,-13.378363127157224,33,0.30861783400177956,-13.387297743960128,3089683.0,-0.9988277599215507,850.0,-10.971247661475308,-2.144441746568191,0.0,0.0,0.08,-0.0407007853500545,0.02,670.0,-0.06794738359749317,0.7488212150063214,0.0,-0.002588350517908111,0.36934570521116256,0.7025698552018695,-12.179385734744264,-14.031435270798417,0.0218994140625,0.011211828980594873,-0.8967649556769175,0.0,0.508114056289196,-10.816469295978129,0.0002197265625,-27.0,3400.0,-27.0
5.7749204993520005,0.0,-10.3945424462269,0.18235972970724107,0.3417647436261177,-0.0683338949456811,-0.9816890671849251,-14.017707473573738,2700.0,10.41059018608279,-13.555785130726651,34,0.3104813575744629,-13.555165688725822,3180302.0,-0.9988883197307586,875.0,-10.791431592587495,-2.1406370148899443,0.0,0.0,0.04,-0.04202145403251052,0.0,657.0,-0.07060666475445032,1.0141724306628732,0.0,-0.0029097781400196253,0.3707603618502617,0.678561290162708,-12.364176350560456,-14.255015946037611,0.027392578125,0.010651767905801534,-0.8864436709831353,0.0,0.5123641565442085,-10.638782557897944,0.0005615234375,-27.0,3500.0,-27.0
6.414646094442565,0.0,-10.369395867529102,0.16652401760220528,0.3482539735734463,-0.06866239346563816,-0.9834210753440857,-13.893088375928244,2697.0,10.389436188679444,-13.401233294553624,35,0.3118617370724678,-13.391224234352965,3271346.0,-0.9989420711994171,900.0,-10.758442848066219,-2.1477163938427113,0.0,0.0,0.0,-0.041550721414387225,0.01,675.0,-0.07288674842566252,0.6666599673487618,0.0,-0.003842238360084593,0.37171055376529694,0.6028926376134406,-14.092351230179698,-14.042523309076682,0.0376708984375,0.010154580511152745,-0.8736287528037792,0.0,0.5147074177861214,-10.603248309605224,0.0009033203125,-27.0,3600.0,-27.0
6.394058558864627,0.0,-10.193891483182266,0.15069434605538845,0.354811392724514,-0.06897979788482189,-0.9851524144411087,-14.02090417686942,2700.0,10.212992753061958,-13.464181366561883,36,0.3126347564160824,-13.466687630042804,3362471.0,-0.9989910170435905,925.0,-10.56965232366845,-2.147983919602848,0.0,0.0,0.0,-0.04020312111824751,0.0,675.0,-0.07514031585305929,0.7644781593761713,0.0,-0.004818636598065496,0.37230951637029647,0.5551253306497662,-12.835135917978391,-14.243380288246442,0.0481689453125,0.009701968170702457,-0.8533529287713464,0.0,0.5165586784482002,-10.41007718741275,0.0009521484375,-27.0,3700.0,-27.0
6.588378665327946,0.0,-10.017282778478005,0.1436200313270092,0.3602643221616745,-0.06902820579707622,-0.9859261572360992,-13.9273748114007,2700.0,10.032433066568512,-13.287942838362193,37,0.3136394090950489,-13.306030317556267,3453596.0,-0.9990508660674096,950.0,-10.385410338394449,-2.1909122922668756,0.0,0.0,0.0,-0.04197035795077682,0.0,675.0,-0.07646372672170401,0.5447812812559778,0.0,-0.004965895786881447,0.3729731716215611,0.5036096903755104,-13.766205916919555,-14.026521320552447,0.06025390625,0.009148406400345265,-0.8395889099294436,0.0,0.5180853381752968,-10.22730542072404,0.0018798828125,-27.0,3800.0,-27.0
6.457085229204023,0.0,-10.084444498261437,0.14276765529066324,0.3654660157859325,-0.069346890039742,-0.9860193744301796,-14.14365819505999,2700.0,10.098468151543765,-13.243585253902172,38,0.3147270053625107,-13.271500606021078,3544721.0,-0.9990789353847503,975.0,-10.442013240004144,-2.109867597038101,0.0,0.0,0.0,-0.043387964460998775,0.0,675.0,-0.07836153768002987,0.4780949827748053,0.0,-0.00569085426395759,0.37297165766358376,0.49672049328903045,-13.378909404947771,-14.005298656970695,0.06513671875,0.008888796716928483,-0.8330477689109103,0.0,0.5193711131811142,-10.287953878895994,0.0023193359375,-27.0,3900.0,-27.0
6.352384209931306,0.0,-10.027537266816088,0.14036039020866156,0.3701208718121052,-0.06957535129040479,-0.986282679438591,-14.037234675358562,2700.0,10.040103450909474,-13.212425909002349,39,0.3166377454996109,-13.248079698156232,3635760.0,-0.9990815922617913,1000.0,-10.379663128932155,-2.1902238513917838,0.0,0.0,0.04,-0.04355941005051136,0.0,672.0,-0.07957750428467988,0.566441968088378,0.0,-0.006895736267324537,0.37284638583660124,0.47370092082799964,-14.041118747572844,-14.041792332045432,0.0708984375,0.008864193758927285,-0.8247849387109454,0.0,0.5208494290709496,-10.225289939390953,0.003369140625,-26.999999999999936,4000.0,-26.999999999950788
6.401829004752111,0.0,-10.089683018947678,0.14605235792696475,0.37466615736484526,-0.0699737412855029,-0.9856601119041443,-14.186103659034744,2698.0,10.109223950485486,-13.209293780777319,40,0.31872569397091866,-13.23651335919494,3726822.0,-0.9990560099482536,1025.0,-10.434826458303652,-2.142915506726422,0.0,0.0,0.0,-0.04348699655383825,0.01,675.0,-0.08022626657038927,0.5530347837044381,0.0,-0.007544181670527905,0.3727982394397259,0.4857856354770805,-13.953321932558847,-14.024298965436284,0.0769775390625,0.009100886271335184,-0.8224650140931772,0.0,0.521099953353405,-10.280945506967994,0.0031494140625,-27.0,4100.0,-26.999999999609933
6.0953270909093105,0.0,-10.14195734713108,0.15214347392320632,0.38023523315787316,-0.07030283883213997,-0.9849939048290253,-14.05458242720706,2692.0,10.161550386638748,-13.181924237077592,41,0.3212647572159767,-13.203337387425131,3817729.0,-0.9990257248282433,1050.0,-10.485314821239049,-2.0747479336176182,0.0,0.0,0.0,-0.0434464012272656,0.01,675.0,-0.08141233865171671,0.6269965140799474,0.0,-0.00839873100630939,0.37344668582081797,0.47142780110897287,-13.261239338011995,-13.986174102121671,0.0725341796875,0.009381015505641698,-0.8195934243929515,0.0,0.5221503540873528,-10.33136832632984,0.0023681640625,-26.999999992785174,4200.0,-26.999974617375706
5.955073141983251,0.0,-9.980288017408691,0.15640320479869843,0.38549245744943617,-0.07053864225745202,-0.9845280155539513,-14.01719012353107,2700.0,9.998612762897283,-13.120621027355906,42,0.3241527728736401,-13.137691552575745,3908854.0,-0.9990403801202774,1075.0,-10.324962854944733,-2.0701326586320645,0.0,0.0,0.0,-0.04226419208571315,0.0,675.0,-0.08221090231090784,0.5819069219045956,0.0,-0.009327737661078573,0.3746260441839695,0.43877725136884094,-12.564963803923494,-14.039166607707717,0.0755126953125,0.009245368232950569,-0.8129479257637285,0.0,0.5239334270358086,-10.164784134669695,0.002294921875,-26.999999999999968,4300.0,-26.99999999995766
6.1841705852339635,0.0,-9.904639929967429,0.15230288319289684,0.3906347297132015,-0.0704064980149269,-0.9849764809012413,-13.954854562592406,2700.0,9.917338852883244,-13.036318319813736,43,0.3269741743803024,-13.088448001565222,3999979.0,-0.9990848258137703,1100.0,-10.236124610029659,-2.0871659741846087,0.0,0.0,0.0,-0.04239941351115704,0.0,675.0,-0.08348325993865728,0.8472655109570354,0.0,-0.010114721534773708,0.37573786824941635,0.39431874128009003,-17.115487503506206,-14.09321271124063,0.087353515625,0.008834282914176584,-0.8036317706406407,0.0,0.5256763949990273,-10.086289984168591,0.00263671875,-27.0,4400.0,-26.999999999989527
5.963893150961196,0.0,-9.764660732123044,0.14636821635067462,0.39436451345682144,-0.07063996121287346,-0.9856255754828454,-15.174006604004584,2700.0,9.775190293966663,-12.973523487049746,44,0.32905188873410224,-12.97964129437662,4091104.0,-0.999126310646534,1125.0,-10.086821252986013,-2.1029202072822955,0.0,0.0,0.0,-0.04303132127970457,0.0,675.0,-0.08527901396155357,0.3614693710780073,0.0,-0.009772430406883359,0.3764542996883392,0.36458315223977555,-13.564387493686523,-14.017004197785713,0.0848388671875,0.008450698875822126,-0.7898829767284041,0.0,0.5280692473053932,-9.93084869682978,0.002294921875,-27.0,4500.0,-26.999999999872152
6.084765515561691,0.0,-9.614156024733848,0.13410718087106943,0.39842781201004984,-0.07102095670998096,-0.9869665965437889,-14.212504508169022,2700.0,9.626173485492131,-12.913198642128407,45,0.3307400159537792,-12.906526271107808,4182229.0,-0.9991916194558144,1150.0,-9.939717281045821,-2.0721209938797984,0.0,0.0,0.0,-0.04293337529525161,0.0,675.0,-0.08678918443620205,0.3464354796925574,0.0,-0.009428067714907229,0.37694034203886984,0.2861803679753668,-12.666927509486495,-13.991631406509049,0.1082275390625,0.00784652285510674,-0.7789171043565147,0.0,0.5299994140863419,-9.788658683134276,0.0029296875,-27.0,4600.0,-27.0
6.109877649507695,0.0,-9.619679920377703,0.1320766242220998,0.40368272811174394,-0.07119814585894346,-0.987188683450222,-13.943594171771919,2700.0,9.629645141297274,-12.885104137027264,46,0.3327353335916996,-12.878303069395207,4273354.0,-0.9992617160081864,1175.0,-9.939145108087605,-2.119754010588076,0.0,0.0,0.0,-0.04274984672665596,0.0,675.0,-0.08766958378255367,0.32897066987332246,0.0,-0.009104392561130225,0.37710063681006434,0.2755515834093111,-13.65806213871558,-14.008273846505313,0.107861328125,0.007198321307078004,-0.7740815416720579,0.0,0.5323292449116707,-9.78963827478186,0.003369140625,-27.0,4700.0,-27.0
6.022764027300019,0.0,-9.510137428794733,0.13071312792599202,0.4080826729536057,-0.07164522930979729,-0.9873378142714501,-14.061987450238055,2700.0,9.519436208209765,-12.818368136513277,47,0.3354731373488903,-12.81648686030906,4364479.0,-0.9992602422833443,1200.0,-9.83313245901402,-2.1289594333517017,0.0,0.0,0.0,-0.043275348376482725,0.0,675.0,-0.08913286309689283,0.49496833372299864,0.0,-0.009135763766244054,0.37694039940834045,0.26077092624442244,-14.074945206031197,-13.98972094340568,0.095654296875,0.0072119363583624365,-0.7716149853222305,0.0,0.5359147295355797,-9.679372283132258,0.00380859375,-27.0,4800.0,-26.9999999880793
6.020641069393075,0.0,-9.75289902268169,0.1336313348263502,0.4113080374896526,-0.07240822501480579,-0.9870186433196068,-14.069499432193659,2700.0,9.761170728234305,-12.900882574346777,48,0.33778421953320503,-12.890178581696244,4455604.0,-0.9992084056138992,1225.0,-10.064093201515062,-2.109537152959092,0.0,0.0,0.0,-0.042620182130485774,0.0,675.0,-0.09032123070210218,0.413083377667785,0.0,-0.008994428860023617,0.37730348855257034,0.2775202641121656,-12.675896478256425,-14.03436712010859,0.1135986328125,0.007691354455891997,-0.7742257858830272,0.0,0.5394864290952682,-9.911208050478734,0.003759765625,-27.0,4900.0,-26.999999999999996
6.046879224326237,0.0,-9.795878521381415,0.13051608223468064,0.41621184572577474,-0.07288134731352329,-0.9873593717813491,-13.81228880694081,2700.0,9.805657944305867,-12.880111883369505,49,0.33999999761581423,-12.882329665462965,4546729.0,-0.9992046609520913,1250.0,-10.10478947418766,-2.100649898503616,0.0,0.0,0.0,-0.042760849371552466,0.0,675.0,-0.09203388150781393,0.456201604061619,0.0,-0.008615582622587681,0.3777215577661991,0.27539020107128165,-13.094233425476661,-13.969878683246787,0.105322265625,0.007725975092034787,-0.7741995000724273,0.0,0.5439418002963066,-9.948435807427698,0.003564453125,-27.0,5000.0,-27.0
5.96777757028533,0.0,-9.618634091418798,0.13058591205626727,0.42140410616993906,-0.07317860387265682,-0.9873517274856567,-14.006312897289527,2700.0,9.626514577157844,-12.874184596448952,50,0.3423894979059696,-12.872761992383056,4637854.0,-0.9992068529129028,1275.0,-9.926303045053265,-2.141100180975627,0.0,0.0,0.0,-0.04197127260267734,0.0,675.0,-0.09359434954822063,0.5080838541224233,0.0,-0.009379429067485035,0.3776682086288929,0.2970301792156585,-13.018089054528321,-14.026095307300059,0.1124755859375,0.00770581002580002,-0.7712709029037796,0.0,0.5481748178601265,-9.773104004925381,0.003466796875,-27.0,5100.0,-26.999999999999964
6.2052220675548755,0.0,-9.661529759502733,0.1315392566844821,0.42697752863168714,-0.0729312801733613,-0.9872474566102027,-13.947601286016816,2700.0,9.671055680636865,-12.884955868832582,51,0.3440912663936615,-12.89636702769813,4728979.0,-0.9991891458630562,1300.0,-9.975181975389969,-2.0940143539060956,0.0,0.0,0.0,-0.04173895213752985,0.0,675.0,-0.09430230408906937,0.5691710070593615,0.0,-0.010149515233933926,0.3781114086508751,0.28600365429385766,-13.877875072571653,-13.985433885253144,0.1096923828125,0.007869551866315305,-0.7735935934913869,0.0,0.5513853609561921,-9.821060665878337,0.00341796875,-27.0,5200.0,-26.99999996557948
6.327513678553329,0.0,-9.755985114648587,0.13489300832152368,0.4306890845298767,-0.07289335615932942,-0.9868806511163711,-13.968636271199616,2700.0,9.763059760997319,-12.946941184433166,52,0.34590291380882265,-12.942201736959003,4820104.0,-0.9992307394742965,1325.0,-10.064856904765273,-2.0892655190989897,0.0,0.0,0.0,-0.04274335503578186,0.0,675.0,-0.09570314139127731,0.49105267196888125,0.0,-0.010498184966854751,0.3787694193422794,0.2883293741793551,-13.650947549201767,-14.012831666670355,0.10478515625,0.0074847838724963365,-0.7736388091325352,0.0,0.554075887799263,-9.910062795289896,0.003173828125,-27.0,5300.0,-26.999999999500677
6.114986677270396,0.0,-9.767800094593595,0.13078010343015195,0.4359628401696682,-0.07283379472792148,-0.9873305097222328,-14.129042277760233,2700.0,9.777761197622642,-12.924273607060224,53,0.34733682721853254,-12.932646323016689,4911229.0,-0.9992700845003128,1350.0,-10.07779129864471,-2.095654991029005,0.0,0.0,0.0,-0.0417279283516109,0.0,675.0,-0.09701159168034793,0.7202806145513925,0.0,-0.011360580753535032,0.37835763692855834,0.2801821516769881,-13.480335779239955,-13.996447419927346,0.1057373046875,0.0071208686218597,-0.7715588730534364,0.0,0.5565615490078926,-9.922847601270107,0.0035888671875,-27.0,5400.0,-26.999999999998618
5.898903345898384,0.0,-9.60770883408657,0.1264027263969183,0.4398368291556835,-0.07330568395555019,-0.9878092646598816,-13.973786919503748,2700.0,9.614672310682796,-12.899530036214049,54,0.34985294491052626,-12.896369705394651,5002354.0,-0.9992916822433472,1375.0,-9.919176555141366,-2.0925984756060645,0.0,0.0,0.0,-0.042910554073750974,0.0,675.0,-0.09830574821680785,0.33880421217652024,0.0,-0.011764629976823926,0.3782822847366333,0.24729901921988873,-13.660485593817636,-13.989390409689516,0.1118896484375,0.006921154051087797,-0.7654783615485939,0.0,0.5582886964082718,-9.767187818890967,0.0037841796875,-27.0,5500.0,-26.99999999999998
5.892464442057933,0.0,-9.504315738982296,0.117754165828228,0.4433013454079628,-0.07379537764936686,-0.9887551754713059,-14.016950595690998,2700.0,9.515843181788792,-12.869696965948544,55,0.3524935141205788,-12.86907741278019,5093479.0,-0.9993262588977814,1400.0,-9.80675742935808,-2.0891895990069314,0.0,0.0,0.0,-0.0427952229976654,0.0,675.0,-0.09898067563772202,0.3040007346180643,0.0,-0.012276973528787493,0.3788456432521343,0.2465895561152595,-12.302807127678632,-14.0251139215834,0.0902099609375,0.00660143633140251,-0.7610156658593041,0.0,0.560989984869957,-9.656980622638418,0.0026611328125,-27.0,5600.0,-27.0
5.95133275497111,0.0,-9.609982106529628,0.10809274353086948,0.4463993966579437,-0.07394415587186813,-0.9898118749260902,-14.012255002929885,2700.0,9.615205566173238,-12.806330534866209,56,0.35477420687675476,-12.810541054174342,5184604.0,-0.9994117677211761,1425.0,-9.90566980409093,-2.1201256638807537,0.0,0.0,0.0,-0.043582456279546024,0.0,675.0,-0.10089646298438311,0.36880604296428005,0.0,-0.012093718955293297,0.3787969544529915,0.23892791321170578,-14.04709091896161,-14.011652953467642,0.0730712890625,0.005810499680228532,-0.7548206320068858,0.0,0.5639614447951317,-9.754410515013161,0.00390625,-27.0,5700.0,-26.999999999999392
6.003297218081333,0.0,-9.537228230350026,0.09940755404531956,0.4493807017803192,-0.0744313731789589,-0.9907617971301079,-14.038971111229372,2700.0,9.542902674144258,-12.75953223282362,57,0.35755386725068095,-12.7627787826116,5275729.0,-0.9994501680135727,1450.0,-9.83691148104453,-2.100983927623747,0.0,0.0,0.0,-0.04383967723697424,0.0,675.0,-0.10162788722664118,0.44848674623814483,0.0,-0.012612864165566862,0.3786918751895428,0.21461763585876187,-13.974074383379675,-14.005120248600708,0.0742919921875,0.005455419805366546,-0.753777816240472,0.0,0.5672190189361572,-9.684406803618064,0.003955078125,-27.0,5800.0,-26.99999999999987
5.910500732283717,0.0,-9.518563286386243,0.10208928622305394,0.45312109813094137,-0.07495716921985149,-0.9904684841632843,-13.965461440758588,2700.0,9.522536432243763,-12.767812944699983,58,0.36017258316278455,-12.759823478397834,5366854.0,-0.9994181349873543,1475.0,-9.826582316160387,-2.088666861942329,0.0,0.0,0.0,-0.044697878137230876,0.0,675.0,-0.10267496760934591,0.47314775429346306,0.0,-0.012943498441018164,0.3787758134305477,0.19933699446240763,-13.894997126165975,-14.111928606301607,0.08984375,0.005751622875686735,-0.7551656118637766,0.0,0.5699603676795959,-9.672541638968204,0.00458984375,-27.0,5900.0,-26.999999999997986
5.973026879515656,0.0,-9.556493284235055,0.10541855040937662,0.45497915148735046,-0.07490145415067673,-0.9901043638586998,-13.989301246544287,2700.0,9.565225716137913,-12.722478807726926,59,0.36294636949896814,-12.719669498343041,5457979.0,-0.9994021683931351,1500.0,-9.868349849714088,-2.097872003747034,0.0,0.0,0.0,-0.044189215451478955,0.0,675.0,-0.10389605760574341,0.42420785724323523,0.0,-0.012649752269499003,0.37925679311156274,0.2178147587785031,-13.52735015939136,-13.992654381240234,0.0949951171875,0.0058992690872401,-0.7589784307376248,0.0,0.5728141069412231,-9.716212301219233,0.0035400390625,-27.0,6000.0,-26.99999999999911
6.111172035217766,0.0,-9.643371706262974,0.11326302289962768,0.4574503056704998,-0.0749363100156188,-0.9892463818192482,-14.080515855025977,2700.0,9.651738211686487,-12.804330059684233,60,0.36457172185182574,-12.80432219960798,5549104.0,-0.999368117749691,1525.0,-9.96280529008381,-2.092242821621767,0.0,0.0,0.0,-0.04380754940211773,0.0,675.0,-0.1051219454035163,0.29904835812496355,0.0,-0.013393318466842174,0.38017708286643026,0.22496373806298958,-14.094301206191707,-13.990004847412148,0.101708984375,0.006214280019048601,-0.7659926506807097,0.0,0.5763750731945038,-9.808574600520206,0.0035400390625,-27.0,6100.0,-26.99999999999615
6.026093170127111,0.0,-9.76402203921015,0.12098944410681725,0.4605938382446766,-0.07469555158168077,-0.9884013265371323,-14.05022002013826,2700.0,9.772752033201929,-12.961199076826833,61,0.3678730607032776,-12.958529107367411,5639694.0,-0.9993118464946746,1550.0,-10.08620693078478,-2.0778432393897672,0.0,0.0,0.04,-0.04400889165699482,0.0,656.0,-0.1063495947048068,0.2697975851352286,0.0,-0.014989277976565064,0.3809992797672749,0.25273540316249493,-13.883064737811576,-14.01416688051454,0.099072265625,0.006734643341042101,-0.7734474291784863,0.0,0.5794301748275756,-9.930918999944467,0.0031005859375,-26.999999999968438,6200.0,-26.999998764444147
6.271720920175572,0.0,-9.658915136590476,0.12498537879437208,0.4622444033622742,-0.07460421361029149,-0.9879642784595489,-14.008877613162321,2694.0,9.669579893099558,-13.030501741995414,62,0.370046366751194,-13.033401184626541,5730653.0,-0.9993043258786202,1575.0,-9.98169068864895,-2.1416261804377426,0.0,0.0,0.0,-0.04453877061605453,0.01,675.0,-0.10664683561772108,0.36491774687109074,0.0,-0.014739087712951005,0.38142512664198874,0.25799616402822656,-13.978616674644824,-14.02618539517914,0.09365234375,0.00680419490672648,-0.7757385908334982,0.0,0.5827599570155144,-9.827909765506401,0.0037841796875,-26.999999872792035,6300.0,-26.999999897050206
6.020807196243944,0.0,-9.669911134314237,0.12626076135784386,0.46519755125045775,-0.07464376986026763,-0.9878247767686844,-14.016859475829524,2700.0,9.684561632629876,-13.042062634834846,63,0.372565370798111,-13.047308530009076,5821778.0,-0.9992777824401855,1600.0,-9.99704927921977,-2.0992712783030583,0.0,0.0,0.0,-0.04526884704828262,0.0,675.0,-0.10716471020132304,0.38450779800593926,0.0,-0.014893738436512649,0.3818334609270096,0.2622575600846782,-14.096819717378368,-13.985466843326062,0.1012939453125,0.0070496491738595065,-0.779118876020948,0.0,0.5860847711563111,-9.844769665784897,0.003515625,-27.0,6400.0,-26.99999909101857
5.803766347161381,0.0,-9.635065992546533,0.12285863272845746,0.4674509257078171,-0.07480024285614491,-0.9881968826055527,-14.05071630283891,2700.0,9.644232974649896,-13.07729444004659,64,0.37436018139123917,-13.081845189642214,5912903.0,-0.9992866188287735,1625.0,-9.957202073317077,-2.083771293643804,0.0,0.0,0.0,-0.04667052896693349,0.0,675.0,-0.10753352101892233,0.3527159526422767,0.0,-0.015531941782683134,0.3823457844555378,0.28801339877881693,-13.39534882425183,-14.010357227166029,0.0961181640625,0.0069679618231020864,-0.7778049325970642,0.0,0.5892353773117065,-9.80733846016858,0.0033935546875,-26.999999999999748,6500.0,-26.999999999805283
5.930065592075827,0.0,-9.660060799578549,0.11899704206734896,0.4698335736989975,-0.07486096657812595,-0.9886192262172699,-14.009166483452141,2700.0,9.668830996763807,-13.023253018197295,65,0.37643342912197114,-13.02308699700642,6004028.0,-0.9993102893233299,1650.0,-9.978287800426509,-2.1194561030752084,0.0,0.0,0.0,-0.04845819044858217,0.0,675.0,-0.10877079870551824,0.5030638586714966,0.0,-0.015604474279098213,0.3826842062175274,0.28761850774822983,-11.608561714609653,-14.009906722139595,0.08017578125,0.006749031157232821,-0.7766815144757857,0.0,0.5914126038551331,-9.828302297032323,0.003271484375,-26.999999999999993,6600.0,-26.999999992579788
5.99121437861927,0.0,-9.7315592787056,0.11276795454323292,0.4727682687342167,-0.07510653305798769,-0.9893005281686783,-14.029622018573683,2700.0,9.737028763473896,-13.002170870209929,66,0.37854073494672774,-13.003416513180236,6095153.0,-0.9993394374847412,1675.0,-10.043672566802277,-2.1228607148317677,0.0,0.0,0.0,-0.049435594398528335,0.0,675.0,-0.11035925075411797,0.25761154202546177,0.0,-0.016133024543523788,0.38316195607185366,0.25511863086872033,-13.098080766864161,-14.00063460718648,0.100048828125,0.006479442212730646,-0.7728752882947447,0.0,0.5937025949358941,-9.890044929544667,0.003955078125,-26.99999999999996,6700.0,-26.999999999630273
6.178822674481535,0.0,-9.63821542604865,0.11047933604568243,0.4756717137992382,-0.07517457902431487,-0.9895508468151093,-14.036978616325891,2694.0,9.644768677381464,-13.087196087248838,67,0.38033449947834014,-13.094788700568506,6186091.0,-0.9993334725499153,1700.0,-9.955125936466949,-2.123364289922756,0.0,0.0,0.0,-0.05019209189340472,0.01,675.0,-0.1113222660496831,0.4917535100433167,0.0,-0.01710548340342939,0.3835317775607109,0.2587251128268204,-14.044937950599818,-14.033742168746667,0.0859375,0.0065346516901627185,-0.7725793346980936,0.0,0.596348337829113,-9.799944326667973,0.004541015625,-26.999999999999776,6800.0,-26.99999999997717
6.212285567271977,0.0,-9.699782493247813,0.11309278067201375,0.4783323399722576,-0.07519063577055932,-0.9892650127410889,-14.032162761237183,2700.0,9.709702380014509,-13.063737051585639,68,0.38248310014605524,-13.068715029059803,6277216.0,-0.9993278861045838,1725.0,-10.021119736950435,-2.16766717018254,0.0,0.0,0.0,-0.049931714311242104,0.0,675.0,-0.11232142504304647,0.3622886041539736,0.0,-0.01767397583462298,0.38406311720609665,0.2532634798932939,-14.165583446162888,-14.014080038826759,0.0937744140625,0.0065862952847965065,-0.7755550583111471,0.0,0.600107592344284,-9.866857699257162,0.0043701171875,-26.999999999999858,6900.0,-26.999999990294622
6.204243589031595,0.0,-9.658701919493897,0.12482512649148703,0.4831188730895519,-0.07531395014375449,-0.9879818022251129,-14.087132033781788,2700.0,9.667524084336652,-13.133665184249722,69,0.3842277802526951,-13.134552041638235,6368341.0,-0.9993001028895379,1750.0,-9.981089106805982,-2.1283048661112844,0.0,0.0,0.0,-0.049831059761345387,0.0,675.0,-0.11323354933410883,0.30851423168109726,0.0,-0.018695946037769317,0.3846732087433338,0.2549444238664103,-13.30159297250365,-13.991861686196836,0.0875244140625,0.00684332954697311,-0.7773844245559303,0.0,0.6040918976068497,-9.827087653016198,0.0040283203125,-27.0,7000.0,-26.999999997957477
6.097430238039888,0.0,-9.668313253996136,0.12904578614979983,0.4873869113624096,-0.07513035871088505,-0.9875201731920242,-13.96595805324638,2700.0,9.676891748244099,-13.143029781205659,70,0.38585255965590476,-13.143793512681134,6459466.0,-0.9992734014987945,1775.0,-9.99664144673219,-2.1355203412487755,0.0,0.0,0.0,-0.05089151756837964,0.0,675.0,-0.11379891131073236,0.38571645556545464,0.0,-0.018912394111976028,0.3857172645628452,0.26118921009729945,-13.507072611740055,-13.999562646628789,0.093310546875,0.007090324605815113,-0.7808012471061374,0.0,0.6075775861740113,-9.844055508869014,0.00302734375,-27.0,7100.0,-26.999999997133393
6.08187695863725,0.0,-9.787741018976135,0.13124271370470525,0.4910743869841099,-0.07530067358165979,-0.9872798919677734,-14.026978164253357,2692.0,9.79492189195915,-13.145301669646136,71,0.3881648577749729,-13.145388013779629,6550349.0,-0.9992749392986298,1800.0,-10.113486277077413,-2.1659299857426957,0.0,0.0,0.0,-0.05187023123726249,0.01,675.0,-0.11446205247193575,0.16417542100338173,0.0,-0.01925490596331656,0.38603883758187296,0.28408046065389564,-13.458408908280445,-14.024933673519593,0.0729248046875,0.007075942296069115,-0.7829870834779286,0.0,0.6113529950380325,-9.960426604698913,0.003466796875,-26.99999999999998,7200.0,-26.99999999967229
5.847282455469967,0.0,-9.765119166713399,0.13700901586562395,0.4953734286129475,-0.07553478833287955,-0.9866492062807083,-14.016832006985364,2700.0,9.775047030504641,-13.122020217644458,72,0.3897220708429813,-13.132900590364764,6641474.0,-0.9992286875844002,1825.0,-10.094938651189292,-2.1189105456214747,0.0,0.0,0.0,-0.05351688023656607,0.0,675.0,-0.11574104651808739,0.333275109748424,0.0,-0.019984438456594943,0.3868956819176674,0.267618051924579,-14.003746768532626,-14.007610620613644,0.071044921875,0.007503745274152607,-0.7847461821678735,0.0,0.6150311887264251,-9.938980491461958,0.002392578125,-26.999999999999993,7300.0,-26.99999979642538
6.04655057940238,0.0,-9.661057685287812,0.13977122791111468,0.4998787760734558,-0.07580644432455301,-0.9863471165299416,-14.028944679202606,2700.0,9.668709341551738,-13.135755051767973,73,0.39151213243603705,-13.140076055221362,6732599.0,-0.9992370188236237,1850.0,-9.989222765490782,-2.1261203282600034,0.0,0.0,0.0,-0.054400058649480346,0.0,675.0,-0.11747916769236326,0.2635773135617545,0.0,-0.019751790910959244,0.3875392869114876,0.2744573277672627,-13.704158897824016,-14.004022678052227,0.0807861328125,0.00742686812300235,-0.7849944788533321,0.0,0.6188574746251106,-9.839008966935651,0.003662109375,-27.0,7400.0,-26.999999997868695
6.012247793218236,0.0,-9.740287188356008,0.13706465922296046,0.5038284912705422,-0.07590353284031152,-0.9866431295871735,-14.092038243923232,2700.0,9.74843618189088,-13.09531994409087,74,0.3931622251868248,-13.092595314710678,6823724.0,-0.9992745235562325,1875.0,-10.069881189509891,-2.124595978720026,0.0,0.0,0.0,-0.05544356657192111,0.0,675.0,-0.11838100980967284,0.3486436806762367,0.0,-0.020603742357343434,0.3883435562252998,0.26494875073295326,-13.95067974312529,-14.027087553846354,0.06669921875,0.007079922745469957,-0.7839634305622895,0.0,0.6220189377665519,-9.917125499086595,0.0033935546875,-27.0,7500.0,-26.999999999999993
6.046761311101895,0.0,-9.726240570768121,0.13505854327231645,0.5079899519681931,-0.07606177311390638,-0.9868625462055206,-14.009632407793466,2700.0,9.735553811475928,-12.968939047474048,75,0.3954003818333149,-12.969777492132215,6914849.0,-0.9992646351456642,1900.0,-10.053840948726991,-2.1012559784037874,0.0,0.0,0.0,-0.05478123668581247,0.0,675.0,-0.11928615048527717,0.2715835219944564,0.0,-0.020544329285621644,0.38867864981293676,0.27154888012914047,-13.889780885135142,-14.005223520188219,0.0845947265625,0.007171254605054855,-0.7817368132658885,0.0,0.6246474757790565,-9.900278315819486,0.00380859375,-27.0,7600.0,-26.999999999999968
5.933994262586431,0.0,-9.662483565913268,0.14085427820682525,0.5118086248636246,-0.07648269031196833,-0.986228646337986,-13.989175957700876,2700.0,9.672509802097114,-12.966719274384209,76,0.3968506522476673,-12.974494978812254,7005974.0,-0.9992938682436943,1925.0,-9.98229267353341,-2.1045401037546982,0.0,0.0,0.0,-0.053451371286064385,0.0,675.0,-0.12001731339842081,0.40191883969537756,0.0,-0.02111531109549105,0.3890905849635601,0.26197832523680453,-13.998777594765583,-13.99615246347887,0.0884765625,0.006900940649211406,-0.7761483994814625,0.0,0.6268658310174942,-9.828700024843995,0.0040283203125,-26.99999999999942,7700.0,-26.99999999988787
5.76488735037667,0.0,-9.716068707127045,0.13389869313687086,0.515026593208313,-0.0764647476375103,-0.9869893968105317,-14.018639598767983,2700.0,9.7248334058958,-12.966498827677915,77,0.3989589288830757,-12.97273249296077,7097099.0,-0.999320924282074,1950.0,-10.03220640549739,-2.1047495819620963,0.0,0.0,0.0,-0.053509251307696105,0.0,675.0,-0.12098426688462496,0.5385325820204068,0.0,-0.021622328879311682,0.38951090052723886,0.25186520258587264,-13.3542145536043,-14.070043226214187,0.081201171875,0.006650782120414078,-0.772499814350158,0.0,0.6301266193389893,-9.876649817842104,0.004638671875,-26.999999999999954,7800.0,-26.99999999999834
6.008546081385546,0.0,-9.670542196215667,0.13598605003207923,0.5184694230556488,-0.07655398361384869,-0.9867611050605773,-14.000062035930874,2700.0,9.676951747836743,-12.962895308191642,78,0.4008028574287891,-12.963630892095296,7188224.0,-0.9993179187178611,1975.0,-9.979634182240549,-2.1337736159257474,0.0,0.0,0.0,-0.05549003854393959,0.0,675.0,-0.12248300462961197,0.35270673165568034,0.0,-0.02274110377766192,0.389944364130497,0.28524739309492836,-14.066459940783803,-14.039564944620967,0.0939697265625,0.006678482168354094,-0.7698249769389804,0.0,0.6338230639696121,-9.828631437679983,0.00390625,-26.99999999998491,7900.0,-26.99999999999458
6.009898473294214,0.0,-9.711599020172788,0.13697167560458184,0.5225355789065361,-0.07660947162657976,-0.9866532891988754,-14.042201681188688,2693.0,9.721204188512093,-12.956618349962394,79,0.40282009467482566,-12.961161676674646,7279139.0,-0.9993051022291184,2000.0,-10.027963727270972,-2.1125161022879184,0.0,0.0,0.0,-0.054543303325772285,0.01,675.0,-0.12302702367305755,0.2756568488839911,0.0,-0.023346845386549832,0.390472749620676,0.2665826201529589,-13.764801204254136,-14.067738231111985,0.0732177734375,0.006797037879005074,-0.7758366339941858,0.0,0.638176566362381,-9.87834976742495,0.004443359375,-26.99999999999999,8000.0,-26.9999999997914
6.094913054775556,0.0,-9.653738016496614,0.14259688630700112,0.5269231706857681,-0.07677791956812144,-0.98603805154562,-14.118224485991108,2694.0,9.667143253163701,-13.066242099287468,80,0.40457126647233965,-13.07232351841634,7370068.0,-0.9992729961872101,2025.0,-9.98039166168493,-2.133875959913712,0.0,0.0,0.0,-0.05547456154599786,0.03,675.0,-0.12374998610466718,0.42376267195716066,0.0,-0.0237653864081949,0.39021722301840783,0.28225055875579597,-13.480015943636042,-14.034709947190748,0.1062744140625,0.007093940454069525,-0.7803249774638971,0.0,0.6415859818458557,-9.832240819785099,0.004638671875,-26.999999999999872,8100.0,-26.999999721287185
6.519812861309726,0.0,-9.733811700886259,0.14165084585547447,0.5318993151187896,-0.07703146040439605,-0.9861415162682533,-14.041501411496165,2700.0,9.74697643294041,-13.065874892056058,81,0.40581731498241425,-13.07102518971397,7461193.0,-0.9992866069078445,2050.0,-10.062352899354101,-2.1730512299458495,0.0,0.0,0.0,-0.05573981339111924,0.0,675.0,-0.12556656450033188,0.47901512075667974,0.0,-0.02398382811807096,0.39069713801145556,0.26444448712090873,-14.307689253644211,-14.008920670598474,0.100244140625,0.0069681605906225744,-0.7820773830993858,0.0,0.6447393640875816,-9.909615840022985,0.0040771484375,-26.99999999997133,8200.0,-26.999999987357096
6.341059530110529,0.0,-9.714471630279473,0.14327203556895257,0.5362652018666267,-0.07733943685889244,-0.9859642043709755,-14.153618078651974,2700.0,9.726321764622492,-13.14798657015973,82,0.40735533758997916,-13.146097881390347,7552318.0,-0.999300068616867,2075.0,-10.044051621884758,-2.1034801511224943,0.0,0.0,0.0,-0.0540281574241817,0.0,675.0,-0.12654325291514396,0.2837799055190897,0.0,-0.024204381555318833,0.39171319678425787,0.2893684726095067,-14.000376259414416,-14.030283899043088,0.07919921875,0.006843522109556943,-0.7848429103447415,0.0,0.6475669801235199,-9.89306514042338,0.00361328125,-27.0,8300.0,-26.999999997260698
5.978676931557571,0.0,-9.788148050296888,0.14570522159337998,0.5397026091814041,-0.07764695528894663,-0.9856980875134468,-14.05478857518909,2700.0,9.79524188894718,-13.19307047292583,83,0.4091114796698093,-13.194070248335674,7643443.0,-0.9993145182728768,2100.0,-10.120771839834596,-2.124160077160923,0.0,0.0,0.0,-0.05423390120267868,0.0,675.0,-0.1267982769757509,0.3071868106021235,0.0,-0.024538984522223473,0.3932445265352726,0.2781543476333252,-13.631069312452231,-14.039628159383136,0.0697265625,0.006709914840757847,-0.785423863476899,0.0,0.650681784749031,-9.965201143163622,0.004150390625,-26.999999999999993,8400.0,-26.999999999427107
5.7468012232945345,0.0,-9.704262404803746,0.14334086440503596,0.5447310134768486,-0.07764808256179094,-0.9859566822648048,-14.113363783799178,2700.0,9.715122916502242,-13.156707428311625,84,0.41112301498651505,-13.156446320818748,7734568.0,-0.9993193641304969,2125.0,-10.034580971435798,-2.077341133032314,0.0,0.0,0.0,-0.0542776039801538,0.0,675.0,-0.12672074399888517,0.24368624922474486,0.0,-0.025396640971302988,0.39435721188783646,0.26127614915322483,-13.67170501895606,-14.0220968604654,0.091015625,0.006665158388204873,-0.7813979628641391,0.0,0.6534386545419693,-9.879984293822012,0.0036865234375,-27.0,8500.0,-26.999999999993026
5.648941666840949,0.0,-9.654043289006008,0.14450369626283646,0.5491293013095856,-0.07779719941318035,-0.9858294978737832,-13.99547194176438,2700.0,9.66024017090336,-13.033569373295242,85,0.412877568602562,-13.040384960530659,7825693.0,-0.9993255406618118,2150.0,-9.972723832660622,-2.109760452450428,0.0,0.0,0.0,-0.05401396220549941,0.0,675.0,-0.12663050666451453,0.3425644384285297,0.0,-0.02564824870787561,0.39446167051792147,0.26481400172364905,-13.632363610714458,-14.011173373048141,0.1001953125,0.006607997405808419,-0.7783615021733568,0.0,0.6562308311462403,-9.819300466936287,0.0033447265625,-27.0,8600.0,-26.99999999990548
6.005411439487871,0.0,-9.762777879278687,0.14908257313072681,0.5530872419476509,-0.07801956366747617,-0.9853286907076836,-14.074989030603788,2700.0,9.768437445238732,-13.107342983206603,86,0.41453164368867873,-13.108485572123083,7916818.0,-0.9993302553892136,2175.0,-10.082527797422316,-2.1163459868992502,0.0,0.0,0.0,-0.05516867088153958,0.0,675.0,-0.12663553580641745,0.42764658466610755,0.0,-0.025740329083055256,0.39450708851218225,0.2691199267625243,-13.636980326737305,-14.035106776299624,0.0844482421875,0.006564494548365473,-0.7793160027707927,0.0,0.6594691455364228,-9.92715546403848,0.00341796875,-27.0,8700.0,-26.999999999861092
6.13870554087606,0.0,-9.615820115529882,0.15126772075891495,0.5565239161252975,-0.07794979456812143,-0.9850897058844567,-14.082589696716589,2700.0,9.625150584526585,-13.043009734716799,87,0.41651639342308044,-13.046603136323023,8007943.0,-0.9993225365877152,2200.0,-9.941900528565801,-2.1439974853426973,0.0,0.0,0.0,-0.05493164602667093,0.0,675.0,-0.1276050578802824,0.3570640886275057,0.0,-0.026867253612726925,0.39438931196928023,0.2551630719658271,-13.482583094868309,-13.998729545873687,0.059326171875,0.006635843147523701,-0.7799102899582067,0.0,0.6623284071683884,-9.788396258624939,0.0041015625,-27.0,8800.0,-26.999999999958128
6.128556071967692,0.0,-9.679244112102655,0.15105508901178838,0.5606994524598121,-0.07820389531552792,-0.9851129502058029,-14.025069686682535,2700.0,9.68329546477224,-13.108603456729465,88,0.41757668033242223,-13.110012961667683,8099068.0,-0.9993256881833077,2225.0,-9.994953833050669,-2.094167804872268,0.0,0.0,0.0,-0.054530500434339046,0.0,675.0,-0.12809469774365426,0.3930215890363598,0.0,-0.026615139748901128,0.39417831003665926,0.2788661820933679,-13.950599451337098,-14.053691674750757,0.0588623046875,0.006606660527177155,-0.7782272971882775,0.0,0.6650468125939369,-9.840477285252058,0.004443359375,-27.0,8900.0,-26.999999999980037
6.161340700493102,0.0,-9.672994811480386,0.15105561651289462,0.5653245702385903,-0.07814741339534521,-0.9851128906011581,-14.055882117129915,2700.0,9.681188505188704,-13.033464280779219,89,0.41974916830658915,-13.048296375649675,8190193.0,-0.9993448942899704,2250.0,-9.997475862522117,-2.1265042016828373,0.0,0.0,0.0,-0.05368430465459824,0.0,675.0,-0.12918530516326426,0.6424268649769896,0.0,-0.026911140838637947,0.39451323375105857,0.2612508795224368,-13.278952053946446,-13.977540283875527,0.075634765625,0.006429054064210504,-0.7800191255380924,0.0,0.6679783433675766,-9.846122397791655,0.00478515625,-26.99999999999582,9000.0,-26.999999993710908
5.6254728585806015,0.0,-9.761411064915965,0.14195809960365297,0.5687658846378326,-0.0782046090811491,-0.9861079171299935,-14.043540920308091,2700.0,9.771548066978639,-13.10634975775704,90,0.4211845390498638,-13.103207513652112,8281318.0,-0.9993678539991379,2275.0,-10.089191935687504,-2.1322507367280195,0.0,0.0,0.0,-0.05382334282621741,0.0,675.0,-0.12990939877927304,0.29620899179212923,0.0,-0.02680660868063569,0.3951836206018925,0.253369188592399,-12.847747743019607,-14.018967665792207,0.0736083984375,0.0062166373012587425,-0.7784803159025614,0.0,0.6709990724921227,-9.933416188440916,0.0046875,-27.0,9100.0,-26.999999997121684
5.861216675671412,0.0,-9.699515410964827,0.14396733827888966,0.5720337614417076,-0.07833147123456001,-0.9858881711959839,-13.980362842582679,2700.0,9.70624000302897,-13.220284222940865,91,0.42274906039237975,-13.216421315084006,8372443.0,-0.9993668526411057,2300.0,-10.030337779280964,-2.1400021856046805,0.0,0.0,0.0,-0.05408049300312996,0.0,675.0,-0.13075726814568042,0.34565751141235534,0.0,-0.027242412511259317,0.39564365446567534,0.26116204797895237,-13.242819947740289,-14.085378840046758,0.10185546875,0.006225991214159876,-0.7790779550487059,0.0,0.6747376516461372,-9.875235947436527,0.004150390625,-26.999999999996696,9200.0,-26.99999999999325
5.438175369355828,0.0,-9.6613678787734,0.14304736144840718,0.5763609796762467,-0.07846079263836145,-0.9859887763857842,-13.942302578568627,2700.0,9.672433218764928,-13.321664009925623,92,0.42475800588727,-13.319142590137693,8463568.0,-0.9993957877159119,2325.0,-9.992416519820562,-2.1200817932200153,0.0,0.0,0.0,-0.054649567045271394,0.0,675.0,-0.1322993364185095,0.40639361994569984,0.0,-0.027526682475581765,0.39607754349708557,0.24056530019346853,-14.246520734831279,-14.12299279476024,0.0607421875,0.005958352901507169,-0.7774688885809156,0.0,0.6788659259676934,-9.83870996953124,0.00400390625,-26.999999999999996,9300.0,-26.999999999999623
5.912759812271801,0.0,-9.695854350696369,0.14807226546108723,0.579228875041008,-0.0787618251517415,-0.985439196228981,-14.114645666057573,2700.0,9.703841996601128,-13.280230192255749,93,0.42669595330953597,-13.280712187543411,8554693.0,-0.999372273683548,2350.0,-10.026104553069441,-2.125873892437812,0.0,0.0,0.0,-0.05558175491169095,0.0,675.0,-0.13303123340010642,0.4488631759971202,0.0,-0.027419293764978647,0.3964451014995575,0.2747395622919583,-13.30169594161538,-14.025658159305422,0.07080078125,0.006175695173442364,-0.7790074317730614,0.0,0.6828181400895119,-9.874971136344552,0.003759765625,-27.0,9400.0,-26.999999999966985
5.824590726717409,0.0,-9.757897909474817,0.14940072000026702,0.5830771863460541,-0.07899515889585018,-0.9852938860654831,-13.928836738117342,2700.0,9.76607515133198,-13.311492388231901,94,0.4287492923438549,-13.313127280160563,8645818.0,-0.9993674159049988,2375.0,-10.10138918084499,-2.151765600586077,0.0,0.0,0.0,-0.05457905400544405,0.0,675.0,-0.1338890228420496,0.4093375529971315,0.0,-0.028681635297834872,0.3964259631931782,0.27440772296526206,-12.298339576536662,-14.014142493579786,0.0829833984375,0.006220762780867517,-0.7828502102704078,0.0,0.686687932908535,-9.945521676152866,0.003857421875,-26.999999999999993,9500.0,-26.99999999935923
5.938440535049793,0.0,-9.693586897788752,0.15496255792677402,0.5856026172637939,-0.07914477903395892,-0.9846855893731117,-14.04444329316,2697.0,9.701402808101156,-13.367591001503433,95,0.4303782723844051,-13.372721031156647,8736860.0,-0.999369703233242,2400.0,-10.034964703202709,-2.1651943530552673,0.0,0.0,0.0,-0.05547704137861729,0.01,675.0,-0.13467224948108197,0.45306746405320164,0.0,-0.029308171663433313,0.3969738855957985,0.2868060251169612,-13.136110956140147,-13.996431070772939,0.0541015625,0.006199535774067044,-0.7826804596057627,0.0,0.6899101749062538,-9.881401947111076,0.0035888671875,-26.99999999999975,9600.0,-26.999999999970896
6.245375186373141,0.0,-9.791519684261004,0.15257142186164857,0.5889883622527122,-0.07942640818655491,-0.9849471062421798,-13.98884191212834,2700.0,9.802497034535836,-13.375855549066689,96,0.432237995415926,-13.374042537890812,8827985.0,-0.9993656024336814,2425.0,-10.137065860729233,-2.131023358657694,0.0,0.0,0.0,-0.05631327917799354,0.0,675.0,-0.13506103940308095,0.3959871608544489,0.0,-0.02987591098062694,0.3973034553229809,0.24943409766902996,-12.928345572313438,-14.052874748064445,0.0807861328125,0.006237530731596053,-0.7841188350394077,0.0,0.6930186942219734,-9.978129391615752,0.004052734375,-26.99999999999993,9700.0,-26.999999999616414
