ReemS3/reg_curious_hac/data/d4a6886/AntFourRoomsEnv-v0/alg:chac|eta:0.5|fw:1|fwhidsiz:256,256,256|nlev:2|reg:True|rolbatsiz:1|timsca:27,27|119/progress.csv
test/episodes,train_1/q_grads,train_0/q_grads,test_1/n_subgoals,train_0/fw_loss,train_0/reward_-0.0_frac,train_0/reward_-1.0_frac,train_1/subgoal_succ_rate,train_0/reward,test_1/subgoal_succ_rate,train_1/avg_q,epoch,train_0/q_loss,train_1/fw_loss,train_0/q_grads_std,train_0/mu_loss,train_1/q_loss,train_1/q_grads_std,test/success_rate,test_0/avg_q,train_1/reward_-0.0_frac,train_0/avg_q,train_1/fw_bonus,train_0/fw_bonus,train_1/n_subgoals,train_1/mu_grads,train_1/reward_-27.0_frac,train_0/mu_grads_std,train_0/mu_grads,train_1/target_q,train_1/next_q,train/episodes,train_0/current_q,train_1/mu_grads_std,train_0/target_q,train/success_rate,policy/steps,train_1/reward_-1.0_frac,train_0/next_q,train_1/mu_loss,train_1/reward,test_1/avg_q,train_1/current_q
25.0,0.017821823619306086,-0.0028035697294399144,676.0,0.029486463451758028,0.0,0.0002685546875,0.0014814814814814814,-0.7182116805561236,0.0014792899408284023,-6.920903153696193,0,0.2444858679963752,0.063260892406106,0.11191075835376978,6.0882932561891865,1.5368309272545482,0.109865996055305,0.0,-14.045993060628776,0.0,-6.462801542151963,-0.9888451918959618,-0.9938208237290382,2700.0,-0.01158533412963152,0.0,0.152187467738986,-0.0005330625601345674,-5.980570671900412,-5.081597520129838,100.0,-6.237643967065814,0.13372812382876872,-6.353142919413011,0.0,91034.0,0.0045166015625,-6.077803174396797,4.626260059286338,-2.1161755231354618,-7.773105468590419,-6.013244820287429
50.0,0.009069431805983186,-0.0014654757222160697,675.0,0.017720269877463578,0.0,0.0015869140625,0.003703703703703704,-0.7165886584116379,0.0,-11.75441930474679,1,0.31598864040809466,0.07260858491063119,0.12805283591151237,8.138607212671184,0.8381473574138528,0.12254650015383958,0.0,-25.897282494961726,0.0,-19.914741079272172,-0.9865525662899017,-0.9963364973664284,2700.0,-0.02321584546007216,0.0,0.19701174162328244,-0.010509287472814322,-6.604539461579376,-5.818351991738444,200.0,-8.240169792459092,0.15565636157989501,-8.324245695112056,0.0,181999.0,0.0024658203125,-8.134918444932287,5.209130048228256,-2.1747826331666147,-9.839608626873684,-6.623340021629244
75.0,-0.0004936467055813409,-0.003467475844081491,675.0,0.013401769567281008,0.0,0.00546875,0.0011111111111111111,-0.7151948488237394,0.0,-13.206669378901463,2,0.294468536567854,0.08132188823074102,0.13853755220770836,7.034750631809364,0.786821791352752,0.13357595093548297,0.0,-26.904393521821966,0.0,-22.88292838206293,-0.9844155535101891,-0.9972598269581795,2700.0,-0.03314443388953805,0.0,0.23097399696707727,-0.009325070632621646,-7.587644936861014,-7.1505905898331275,300.0,-7.123315678883758,0.18122028075158597,-7.270169549204842,0.0,273062.0,0.001806640625,-7.039825108338422,6.024205312601059,-2.1016193938710783,-12.137602125443001,-7.583889161287397
100.0,-0.006318218575324863,-0.0007266817294294015,675.0,0.010732928104698659,0.0,0.0233154296875,0.0,-0.7091202918483759,0.0,-13.29590212402496,3,0.24020125368130354,0.08581479210406542,0.1520645823329687,8.827979907025286,0.40860163557481516,0.14528644755482673,0.0,-26.999999985812796,0.0,-26.73962899512755,-0.9833136051893234,-0.9978304296731949,2700.0,-0.03930192403495312,0.0,0.24921258129179477,-0.011206770176067948,-7.276367577277417,-6.754625983746922,400.0,-8.87437482579313,0.20368259251117707,-9.009059643309199,0.0,364187.0,0.0012939453125,-8.832187117913186,5.749649626365564,-2.090033273069275,-13.292026693774392,-7.2756544255766915
125.0,-0.03363671144470572,-0.0006603476052987389,675.0,0.009546575602144003,0.0,0.0283447265625,0.0,-0.7051699675823329,0.0,-12.251237489635312,4,0.19359913744090718,0.09142516143620014,0.1572927739471197,8.693989733608921,15.209495190940197,0.17460935637354852,0.0,-27.0,0.0,-26.913105166251626,-0.9819376230239868,-0.9980840757489204,2700.0,-0.04513242095708847,0.0,0.26475696712732316,-0.009727422008290887,-5.118322971080998,-4.180078776230614,500.0,-8.735883349008068,0.2127980377525091,-8.85204569854504,0.0,455312.0,0.0013671875,-8.689215284719433,11.200141746448308,-2.098427305057703,-10.2660122063856,-3.192512949583404
150.0,-0.03983096927404404,-0.0016665018163621425,675.0,0.008103753870818764,0.0,0.0495361328125,0.0,-0.699904287289246,0.0,-18.232588740577015,5,0.15545396822540714,0.09765738882124424,0.16035147830843927,9.102719073513565,61.35967352859173,0.20232378803193568,0.0,-27.0,0.0,-27.0,-0.9804091066122055,-0.9983925670385361,2700.0,-0.044165775179862976,0.0,0.2761270999908447,-0.009533321508206427,-20.206242133628827,-25.096811488161343,600.0,-9.137066544672907,0.21337169408798218,-9.265562544536582,0.0,546437.0,0.00146484375,-9.101818934525475,26.999226569611245,-2.1104560153980856,-26.999999982065503,-22.47148565518478
175.0,-0.03673357646912336,-0.0015297852078219876,675.0,0.007381495891604572,0.0,0.0468017578125,0.0,-0.6988096233850228,0.0,-25.582685306913206,6,0.14832487623876495,0.09196202531456947,0.16436331048607827,9.309084441249242,20.686676456180386,0.21585394032299518,0.0,-27.0,0.0,-27.0,-0.981805944442749,-0.9985469788312912,2700.0,-0.04416188597679138,0.0,0.28544820174574853,-0.014563356526196003,-21.37080805147961,-26.99987354201367,700.0,-9.33524920188828,0.21337299048900604,-9.486567560605554,0.0,637562.0,0.0010009765625,-9.307704195196042,27.0,-2.0717745550173277,-27.0,-22.212958701746306
200.0,-0.0363738258369267,-0.003942466911394149,675.0,0.006943098956253379,0.0,0.0590576171875,0.0077777777777777776,-0.7001870555453934,0.0,-24.52210062350874,7,0.16778970810004584,0.08666309975087642,0.16711458303034304,9.366525553505321,2.2065258328524537,0.22283474318683147,0.0,-23.08976393289857,0.0,-25.820001893884857,-0.9831055641174317,-0.9986407101154328,2700.0,-0.0536325647495687,0.0,0.2966943718492985,-0.019274961855262517,-5.56365790807161,-4.589305485564175,800.0,-9.386611067395654,0.21558546349406243,-9.533320600746178,0.0,728193.0,0.00166015625,-9.365860146642785,3.8449266492190235,-2.0877563934314822,-4.606947957724318,-5.607244760960343
225.0,-0.03648690516129136,-0.0037501580372918397,698.0,0.007230306859128177,0.0,0.0358642578125,0.02925925925925926,-0.7024878953408915,0.03581661891117478,-10.665436059244863,8,0.18412623225226551,0.08449688851833344,0.1717089582234621,9.243598417204547,1.7197221515318493,0.22333268821239471,0.0,-24.430119686148384,0.0,-24.28647766871095,-0.9836368441581727,-0.9985793024301529,2700.0,-0.050669058412313464,0.0,0.3117763355374336,-0.02150923372246325,-6.679230422132084,-5.828660972410805,900.0,-9.263511590154755,0.2395270373672247,-9.424383966992803,0.0,817653.0,0.001220703125,-9.24139260539562,4.267625985746017,-2.1025361961932503,-9.777109247179256,-6.686622702592203
250.0,-0.04006552193313837,-0.004330920311622322,675.0,0.00768920686095953,0.0,0.044189453125,0.016666666666666666,-0.7057713573194633,0.0,-11.119907178293598,9,0.19565307906866347,0.08341893516480922,0.17578954584896564,9.150254671890163,5.329358994309088,0.22614422850310803,0.0,-27.0,0.0,-26.225736110836817,-0.983901233971119,-0.9984811887145042,2700.0,-0.05314690219238401,0.0,0.324005164206028,-0.01941222567111254,-2.1885589381259525,-0.050247007576999105,1000.0,-9.194156060700536,0.2485022831708193,-9.324975784301165,0.0,907825.0,0.0016357421875,-9.148202275658207,0.15402023751037702,-2.151826099806203,-0.5084423225018037,-1.5518092496190001
275.0,-0.042732886224985125,-0.005151213239878416,675.0,0.007887567579746246,0.0,0.051806640625,0.0,-0.7077398979214194,0.0,-8.189562488075753,10,0.18534930401334004,0.07891327496618032,0.18049854524433612,9.092247373840449,0.7667426399396036,0.23343471772968769,0.0,-27.0,0.0,-27.0,-0.9850062847137451,-0.9984387859702111,2700.0,-0.05181652596220374,0.0,0.3321733847260475,-0.020621465146541597,-2.135089059232178,-0.01942429701226005,1100.0,-9.143250364477703,0.25533509999513626,-9.286377702332114,0.0,998950.0,0.0013916015625,-9.090054734677201,2.844505045046659,-2.1200788245303555,-7.853333723369383,-2.1048994123790257
300.0,-0.04464053837582469,-0.0056931838858872656,675.0,0.007535902946256101,0.0,0.0496826171875,0.0,-0.7116593277438369,0.0,-11.186928723281973,11,0.22013177454547037,0.07995515074580908,0.18618786782026292,9.275214003035796,0.6036128473295612,0.24270244911313058,0.0,-27.0,0.0,-27.0,-0.9847507581114769,-0.9985139667987823,2700.0,-0.0540378843434155,0.0,0.34193616807460786,-0.02258610804565251,-2.1107503740156304,-0.00932014214702179,1200.0,-9.320431258262392,0.260252483189106,-9.453074899349351,0.0,1090075.0,0.001318359375,-9.26790520004548,2.081490911988552,-2.104350473793602,-2.639376908337492,-2.1002265174102783
325.0,-0.04642420904710889,-0.006539799203164875,675.0,0.007998964877333491,0.0,0.03935546875,0.0,-0.7124521104509768,0.0,-11.632282504911393,12,0.21307165717311224,0.07711864486336709,0.1902415845543146,9.34431407581727,1.0302989328073768,0.2531696118414402,0.0,-27.0,0.0,-27.0,-0.9854464367032051,-0.9984149634838104,2700.0,-0.055995217990130186,0.0,0.3511407598853111,-0.02540113739669323,-2.131393811685203,-0.06605269254774482,1300.0,-9.388794437268956,0.26290991008281706,-9.54246512690853,0.0,1181200.0,0.0017333984375,-9.343713932645837,1.8165955653512083,-2.085789623394521,-3.854909449383736,-2.1326444067651353
350.0,-0.0490440271794796,-0.006314513157121837,675.0,0.007200845389161259,0.0,0.0380859375,0.0,-0.7103889939673536,0.0,-17.421776673286352,13,0.17523032608455513,0.07197754606604576,0.1935282289981842,9.39760558554049,123.9982193381954,0.25921092480421065,0.0,-27.0,0.0,-27.0,-0.9867073431611061,-0.9985856115818024,2700.0,-0.055226737167686224,0.0,0.35750954374670985,-0.028069601906463505,-22.079591950440413,-27.0,1400.0,-9.445003538962418,0.2688740685582161,-9.593300973152884,0.0,1272325.0,0.00166015625,-9.392242436068113,26.992708500760216,-2.075030915284151,-26.996322510995032,-26.999300596645547
375.0,-0.0499464325606823,-0.006481393123976886,675.0,0.006623236718587578,0.0,0.0317138671875,0.0,-0.7101455662705121,0.0,-26.996642902947986,14,0.16339996876617954,0.0688991203904152,0.1950999304652214,9.476271037081068,26.828070974805303,0.26393557637929915,0.0,-27.0,0.0,-27.0,-0.987462368607521,-0.9987091004848481,2700.0,-0.05623630378395319,0.0,0.3608773350715637,-0.030245287390425802,-21.86613547388608,-27.0,1500.0,-9.527501415581101,0.2688129246234894,-9.67778281983485,0.0,1363450.0,0.00234375,-9.471137591156886,13.502648143701965,-2.1257868410735683,-26.999999873102766,-22.754904353770044
400.0,-0.050142515916377306,-0.006993867561686784,675.0,0.006288064795080572,0.0,0.0514404296875,0.0,-0.7064094244487933,0.0,-26.999998813032665,15,0.16271921662905522,0.06532606752589346,0.19709866642951965,9.402683903397392,20.863930889715142,0.26960494443774224,0.0,-27.0,0.0,-27.0,-0.9883386790752411,-0.9987807661294937,2700.0,-0.05650608399882913,0.0,0.3669747181236744,-0.030111441295593976,-21.91065078528014,-27.0,1600.0,-9.447964726182203,0.26894297227263453,-9.596699027131198,0.0,1454575.0,0.0019775390625,-9.398428445108829,13.423959785066092,-2.1121625040301297,-26.999927023622142,-22.71055192822985
425.0,-0.050039672292768955,-0.006721132819075137,675.0,0.005861203360836953,0.0,0.0191162109375,0.0,-0.7064794711543072,0.0,-26.968331356625143,16,0.16258036557722572,0.06175444982945919,0.1995235849171877,9.374944987577889,19.102296030666245,0.2745369881391525,0.0,-27.0,0.0,-27.0,-0.9892146676778794,-0.9988720268011093,2700.0,-0.05870707528665662,0.0,0.37288172692060473,-0.031405070703476666,-21.997287014662533,-27.0,1700.0,-9.42568295073377,0.27027731463313104,-9.575852024099147,0.0,1545700.0,0.001904296875,-9.371668663550162,10.380330652374756,-2.096731350600021,-18.114430212170685,-22.760753739409406
450.0,-0.05092773688957095,-0.006531944777816534,675.0,0.0057690600398927925,0.0,0.01806640625,0.0,-0.7098096336652816,0.0,-25.63968899637231,17,0.15125949401596447,0.05854237023741007,0.20259114503860473,9.420496863272714,15.419031317516106,0.2812542900443077,0.0,-27.0,0.0,-27.0,-0.9900024488568306,-0.9988917306065559,2700.0,-0.06162835219874978,0.0,0.3782814905047417,-0.03166467044502497,-22.035493900864516,-27.0,1800.0,-9.479485466265302,0.2739794202148914,-9.633422190705186,0.0,1636825.0,0.001708984375,-9.416344964439364,8.472044183806155,-2.0755065961770014,-17.687930472542508,-22.506416723125525
475.0,-0.053215714171528816,-0.006439256959129125,675.0,0.00573877525748685,0.0,0.016259765625,0.0,-0.7074935352931788,0.0,-19.87186461144913,18,0.1433219832279044,0.057730582635849716,0.20599024444818498,9.40913955424189,10.96829768267472,0.28920046910643576,0.0,-27.0,0.0,-27.0,-0.990201561152935,-0.9988982021808624,2700.0,-0.06232537878677249,0.0,0.3829836532473564,-0.03139844634570181,-22.15512225832454,-27.0,1900.0,-9.469597840832833,0.27774614542722703,-9.62158182520692,0.0,1727950.0,0.00205078125,-9.40661880280758,9.049635665183143,-2.1208454028557755,-10.91675828782396,-22.304418873661778
500.0,-0.05646082498133183,-0.006849248800426722,675.0,0.005815261241514236,0.0,0.0167236328125,0.0,-0.7082666089110716,0.0,-16.658975191615582,19,0.1385737182286936,0.05592006724327803,0.20896315276622773,9.404041090796886,2.2098939747110675,0.29309999868273734,0.0,-27.0,0.0,-27.0,-0.9906455978751183,-0.9988818362355232,2700.0,-0.06249995743855834,0.0,0.3865417420864105,-0.030783481104299425,-14.257153348634745,-16.394115141663775,2000.0,-9.466371163676044,0.2797248922288418,-9.62022937285197,0.0,1819075.0,0.0021484375,-9.40051075710135,5.420790593891533,-2.090793988720543,-9.912216827975156,-14.293546909487134
525.0,-0.05926196603104472,-0.007203480997122824,675.0,0.006075428507756442,0.0,0.0254638671875,0.0,-0.7087881128820299,0.0,-15.882592163507711,20,0.14162205109482967,0.05792779810726643,0.21252970322966575,9.430941653239383,1.7634081060461653,0.2962274745106697,0.0,-27.0,0.0,-27.0,-0.9901531904935836,-0.9988262295722962,2700.0,-0.06026639342308045,0.0,0.39432215839624407,-0.02890296233817935,-12.491016919561018,-14.193728914069515,2100.0,-9.495780279135056,0.2784330204129219,-9.65106035059003,0.0,1910200.0,0.0019287109375,-9.427724516741176,5.82858335182893,-2.0751303001517956,-13.396623780826495,-12.490090513383002
550.0,-0.05960204768925905,-0.0073983326321467755,675.0,0.005929271806962788,0.0,0.012353515625,0.0,-0.7073877214948879,0.0,-14.196522100803659,21,0.1362275977825492,0.059812744800001386,0.21544289514422416,9.454831776104642,1.3329887390150883,0.2969845175743103,0.0,-27.0,0.0,-27.0,-0.9896908730268479,-0.9988574758172035,2700.0,-0.06004791855812073,0.0,0.40199385210871696,-0.02792060780338943,-12.373670342282765,-14.055235296028979,2200.0,-9.515785646120168,0.27907398492097857,-9.671417445544597,0.0,2001325.0,0.0015625,-9.452582268330683,5.214161297608442,-2.130026102998818,-12.322437677650065,-12.362471294172627
575.0,-0.06027587801218033,-0.007752383186016232,675.0,0.005995658587198705,0.0,0.0236083984375,0.0,-0.7041701756432304,0.0,-14.154099161223787,22,0.13426866092067402,0.06176521517336368,0.21718543395400047,9.332195580344496,1.0285016641896216,0.2990859590470791,0.0,-27.0,0.0,-27.0,-0.989212018251419,-0.9988432839512825,2700.0,-0.059784418623894456,0.0,0.4075410827994347,-0.026746969437226653,-12.313647912607529,-14.027257217754743,2300.0,-9.391688481797846,0.28070091381669043,-9.543790174503988,0.0,2092450.0,0.001318359375,-9.329490251491713,5.070098159611644,-2.101661671619513,-13.20207787697184,-12.322493862508987
600.0,-0.06139925718307495,-0.008484961534850299,675.0,0.005602719006128609,0.0,0.010986328125,0.0,-0.7056404043454677,0.0,-14.09303551107579,23,0.12232751795364352,0.06320423819124699,0.21912496387958527,9.382987007718564,0.9215762845714245,0.3020076647400856,0.0,-27.0,0.0,-27.0,-0.9888590708374977,-0.9989273026585579,2700.0,-0.06019448405131698,0.0,0.4132468789815903,-0.027385458489879964,-12.302833133627257,-14.016359108594617,2400.0,-9.444096747377518,0.2812783867120743,-9.598789268472022,0.0,2183575.0,0.0013671875,-9.378730321854885,5.37149706070335,-2.1112752426131918,-12.687613170159702,-12.301876460303651
625.0,-0.062315710633993146,-0.008631580322980881,675.0,0.005505430977791548,0.0,0.0117919921875,0.0,-0.7080067618575413,0.0,-13.993133725567095,24,0.12801943253613263,0.06342934463173151,0.22190517894923686,9.369199784826638,0.7012606128708272,0.30444061383605003,0.0,-27.0,0.0,-27.0,-0.9888038635253906,-0.9989480957388878,2700.0,-0.06058991318568587,0.0,0.41838953718543054,-0.02742022960446775,-12.40338773194208,-14.033601344636754,2500.0,-9.437822487293333,0.2802256040275097,-9.591537906031206,0.0,2274700.0,0.0013427734375,-9.366384479391495,5.614193462674799,-2.122917559844791,-13.227756882216184,-12.42188909696173
650.0,-0.06332221478223801,-0.008742246613837778,675.0,0.00537368276854977,0.0,0.01025390625,0.0,-0.7099739709381538,0.0,-13.981725030214465,25,0.125583593809291,0.06356880068778992,0.22432637959718704,9.41052880640498,0.943572697606014,0.3069770157337189,0.0,-27.0,0.0,-27.0,-0.9887696534395218,-0.998976257443428,2700.0,-0.06013486906886101,0.0,0.42497758492827414,-0.02633689669892192,-12.516721860440239,-14.024169751757094,2600.0,-9.482023636775494,0.2820580653846264,-9.634420806215154,0.0,2365825.0,0.0015869140625,-9.406813200942404,5.261398915210013,-2.129040595005063,-11.216603274912773,-12.520187618823716
675.0,-0.06418295055627823,-0.009548860508948565,675.0,0.005914773605763912,0.0,0.0218505859375,0.0,-0.7135172012007388,0.0,-14.072872805987146,26,0.1327269331163145,0.06592244720086456,0.2267354667186737,9.459614367112223,0.8022303760439478,0.3102444909512997,0.0,-27.0,0.0,-27.0,-0.9881924137473106,-0.9988605722784996,2700.0,-0.05955293281003833,0.0,0.4303526677191257,-0.025138452649116516,-12.56405725822403,-14.06108816655689,2700.0,-9.53219238634291,0.28487704545259473,-9.684681142841004,0.0,2456950.0,0.001708984375,-9.455332202556097,5.628870959042262,-2.106559585427749,-13.29948438108301,-12.56684766939836
700.0,-0.06491574794054031,-0.010072934348136187,675.0,0.006323580117896199,0.0,0.0220703125,0.0,-0.7157195923136896,0.0,-14.055944737833322,27,0.14030961786444862,0.06831744126975536,0.22947358340024948,9.426365351069084,1.0430196611512745,0.31353367641568186,0.0,-27.0,0.0,-27.0,-0.9876050174236297,-0.998773169517517,2700.0,-0.05942995008081198,0.0,0.4346353456377983,-0.024609355488792062,-12.580608894824666,-14.00529703961912,2800.0,-9.502241556022856,0.28578960299491885,-9.65758376680933,0.0,2548075.0,0.0013671875,-9.421047154459064,5.325022668354488,-2.102261980708863,-14.057950015517509,-12.57054859899774
725.0,-0.06602295022457838,-0.010368963051587344,675.0,0.00634115053107962,0.0,0.0104736328125,0.0,-0.7171581438087742,0.0,-14.109720343172397,28,0.13993941674850374,0.07118081031367182,0.23312002904713153,9.463527260556337,1.0103100890058183,0.3162865094840527,0.0,-27.0,0.0,-27.0,-0.9869027450680733,-0.9987694218754768,2700.0,-0.059192629810422656,0.0,0.43879972472786904,-0.02284041503444314,-12.664830047687756,-14.058248628665051,2900.0,-9.544024812475673,0.2877979472279549,-9.695711872822766,0.0,2639200.0,0.0015869140625,-9.459149000431434,5.202791801971289,-2.048419634248421,-14.462771537912621,-12.634095583637961
750.0,-0.0669887688010931,-0.01025555431842804,675.0,0.006781356746796518,0.0,0.0190673828125,0.0,-0.7200773932774609,0.0,-14.207458286583407,29,0.14202502517117788,0.07424413599073887,0.23744406066834928,9.5705665368985,0.6634851508758783,0.31863848865032196,0.0,-27.0,0.0,-27.0,-0.9861514255404472,-0.9986752852797508,2700.0,-0.05875479765236378,0.0,0.4430643916130066,-0.02294137361459434,-12.52126642102569,-14.027479012296169,3000.0,-9.652214045833299,0.2901420257985592,-9.807816587212775,0.0,2730325.0,0.001318359375,-9.56782919775021,4.838236630598712,-2.0505464195353853,-13.070052989128028,-12.5101169693473
775.0,-0.06823800057172776,-0.010475776181556285,675.0,0.006909093714784831,0.0,0.0150634765625,0.0,-0.7176223313574155,0.0,-14.134769415368856,30,0.14041300717877997,0.07542396243661642,0.24110388047993184,9.412951478374513,0.5273327833556671,0.3207721158862114,0.0,-27.0,0.0,-27.0,-0.9858620733022689,-0.998647989332676,2700.0,-0.05883748047053814,0.0,0.4470564007759094,-0.023478011088445782,-12.431624348094875,-14.031212350153112,3100.0,-9.498004514149322,0.29223098158836364,-9.650376336327922,0.0,2821450.0,0.00166015625,-9.409808558795847,5.010896028769731,-2.0353992963864584,-12.435564482495668,-12.41279690444886
800.0,-0.06886091679334641,-0.010667747422121465,675.0,0.006708658882416785,0.0,0.0141845703125,0.0,-0.7195358485565521,0.0,-14.08906594591546,31,0.14394858452881612,0.07792007438838482,0.24456552043557167,9.506610355767979,0.6995864735128081,0.32209992334246634,0.0,-27.0,0.0,-27.0,-0.9852498680353164,-0.9986908450722695,2698.0,-0.05901961904019117,0.0,0.45165884867310524,-0.025392612908035517,-12.42383314689324,-14.040864032111937,3200.0,-9.588610502750978,0.29418778941035273,-9.740118277966047,0.01,2912519.0,0.001416015625,-9.500945685039621,4.601144084206385,-2.073069272788416,-13.693773495058467,-12.41842767184622
825.0,-0.06976127605885267,-0.011063286382704974,675.0,0.006720024556852877,0.0,0.01337890625,0.0,-0.7177401999761059,0.0,-14.123472727324627,32,0.14484511471562728,0.08090766444802285,0.24728335551917552,9.524879446591976,0.8575293872047235,0.3235484264791012,0.0,-27.0,0.0,-27.0,-0.9845171332359314,-0.9986883968114852,2700.0,-0.05934515120461583,0.0,0.45560548529028894,-0.023564424458891155,-12.380162590334411,-13.983506129752266,3300.0,-9.602974499008585,0.2957367777824402,-9.754059286675409,0.0,3003644.0,0.0017333984375,-9.519549729685709,4.794748434821039,-2.0697976317555002,-12.094291143941692,-12.35698630942848
850.0,-0.07076300755143165,-0.011585565167479217,675.0,0.006451991305220872,0.0,0.0188720703125,0.0,-0.717012017248635,0.0,-14.053674641487378,33,0.13521748607796194,0.08249247074127197,0.25024153888225553,9.481172641494794,0.6052629844537385,0.32565731927752495,0.0,-27.0,0.0,-27.0,-0.9841284483671189,-0.9987457111477852,2700.0,-0.05946036530658603,0.0,0.4613670513033867,-0.023895115265622734,-12.368003251754404,-14.018082420876652,3400.0,-9.558851336643164,0.2965079821646214,-9.712792301027854,0.0,3094769.0,0.001708984375,-9.475635135239653,5.128816086157333,-2.0733874673787795,-13.519087479840678,-12.367993464262534
875.0,-0.07172509394586087,-0.011705985106527806,675.0,0.00633686437504366,0.0,0.01552734375,0.0,-0.7167557697044685,0.0,-14.066943540376519,34,0.13324725400930987,0.08114566057920455,0.2526285633444786,9.547412985368975,0.6606037275628471,0.32805914878845216,0.0,-27.0,0.0,-27.0,-0.984458789229393,-0.998770321905613,2700.0,-0.059793466608971356,0.0,0.4661417841911316,-0.02437630146741867,-12.34077897175625,-13.99626174316839,3500.0,-9.622303324130426,0.2978265084326267,-9.776490869932918,0.0,3185894.0,0.001708984375,-9.54189628670051,5.163276653534102,-2.046428602279775,-14.060923874361368,-12.336876475049703
900.0,-0.07276157885789872,-0.011813779245130718,675.0,0.006387949385680258,0.0,0.0131103515625,0.0,-0.7176048013017862,0.0,-13.997732465059682,35,0.13674435707417254,0.08210962153971195,0.25576846227049826,9.504941599183137,0.5913589045307897,0.33061485514044764,0.0,-27.0,0.0,-27.0,-0.9842223495244979,-0.9987594082951545,2700.0,-0.06004726178944111,0.0,0.47139219790697096,-0.025028690649196505,-12.458942441557276,-13.99664537658063,3600.0,-9.581690559999117,0.2997314639389515,-9.738043820489231,0.0,3277019.0,0.0015869140625,-9.499567265770281,5.01018946834313,-2.1080169340886643,-12.405762468471776,-12.450329762158223
925.0,-0.0738005118444562,-0.012098019220866263,675.0,0.006246633699629456,0.0,0.0117431640625,0.0,-0.7168996931155561,0.0,-14.100466165801906,36,0.13617638342515317,0.07876073196530342,0.2585723131895065,9.4926109628849,0.6908677555514211,0.3323937483131886,0.0,-27.0,0.0,-27.0,-0.9850436925888062,-0.9987896054983139,2700.0,-0.060289473831653596,0.0,0.4759243972599506,-0.024688966991379856,-12.512798277396788,-14.075760505588676,3700.0,-9.571057145247332,0.30239043682813643,-9.724599972048633,0.0,3368144.0,0.0016845703125,-9.488314717089555,5.2382413083266535,-2.1159105197199097,-12.186709182193152,-12.515725757741274
950.0,-0.07434750702232122,-0.01256415918469429,675.0,0.006416666891891509,0.0,0.0121826171875,0.0,-0.7175406959482643,0.0,-13.971616807026267,37,0.14106333598866247,0.0772073669359088,0.26153158470988275,9.456984507892178,0.48368933336026404,0.3344167277216911,0.0,-27.0,0.0,-27.0,-0.9854246705770493,-0.9987532794475555,2700.0,-0.06023194212466478,0.0,0.48040662705898285,-0.024410673044621946,-12.598157569049675,-14.01303718624232,3800.0,-9.536059170093449,0.3033889576792717,-9.691532593417598,0.0,3459269.0,0.0013916015625,-9.452486301544045,5.289583168229934,-2.0892333322699415,-11.825119168153362,-12.603685975856937
975.0,-0.07517380267381668,-0.013049423368647695,675.0,0.006270172994118184,0.0,0.0111083984375,0.0,-0.7182765716184804,0.0,-13.98506788776684,38,0.1420120142057347,0.07927766088396311,0.2649716757237911,9.456923816951974,0.47617626795123014,0.3361387275159359,0.0,-27.0,0.0,-27.0,-0.9849169194698334,-0.9987845838069915,2700.0,-0.060858262982219455,0.0,0.4863889366388321,-0.023609230853617193,-12.632824444672618,-13.995989782862159,3900.0,-9.539933008620071,0.30367015972733497,-9.692985300291852,0.0,3550394.0,0.0019775390625,-9.453124396659394,5.587349397298672,-2.066469686754863,-12.887311400281819,-12.63643930355748
1000.0,-0.07612845469266176,-0.013833711994811893,675.0,0.006203413917683065,0.0,0.010498046875,0.0,-0.7182959148849477,0.0,-13.94398090518602,39,0.14302558652257416,0.08039312995970249,0.2678202077746391,9.467764213453822,0.5813914753099635,0.3377846986055374,0.0,-27.0,0.0,-27.0,-0.9846433430910111,-0.9987988516688346,2700.0,-0.06194630451500416,0.0,0.4916223086416721,-0.02367534674704075,-12.692582837320392,-14.047979450876516,4000.0,-9.549351350216165,0.3046395517885685,-9.700860479251554,0.0,3641519.0,0.0017333984375,-9.463600846888074,5.044062296575142,-2.103954966679157,-12.18197116445472,-12.697895947251416
1025.0,-0.07644821852445602,-0.014163964800536633,675.0,0.006187888351269067,0.0,0.009326171875,0.0,-0.7173210123262834,0.0,-14.05081095593698,40,0.1389728823644621,0.08087832517921925,0.27042815238237383,9.494966776499078,0.6255679546655327,0.3400114730000496,0.0,-27.0,0.0,-27.0,-0.9845243349671364,-0.9988021776080132,2700.0,-0.06197202131152153,0.0,0.4972547754645348,-0.02469084905460477,-12.633298871881143,-14.023639462452499,4100.0,-9.571137044817059,0.30487938448786733,-9.726453147900646,0.0,3732644.0,0.0015869140625,-9.490073732399676,4.8702116298249285,-2.050916952011903,-11.877796408723365,-12.634898662316294
1050.0,-0.07723575215786696,-0.014312411868013441,675.0,0.0061077535734511915,0.0,0.0176513671875,0.0,-0.7146684459861717,0.0,-14.08255004382642,41,0.13697093164136523,0.08370157144963741,0.2728538282215595,9.409463122789582,0.832644476239366,0.34255404472351075,0.0,-27.0,0.0,-27.0,-0.9838319048285484,-0.998819325864315,2700.0,-0.06258910559117795,0.0,0.5010615155100823,-0.02408226397819817,-12.574481621276641,-13.967323509142313,4200.0,-9.484288172162447,0.30636183768510816,-9.635767145151394,0.0,3823769.0,0.001611328125,-9.403810624203533,5.199065665765978,-2.1136200540335266,-13.451677384117911,-12.566070537104883
1075.0,-0.07822127770632506,-0.01458699193317443,675.0,0.005966556002385914,0.0,0.01240234375,0.0,-0.7157455521839438,0.0,-14.029209929826223,42,0.1379770500210483,0.08578243050724269,0.27591331079602244,9.575432244130429,0.5736629126454911,0.344408094137907,0.0,-27.0,0.0,-27.0,-0.9833215549588203,-0.9988495066761971,2700.0,-0.06344053521752357,0.0,0.5054291680455207,-0.02260269713588059,-12.594658378560359,-14.013137707156641,4300.0,-9.649786285253999,0.3077953696250916,-9.805052824504795,0.0,3914894.0,0.001806640625,-9.571518731693029,5.385167316291724,-2.118601694237441,-12.902920812336099,-12.595507529600493
1100.0,-0.07878053542226553,-0.014316758909262716,675.0,0.0058689889498054985,0.0,0.0138427734375,0.0,-0.7139737557190529,0.0,-14.052802118936588,43,0.13076871680110724,0.08262288812547922,0.2785007990896702,9.514127568951121,0.4770178737940796,0.3465362057089806,0.0,-27.0,0.0,-27.0,-0.9840964779257775,-0.9988703697919845,2700.0,-0.06340298503637314,0.0,0.5103764101862908,-0.022327724425122143,-12.561237765797127,-14.012345033604737,4400.0,-9.584964280135083,0.3090176202356815,-9.739801621240153,0.0,4006019.0,0.0018310546875,-9.509147688805157,5.173048349909737,-2.1626659069996093,-12.761208599589919,-12.559075035782797
1125.0,-0.07954705357551575,-0.014626553165726364,675.0,0.005985351593699307,0.0,0.018798828125,0.0,-0.7152186404025997,0.0,-13.96798798391541,44,0.1320358236227987,0.07716951314359903,0.28059135377407074,9.4703337953585,0.6709988486470205,0.3490021646022797,0.0,-27.0,0.0,-27.0,-0.9854339614510537,-0.9988454893231392,2700.0,-0.06383610181510449,0.0,0.5142534777522088,-0.02257139664143324,-12.574313012997523,-14.016857271537617,4500.0,-9.546753052754243,0.3087990559637547,-9.702011153160408,0.0,4097144.0,0.00166015625,-9.466207715718781,5.49947586282404,-2.137577817038982,-13.379772418734044,-12.573218682912687
1150.0,-0.08016476426273585,-0.014871923276223243,675.0,0.005829391465522349,0.0,0.0120361328125,0.0,-0.717054160736734,0.0,-13.990384926358695,45,0.1418716770497969,0.07578468509018421,0.2832476235926151,9.421653715520161,0.39370865098214936,0.3514610730111599,0.0,-27.0,0.0,-27.0,-0.9857736051082611,-0.9988788276910782,2700.0,-0.06430844645947217,0.0,0.5190185979008675,-0.022963559394702314,-12.682268892799964,-13.986611221545564,4600.0,-9.50118968417358,0.3088491313159466,-9.65495944203759,0.0,4188269.0,0.001318359375,-9.416032923836399,5.235650470342961,-2.1213413903657057,-13.12117975076872,-12.67777532404622
1175.0,-0.08045562598854303,-0.014622949808835984,675.0,0.005845383810810745,0.0,0.011572265625,0.0,-0.7205680762228439,0.0,-14.155882793554122,46,0.1409038365826878,0.07650804705917835,0.2850045472383499,9.576321840262128,0.3474265437802449,0.3541173882782459,0.0,-27.0,0.0,-27.0,-0.9855961859226227,-0.9988754197955132,2700.0,-0.06472509335726499,0.0,0.5232288926839829,-0.023757743556052445,-12.698102159770764,-14.013027359830641,4700.0,-9.660505074907196,0.3089826740324497,-9.815929574292083,0.0,4279394.0,0.001416015625,-9.571717500187528,5.109543137831056,-2.132239012673381,-12.413592802974518,-12.702169097757452
1200.0,-0.08112969696521759,-0.01454958172980696,675.0,0.005596204963512719,0.0,0.0109375,0.0,-0.7215346554228745,0.0,-13.999271648946841,47,0.13938142436329753,0.07469477020204067,0.28717506900429723,9.56293428922509,0.4035493142082963,0.3565723218023777,0.0,-27.0,0.0,-27.0,-0.9860409036278724,-0.9989286944270134,2700.0,-0.064833895675838,0.0,0.527390418946743,-0.023618344916030765,-12.74937932999004,-13.990417379539583,4800.0,-9.650173659562649,0.30992691218852997,-9.804945397399104,0.0,4370519.0,0.0016845703125,-9.557356740585558,5.178162303820559,-2.0738065887075208,-13.525416026639652,-12.749518382961867
1225.0,-0.08145129084587097,-0.014909364678896964,675.0,0.005870016501285135,0.0,0.01123046875,0.0,-0.7204799938917859,0.0,-14.02687365752294,48,0.14240270624133472,0.07435720022767782,0.28840507119894027,9.416156372808858,0.5220826179137072,0.35873331129550934,0.0,-27.0,0.0,-27.0,-0.9861237019300461,-0.998870138823986,2700.0,-0.0648411639034748,0.0,0.5315738543868065,-0.024164215428754687,-12.718288462493078,-14.031397533370136,4900.0,-9.503822387945194,0.3113334223628044,-9.657624586953556,0.0,4461644.0,0.0014892578125,-9.410625687766142,5.1943199022992275,-2.0977249387069605,-12.8072673848824,-12.724150719762854
1250.0,-0.08185377176851034,-0.015374198392964899,675.0,0.005699248728342354,0.0,0.00986328125,0.0,-0.7204982493203715,0.0,-14.101569604970425,49,0.13885583252738357,0.08001829478889703,0.29037341848015785,9.406313302473281,0.5078885713373106,0.3610015377402306,0.0,-27.0,0.0,-27.0,-0.9847352728247643,-0.9989066451787949,2700.0,-0.0649246122688055,0.0,0.5353713661432267,-0.023851835215464235,-12.741451919852741,-14.009650962881114,5000.0,-9.497762857606599,0.31255693435668946,-9.648912945585398,0.0,4552769.0,0.0016357421875,-9.40149351102652,4.814986148423932,-2.1127533747363487,-11.463971279931476,-12.736656196439787
1275.0,-0.08275077007710933,-0.015288059436716139,675.0,0.005874653614591807,0.0,0.01220703125,0.0,-0.7212851620839501,0.0,-14.064788064299764,50,0.13887624088668754,0.08202523458749056,0.29207516461610794,9.464459617515065,0.5663155895223007,0.36404137387871743,0.0,-27.0,0.0,-27.0,-0.9842430457472802,-0.9988691478967666,2700.0,-0.06503002624958754,0.0,0.53865537494421,-0.023509791074320673,-12.668887183407577,-13.984007232065062,5100.0,-9.552624783376748,0.31328642591834066,-9.705994641511868,0.0,4643894.0,0.0015380859375,-9.458686392365642,4.8319427664756045,-2.1290966188018503,-12.788988836571276,-12.66356575034284
1300.0,-0.08341254964470864,-0.015302621014416217,675.0,0.005677836399991065,0.0,0.010986328125,0.0,-0.7218433114889194,0.0,-13.944122632008996,51,0.14475658412117012,0.08301097638905049,0.2939627081155777,9.491107790374093,0.539528304096281,0.3681019261479378,0.0,-27.0,0.0,-27.0,-0.98400127440691,-0.9989112302660942,2700.0,-0.06577521432191133,0.0,0.541294576227665,-0.02400782094337046,-12.701524019215048,-14.011598581565963,5200.0,-9.578642642641102,0.3135076276957989,-9.732463483957435,0.0,4735019.0,0.0015869140625,-9.486668268071757,5.044439431141829,-2.1099938038059918,-13.54270604839333,-12.701567904412153
1325.0,-0.0841340871527791,-0.015113886701874435,675.0,0.00571601465344429,0.0,0.0120849609375,0.0,-0.7193001679392182,0.0,-14.051418666076907,52,0.1445758348791928,0.08519278448075056,0.29597226455807685,9.447898680264984,0.4641289314020508,0.3722736217081547,0.0,-27.0,0.0,-27.0,-0.9834661677479744,-0.9989030838012696,2700.0,-0.06611230373382568,0.0,0.5435575366020202,-0.023876850493252277,-12.712365331811304,-14.041775306859497,5300.0,-9.529979046228314,0.31415165662765504,-9.684194723836827,0.0,4826144.0,0.0013916015625,-9.441832134421176,5.199333693751816,-2.1449435334252485,-12.661264033328356,-12.718923767557417
1350.0,-0.08480584789067507,-0.01503574016969651,675.0,0.005542320292443037,0.0,0.0100341796875,0.0,-0.7184154158087039,0.0,-13.959925363758993,53,0.14094708295925712,0.0870076309889555,0.2977367050945759,9.412313378710753,0.5304388387180002,0.37675648778676984,0.0,-27.0,0.0,-27.0,-0.9830210536718369,-0.9989402085542679,2700.0,-0.06620193365961313,0.0,0.5467390075325966,-0.02427402432076633,-12.729393563207598,-14.031621352300888,5400.0,-9.495663402094637,0.3151144340634346,-9.646983835286354,0.0,4917269.0,0.0015625,-9.407841586036994,5.31002543541464,-2.1182073081414274,-13.14930445893879,-12.733185728078917
1375.0,-0.08541454263031482,-0.015491983341053128,675.0,0.0057936882483772935,0.0,0.01240234375,0.0,-0.7209276063869765,0.0,-13.901450205828274,54,0.14634736026118364,0.08411798924207688,0.2988434612751007,9.524774399136053,0.7408142505831032,0.38084213361144065,0.0,-27.0,0.0,-27.0,-0.9837297767400741,-0.9988864630460739,2700.0,-0.06647202111780644,0.0,0.5500793695449829,-0.025264511210843922,-12.694580039289395,-13.980056297304838,5500.0,-9.608545779355579,0.3149142235517502,-9.761342866636983,0.0,5008394.0,0.0018310546875,-9.522168237028865,5.531418988964893,-2.1238228949507176,-13.988346496824482,-12.685463986852394
1400.0,-0.08595816381275653,-0.01572269485332072,675.0,0.005689244694076478,0.0,0.0124755859375,0.0,-0.7157507832460397,0.0,-13.99923017518589,55,0.13563353957381233,0.0884245153516531,0.30013188272714614,9.268305444909348,0.5202228847330982,0.3846967130899429,0.0,-27.0,0.0,-27.0,-0.9826735556125641,-0.9989087969064713,2700.0,-0.06581518109887838,0.0,0.5529136210680008,-0.025315663125365973,-12.644682131380572,-13.995129189796279,5600.0,-9.34988569496285,0.3156777903437614,-9.500726108495352,0.0,5099519.0,0.0018798828125,-9.263272374522328,4.809964488250169,-2.069327500004147,-10.228277850517975,-12.647665902941277
1425.0,-0.08674456104636193,-0.016309176618233324,675.0,0.0055166563717648385,0.0,0.010791015625,0.0,-0.7183693312494143,0.0,-13.983624702862155,56,0.13172990326387785,0.08782799430191517,0.301742872595787,9.444196028077295,0.3236886575968151,0.3885772660374641,0.0,-27.0,0.0,-27.0,-0.9828198611736297,-0.9989456906914711,2700.0,-0.06656277589499951,0.0,0.5553439259529114,-0.02535087438300252,-12.64004195174636,-14.040738582992441,5700.0,-9.530903257151897,0.3165339224040508,-9.685065115451698,0.0,5190644.0,0.0018798828125,-9.439919599432455,5.339059406617736,-2.080753190643736,-10.55466583277371,-12.645674679016334
1450.0,-0.08774616494774819,-0.016714653186500072,675.0,0.005569091055076569,0.0,0.0117919921875,0.0,-0.717533647880191,0.0,-14.01526895730619,57,0.1369567648685593,0.08531326334923506,0.3030306167900562,9.394514894755947,0.42404202244594263,0.3930427424609661,0.0,-27.0,0.0,-27.0,-0.9834366202354431,-0.9989344865083695,2700.0,-0.06662530340254307,0.0,0.5582229241728782,-0.02592972028069198,-12.580916676814041,-14.033567924238739,5800.0,-9.473560480443107,0.3164385795593262,-9.626318082139335,0.0,5281769.0,0.0018310546875,-9.389178339373185,5.403149638915835,-2.079792040427128,-12.99912103167527,-12.584427702755928
1475.0,-0.0893289502710104,-0.016971152229234576,675.0,0.005719449138268828,0.0,0.0099853515625,0.0,-0.7214238238353573,0.0,-14.00029900720434,58,0.13793156840687998,0.08805900681763887,0.3052257761359215,9.540754896658056,0.5082908351784718,0.3974432870745659,0.0,-27.0,0.0,-27.0,-0.9827632084488869,-0.9989023402333259,2700.0,-0.06695416942238808,0.0,0.5612950295209884,-0.025532133085653184,-12.587635932632091,-14.019376372523407,5900.0,-9.62894793649368,0.31679894030094147,-9.783281140124018,0.0,5372894.0,0.001416015625,-9.536710939694414,5.51151217615582,-2.0905637281684903,-12.672191830103415,-12.588394794515995
1500.0,-0.09009274169802665,-0.017298586666584015,675.0,0.005706654267851263,0.0,0.0094482421875,0.0,-0.7198748988485022,0.0,-14.110342963950114,59,0.13664515753182907,0.09068988338112831,0.30798865109682083,9.465962259691441,0.5412119003421125,0.40211174786090853,0.0,-27.0,0.0,-27.0,-0.9821179494261741,-0.9989050671458244,2700.0,-0.06641254536807537,0.0,0.5639063194394112,-0.026250735437497497,-12.669774560588824,-14.02755858230601,6000.0,-9.550931337221012,0.3171654805541039,-9.705110281264222,0.0,5464019.0,0.0015625,-9.461318153914402,5.430073724701587,-2.0738348546103227,-14.205657725664404,-12.662513167980388
1525.0,-0.09037021528929472,-0.017376453196629883,675.0,0.005697164812590927,0.0,0.0089111328125,0.0,-0.7215848976768029,0.0,-14.101795801943293,60,0.1399740461562519,0.0911813497543335,0.31059489995241163,9.512185793747369,0.4794314102923865,0.4060736566781998,0.0,-27.0,0.0,-27.0,-0.9819974184036255,-0.9989071011543273,2700.0,-0.06568860076367855,0.0,0.5671756267547607,-0.02698926697485149,-12.656360314594128,-14.003848454224089,6100.0,-9.59937283346478,0.3177292250096798,-9.7543536233027,0.0,5555144.0,0.001123046875,-9.50830021302626,5.379273076302077,-2.0462843516244904,-13.985900851532879,-12.652894053039443
1550.0,-0.09046790059655904,-0.01720045884139836,675.0,0.005740879545919597,0.0,0.0110595703125,0.0,-0.7195782713592053,0.0,-14.045723303929526,61,0.13422225595172804,0.09505995735526085,0.31256781369447706,9.465211133257796,0.604085632214233,0.4110609859228134,0.0,-27.0,0.0,-27.0,-0.9810461387038231,-0.9988977566361428,2700.0,-0.0654955854639411,0.0,0.5701133519411087,-0.026850501215085386,-12.678694287222111,-14.0254433252825,6200.0,-9.549665900745353,0.31897937655448916,-9.705182234130628,0.0,5646269.0,0.0013427734375,-9.459795140369824,5.3532814890766955,-2.0854693622524794,-14.018775484945412,-12.68153514848591
1575.0,-0.09112255442887544,-0.017251713387668132,675.0,0.005685199250001461,0.0,0.0093994140625,0.0,-0.7190959424573521,0.0,-14.017297427877597,62,0.1404214936508353,0.09824060052633285,0.3147402085363865,9.413313310042005,0.5732100150314734,0.4149695925414562,0.0,-27.0,0.0,-27.0,-0.9802660629153251,-0.9989096477627755,2700.0,-0.0652866505086422,0.0,0.573089848458767,-0.02670208397321403,-12.743657487975065,-13.98547524809191,6300.0,-9.495622061392034,0.3195322029292583,-9.647556076326444,0.0,5737394.0,0.0017333984375,-9.407547770263037,5.39110305345706,-2.1126183822649183,-13.26011200283336,-12.739413605943836
1600.0,-0.09170064926147461,-0.017631202191114425,675.0,0.0057387832668609915,0.0,0.00986328125,0.0,-0.7172347453662951,0.0,-14.014674374893733,63,0.13259945236034282,0.09989699069410563,0.3172077611088753,9.4599365170282,0.6036679539337223,0.4180748127400875,0.0,-27.0,0.0,-27.0,-0.9798598036170005,-0.998898196220398,2700.0,-0.06662228293716907,0.0,0.5756965488195419,-0.026374516915529965,-12.698691635170963,-14.039340844042036,6400.0,-9.543024699008464,0.32155297696590424,-9.694571950024418,0.0,5828519.0,0.0013671875,-9.457185493842472,5.045237345184179,-2.1090827405008894,-13.314197471215866,-12.701590501210674
1625.0,-0.09202228635549545,-0.01793646034784615,675.0,0.0056290556211024525,0.0,0.0074462890625,0.0,-0.7180521398004203,0.0,-13.991177177332068,64,0.13592370675131007,0.10389861110597849,0.3193608053028584,9.441397137180193,0.5022041207465214,0.4215099163353443,0.0,-27.0,0.0,-27.0,-0.9788783863186836,-0.9989216655492783,2700.0,-0.06662466377019882,0.0,0.5776875257492066,-0.026110964873805643,-12.63362304387646,-14.008691127873481,6500.0,-9.521940866889107,0.32209145948290824,-9.675682285081,0.0,5919644.0,0.001708984375,-9.435232867494955,5.280284368429655,-2.1080549125188552,-12.495075725541133,-12.63785248749498
1650.0,-0.09294356666505336,-0.0189461053814739,675.0,0.0059241491835564375,0.0,0.0108642578125,0.0,-0.7170196166494861,0.0,-14.034181865962083,65,0.13212762536771247,0.1021106194704771,0.3215057007968426,9.293553406794206,0.47443479364379815,0.4245870605111122,0.0,-27.0,0.0,-27.0,-0.979316908121109,-0.9988585814833641,2700.0,-0.06611051168292761,0.0,0.5795131370425224,-0.027508208900690077,-12.651669124945514,-14.031791314166544,6600.0,-9.378935392929463,0.322449603676796,-9.531726787925345,0.0,6010769.0,0.001806640625,-9.288806442644367,5.000807127220088,-2.106076907431998,-13.86146006237446,-12.65631154844945
1675.0,-0.09367902968078852,-0.018583450373262166,675.0,0.005862128466833383,0.0,0.0107421875,0.0,-0.7217869893444003,0.0,-13.941422390987405,66,0.13863835202221378,0.1020980978384614,0.3237581841647625,9.468972974751248,0.5027204072009852,0.42730254828929903,0.0,-27.0,0.0,-27.0,-0.9793199732899666,-0.9988718286156655,2700.0,-0.06634342130273581,0.0,0.5805540844798088,-0.027625833777710794,-12.593330313729316,-14.009256081145498,6700.0,-9.558358153094199,0.32273833751678466,-9.71384003665805,0.0,6101894.0,0.0017333984375,-9.463801371366364,4.842471756304053,-2.0782708265862313,-11.268128128328854,-12.590114177374762
1700.0,-0.09449823424220086,-0.019148073438555003,675.0,0.005762004293501377,0.0,0.0134765625,0.0,-0.7213460325496271,0.0,-14.022713484429097,67,0.13675789457392926,0.10317914113402367,0.3268030874431133,9.468835092975883,0.37218447277012123,0.4300901547074318,0.0,-27.0,0.0,-27.0,-0.9790548339486123,-0.9988932266831398,2700.0,-0.06637731213122607,0.0,0.5822398200631141,-0.028094923589378595,-12.657097240573421,-14.023805326111903,6800.0,-9.556694602728019,0.3234045349061489,-9.713547615163506,0.0,6193019.0,0.0016845703125,-9.462506474071589,5.259322579837429,-2.0806162851593397,-13.557376395578993,-12.657320088889149
1725.0,-0.09504513088613749,-0.01947459443472326,675.0,0.005681203072890639,0.0,0.0076904296875,0.0,-0.7240035965056449,0.0,-14.012140055038227,68,0.14207630073775313,0.10277782622724771,0.3293190270662308,9.551413350812306,0.39083171339698425,0.4335197612643242,0.0,-27.0,0.0,-27.0,-0.9791532590985298,-0.9989105060696601,2700.0,-0.06647743862122298,0.0,0.5841663792729378,-0.02857161797583103,-12.719741499098152,-14.019475486066398,6900.0,-9.64215452832175,0.32386588007211686,-9.797507208231043,0.0,6284144.0,0.0013427734375,-9.54531983318949,5.224584967465395,-2.090919404009037,-13.69192030779722,-12.71904050760015
1750.0,-0.09572985116392374,-0.019754095701500773,675.0,0.0056840547826141116,0.0,0.0094970703125,0.0,-0.7221966506825993,0.0,-14.079764103183187,69,0.14166638636211845,0.09945382550358772,0.33142743557691573,9.468189046637251,0.4348906641148611,0.43681113943457606,0.0,-27.0,0.0,-27.0,-0.9799685031175613,-0.9989099055528641,2700.0,-0.06654018238186836,0.0,0.5865075901150704,-0.028387391287833453,-12.712891643753924,-14.038264882886233,7000.0,-9.557852074587611,0.3250076562166214,-9.710827580975774,0.0,6375269.0,0.001611328125,-9.462833488367332,5.128492182757851,-2.137005737272557,-11.514859573145602,-12.716104967314882
1775.0,-0.09630407486110926,-0.02051157345995307,675.0,0.005521912011317909,0.0,0.008349609375,0.0,-0.7209200388366298,0.0,-14.014474721244333,70,0.13782658925223715,0.09733471591025591,0.3342660889029503,9.432564248625615,0.3414736339354476,0.4407855808734894,0.0,-27.0,0.0,-27.0,-0.9804882377386093,-0.9989445701241493,2700.0,-0.06669615749269724,0.0,0.5897334739565849,-0.0286311415489763,-12.6539427566853,-14.017980702094723,7100.0,-9.524416807608855,0.3254757270216942,-9.677548851635853,0.0,6466394.0,0.00146484375,-9.428633973144485,5.066880613121828,-2.086435526254354,-13.165269332143264,-12.653924542409948
1800.0,-0.09739580973982812,-0.02057737852446735,675.0,0.005610615957994014,0.0,0.007470703125,0.0,-0.7206908295811445,0.0,-14.047649654429094,71,0.13932811701965228,0.09664660524576903,0.3358925387263298,9.405119117223107,0.3069894529797691,0.44444807395339014,0.0,-27.0,0.0,-27.0,-0.9806569933891296,-0.9989256098866462,2700.0,-0.06747537441551685,0.0,0.5920441150665283,-0.028919546166434884,-12.68127290798517,-14.064600859301606,7200.0,-9.495160005521836,0.32562684267759323,-9.647208407791078,0.0,6557519.0,0.0021484375,-9.401468840936253,5.301833825371366,-2.0913050646020563,-14.07579915351514,-12.682688488903594
1825.0,-0.09807639829814434,-0.02101878058165312,675.0,0.005544236570131034,0.0,0.008251953125,0.0,-0.7206490976510395,0.0,-14.08372505930933,72,0.13769039957175205,0.0971238013356924,0.3380930468440056,9.370773242828587,0.4123910007283237,0.4476627610623837,0.0,-27.0,0.0,-27.0,-0.9805399686098099,-0.9989397972822189,2700.0,-0.06811788193881511,0.0,0.5945499762892723,-0.029259550012648107,-12.633605140886084,-14.037777771062215,7300.0,-9.460308551627088,0.32490269318223,-9.613945206321299,0.0,6648644.0,0.0018310546875,-9.365043346885857,5.221493760392526,-2.0839467421312294,-12.515193475853497,-12.636724493349572
1850.0,-0.09870764855295419,-0.021456063818186523,675.0,0.005554494692478329,0.0,0.00712890625,0.0,-0.7196714386198437,0.0,-14.044021972801797,73,0.13535740504529964,0.09884321335703135,0.34037310630083084,9.466762973799227,0.8067559107713851,0.45061948224902154,0.0,-27.0,0.0,-27.0,-0.9801182717084884,-0.9989375963807106,2700.0,-0.06833540871739388,0.0,0.5970246344804764,-0.0291630735155195,-12.557818390886677,-14.040238285079928,7400.0,-9.554712387452897,0.32511005029082296,-9.708367275075691,0.0,6739769.0,0.0014892578125,-9.461737355348225,5.539996659890798,-2.052070851454482,-12.671677860467769,-12.557161423041261
1875.0,-0.09941804315894842,-0.02169328392483294,675.0,0.005560616229195148,0.0,0.008642578125,0.0,-0.721282112296467,0.0,-14.006358139509185,74,0.1399692182968945,0.10232443828135729,0.3427950099110603,9.439837853251438,0.5481168322497151,0.4528901405632496,0.0,-27.0,0.0,-27.0,-0.9792644485831261,-0.9989362955093384,2700.0,-0.06869641710072756,0.0,0.6004031240940094,-0.028360675321891904,-12.565071875702664,-14.014117548681218,7500.0,-9.531035960785573,0.32579429894685746,-9.685279159374474,0.0,6830894.0,0.0013427734375,-9.435482794739974,5.461856718870708,-2.0996786174095177,-14.148449836838932,-12.564812052639326
1900.0,-0.1006222814321518,-0.02216919343918562,675.0,0.005513878772035241,0.0,0.0081787109375,0.0,-0.7200297843948646,0.0,-14.08335180667201,75,0.13908423947231102,0.10213821157813072,0.3452580042183399,9.478753205535664,0.5626905752366923,0.4541151523590088,0.0,-27.0,0.0,-27.0,-0.9793101370334625,-0.9989463075995445,2700.0,-0.06969078481197358,0.0,0.6026919096708298,-0.02859493251889944,-12.582711534188055,-14.040820742755878,7600.0,-9.566024423104661,0.326155736297369,-9.72155093495254,0.0,6922019.0,0.00126953125,-9.475651665186536,5.376597158333743,-2.0477849500101,-13.586205484448648,-12.58312153482288
1925.0,-0.10104965642094613,-0.022487337794154884,675.0,0.005474451428744942,0.0,0.0068115234375,0.0,-0.7202048979357641,0.0,-13.99872096734645,76,0.13468789050435964,0.10117821730673313,0.3467306919395924,9.465784665649954,0.49713813423269937,0.45533930584788324,0.0,-27.0,0.0,-27.0,-0.979545584321022,-0.9989547193050384,2700.0,-0.07064558956772089,0.0,0.604471142590046,-0.02764616082422435,-12.559732647780226,-14.050627476752448,7700.0,-9.555406774173473,0.32806306183338163,-9.710791488393138,0.0,7013144.0,0.00126953125,-9.46176873259661,5.381840393425407,-2.063368982008251,-13.595716893322216,-12.564037789560226
1950.0,-0.10171765610575675,-0.022853329312056303,675.0,0.005291693506296724,0.0,0.007470703125,0.0,-0.7203953333730169,0.0,-14.055731129300504,77,0.137139621608695,0.09636391010135412,0.3487007364630699,9.379889563270975,0.5692667324149141,0.45722256153821944,0.0,-27.0,0.0,-27.0,-0.9807263389229774,-0.998993793129921,2700.0,-0.07102125268429518,0.0,0.6064645975828171,-0.026758756022900343,-12.536268894230147,-14.028266541078352,7800.0,-9.4690114833829,0.3300318576395512,-9.621578891067134,0.0,7104269.0,0.0013671875,-9.374859335133856,5.225433534008208,-2.0379461776814423,-11.09621823025176,-12.535425503669114
1975.0,-0.10304932612925768,-0.023080963734537364,675.0,0.005286984145641327,0.0,0.0071044921875,0.0,-0.7211160518541874,0.0,-14.061968620656483,78,0.1341344234506795,0.10026082657277584,0.35074346959590913,9.467596386057505,0.46608068341876596,0.4600078172981739,0.0,-27.0,0.0,-27.0,-0.9797705739736557,-0.9989948019385337,2700.0,-0.07132086232304573,0.0,0.6082374066114425,-0.02700302884913981,-12.595555727079757,-14.016532823401732,7900.0,-9.557793767762993,0.3306827828288078,-9.712450261757215,0.0,7195394.0,0.0013427734375,-9.462987972393028,5.281937427555688,-2.069755896012066,-13.291572466221755,-12.59655747596812
2000.0,-0.10396664440631867,-0.023063292633742093,675.0,0.005140321364160627,0.0,0.0083251953125,0.0,-0.720533585807425,0.0,-14.060766796836617,79,0.13393807141794353,0.10342907775193452,0.35338685363531114,9.413037766447133,0.40537186970732186,0.4630314461886883,0.0,-27.0,0.0,-27.0,-0.9789935410022735,-0.9990261480212211,2700.0,-0.0718929110094905,0.0,0.6102951809763908,-0.0274623220320791,-12.560922897342243,-14.008598061177555,8000.0,-9.502867708161203,0.3325706958770752,-9.654349154605972,0.0,7286519.0,0.0015380859375,-9.407550503832521,5.301369883693536,-2.0795236242491226,-12.304046262791704,-12.564050923844363
2025.0,-0.10481617748737335,-0.0233581374399364,675.0,0.005215243890415877,0.0,0.0076904296875,0.0,-0.7185724513328751,0.0,-13.99177160314094,80,0.12803242252515534,0.10854435190558434,0.3560205861926079,9.445656222450857,0.4851754090334719,0.46605757921934127,0.0,-27.0,0.0,-27.0,-0.9777389660477638,-0.9990101352334022,2700.0,-0.07241349238902331,0.0,0.612438015639782,-0.027586252288892867,-12.59466585948029,-14.042361397337118,8100.0,-9.535227179221621,0.3343561589717865,-9.687842744004296,0.0,7377644.0,0.001513671875,-9.442200134318027,5.319841776100921,-2.1056053220730973,-13.901818518564703,-12.5958219015277
2050.0,-0.10582222044467926,-0.023759179236367344,675.0,0.005101300973910839,0.0,0.0067626953125,0.0,-0.7189020149991847,0.0,-13.992688323950889,81,0.1309106774727715,0.10858722869306803,0.358790522813797,9.407874671973888,0.43386664104467043,0.4706213422119617,0.0,-27.0,0.0,-27.0,-0.9777284547686577,-0.9990344986319541,2697.0,-0.07338145673274994,0.0,0.6152067214250565,-0.027902185404673218,-12.59967126976711,-14.015621228926324,8200.0,-9.496193457642967,0.33405120968818663,-9.6484027456824,0.01,7468685.0,0.0015380859375,-9.402880293249172,5.283620036141653,-2.0832611967489356,-13.703695627471467,-12.594123132337884
2075.0,-0.10631460323929787,-0.02423670985735953,675.0,0.00527618263149634,0.0,0.008251953125,0.0,-0.7213491401213105,0.0,-14.11528798326048,82,0.13554786592313767,0.11332313846796752,0.36154474690556526,9.518787532316287,0.677740682994124,0.47459280118346214,0.0,-27.0,0.0,-27.0,-0.9765669167041778,-0.9989971101284028,2700.0,-0.07371009141206741,0.0,0.6173706844449043,-0.02803151202388108,-12.568257407390494,-14.007219946776024,8300.0,-9.606871538378343,0.33618256971240046,-9.76094232478573,0.0,7559810.0,0.001611328125,-9.514273625489926,5.560827959365611,-2.087538829593541,-13.729597393892833,-12.5617512166098
2100.0,-0.10723304655402899,-0.02437939718365669,675.0,0.005196341429837048,0.0,0.007177734375,0.0,-0.7202224214313901,0.0,-14.062449936615595,83,0.13465405689355053,0.11374351792037488,0.36441655084490776,9.426451957329991,0.3836389358344533,0.4776303768157959,0.0,-27.0,0.0,-27.0,-0.9764638260006905,-0.9990141838788986,2700.0,-0.07402560543268918,0.0,0.6188355103135109,-0.02817790852859616,-12.466635856578298,-14.02943386046903,8400.0,-9.51614259713447,0.3377992555499077,-9.668222675690757,0.0,7650935.0,0.001220703125,-9.421987376283969,5.493601720799188,-2.091930639302882,-13.868649611834984,-12.471978401979154
2125.0,-0.10798043366521597,-0.024973488273099066,675.0,0.0052592331310734155,0.0,0.007568359375,0.0,-0.7218026122813171,0.0,-13.993704814481495,84,0.13514552819145026,0.11269225347787142,0.3668834127485752,9.453735288729046,0.5773854757745704,0.4822636038064957,0.0,-27.0,0.0,-27.0,-0.9767216548323632,-0.9990007296204567,2700.0,-0.07437387891113759,0.0,0.6217006176710129,-0.028334358474239707,-12.361399926163347,-14.007839857115673,8500.0,-9.547325207331514,0.3383893005549908,-9.70127842533822,0.0,7742060.0,0.0013427734375,-9.449220126810943,5.33193794988985,-2.0908144383312903,-13.165821490741763,-12.359615975584074
2150.0,-0.10868211947381497,-0.025143693992868067,675.0,0.005612819106318057,0.0,0.0089111328125,0.0,-0.7236446955474094,0.0,-14.06192883601533,85,0.1392597687354381,0.11388542372733354,0.36945396587252616,9.448385023631229,0.33198645599036974,0.4855239748954773,0.0,-27.0,0.0,-27.0,-0.9764290094375611,-0.9989251345396042,2700.0,-0.07438672501593828,0.0,0.6248427614569664,-0.02932255370542407,-12.427112035963166,-14.032771834523453,8600.0,-9.545375648002903,0.33822434321045874,-9.695705072055905,0.0,7833185.0,0.0012939453125,-9.44489115295662,5.416134663057286,-2.0506778853312424,-14.047495802438423,-12.432428705504858
2175.0,-0.10881692301481963,-0.025043568341061473,675.0,0.005529383721295744,0.0,0.008935546875,0.0,-0.7235193379659904,0.0,-14.087479090100175,86,0.13482364764911936,0.1111151723191142,0.3722951225936413,9.452262059679489,0.4255852110532218,0.48798864260315894,0.0,-27.0,0.0,-27.0,-0.9771084457635879,-0.9989429697394371,2700.0,-0.07453282047063112,0.0,0.6275591239333153,-0.02966918391175568,-12.433143639685813,-14.008478159774238,8700.0,-9.548357710096196,0.33989426493644714,-9.69979476080889,0.0,7924310.0,0.0015380859375,-9.447900594826212,5.453424042263778,-2.073808128014207,-12.830529954235493,-12.43381089492276
2200.0,-0.10868062693625688,-0.025366314593702553,675.0,0.00559196398826316,0.0,0.0091796875,0.0,-0.7262958512350451,0.0,-13.966654489801519,87,0.14341760291042185,0.11358897313475609,0.37552802786231043,9.474095276521876,0.4850324480635207,0.4907071366906166,0.0,-27.0,0.0,-27.0,-0.9765017285943032,-0.9989296048879623,2700.0,-0.07468919176608324,0.0,0.6306763052940368,-0.030779228126630188,-12.504472143023966,-14.035737735144622,8800.0,-9.57574496631712,0.34165889024734497,-9.726028577902289,0.0,8015435.0,0.0012451171875,-9.469951037944432,5.417324651443267,-2.0889710754112456,-13.478913066509797,-12.508121698065281
2225.0,-0.10858009699732066,-0.02588719977065921,675.0,0.005495950207114219,0.0,0.010595703125,0.0,-0.7258666618952703,0.0,-14.046045171056418,88,0.14463584307934158,0.11070858798921109,0.3793700337409973,9.42886223869137,0.5536184115881526,0.49313291236758233,0.0,-27.0,0.0,-27.0,-0.9772081673145294,-0.9989501252770424,2700.0,-0.07464967127889395,0.0,0.6338547512888908,-0.031874922756105664,-12.585300760708042,-14.049256822464361,8900.0,-9.527939222780926,0.3434730291366577,-9.680601991610313,0.0,8106560.0,0.0010009765625,-9.42333049524179,5.528702935490892,-2.0787652147686457,-14.316669458880467,-12.585762125151467
2250.0,-0.10832696594297886,-0.025694039929658175,675.0,0.0055762596311979,0.0,0.007177734375,0.0,-0.72626090876729,0.0,-14.15893124637762,89,0.14887959793684485,0.11213832516223192,0.3818001501262188,9.367806533365755,0.5100479218426773,0.4953356638550758,0.0,-27.0,0.0,-26.99999999999993,-0.9768575161695481,-0.9989329665899277,2700.0,-0.07482129186391831,0.0,0.6368859991431236,-0.031020723935216665,-12.677205771582635,-13.995218523708564,9000.0,-9.467849047128258,0.34494818821549417,-9.616958441785247,0.0,8197685.0,0.00146484375,-9.36281665327412,5.669434355655794,-2.087708538783045,-13.323976009186415,-12.676308007916575
2275.0,-0.10839815009385348,-0.025504458276554943,675.0,0.005317980842664838,0.0,0.0080078125,0.0,-0.7285956483596238,0.0,-13.98677549529905,90,0.13899211235453426,0.1158817021176219,0.3841054141521454,9.57574124991331,0.487128427747742,0.49835995137691497,0.0,-27.0,0.0,-27.0,-0.9759394064545631,-0.9989881560206413,2700.0,-0.07486397270113229,0.0,0.6391804277896881,-0.03088847054168582,-12.61525074988573,-14.027970862647518,9100.0,-9.672657635403912,0.34608895257115363,-9.830362760790198,0.0,8288810.0,0.0009033203125,-9.57020596384358,5.646310459144256,-2.086761207044765,-13.698709657728733,-12.617568892226775
2300.0,-0.10856984984129667,-0.02540975669398904,675.0,0.005192569771315903,0.0,0.007373046875,0.0,-0.7249835668342712,0.0,-14.09797546237974,91,0.14186197114394106,0.11245015896856785,0.38627198040485383,9.457497939939987,0.5705789949076713,0.5020555347204209,0.0,-27.0,0.0,-26.999999999291695,-0.9767810240387916,-0.9990149781107902,2700.0,-0.07499700766056776,0.0,0.6426663562655449,-0.03124946793541312,-12.613134874284745,-13.989343467895532,9200.0,-9.553404502445108,0.3472553864121437,-9.70430730373125,0.0,8379935.0,0.0015625,-9.452124357721178,5.733714765103002,-2.108117075748305,-13.729724075780547,-12.611095452036992
2325.0,-0.10819268394261598,-0.0253683568444103,675.0,0.0052351901773363355,0.0,0.0077880859375,0.0,-0.7245395574187569,0.0,-14.144217987348698,92,0.1404332977825998,0.1164231039583683,0.38921964392066,9.449192486717658,0.5589792671938181,0.5044108018279075,0.0,-27.0,0.0,-27.0,-0.9758066177368164,-0.9990058720111847,2700.0,-0.07510927841067314,0.0,0.6446686968207359,-0.031470663379877806,-12.617627115281872,-14.021932200265468,9300.0,-9.543290669087352,0.3489375650882721,-9.696513631519078,0.0,8471060.0,0.001123046875,-9.44424770486897,5.822166009693382,-2.0955204983511067,-14.229957233623718,-12.614130918012957
2350.0,-0.1086432807147503,-0.025532801961526276,675.0,0.005176722968462855,0.0,0.00673828125,0.0,-0.7252171945612644,0.0,-14.108635487433702,93,0.137477543829627,0.11260051652789116,0.39145110696554186,9.472990034075135,0.4335106649248945,0.506864732503891,0.0,-27.0,0.0,-27.0,-0.976744145154953,-0.9990183725953102,2700.0,-0.07553081735968589,0.0,0.6458631604909897,-0.03128307508304715,-12.608885987169439,-14.034293104148759,9400.0,-9.5659682082334,0.3509008787572384,-9.720155969019004,0.0,8562185.0,0.0013916015625,-9.467345262756666,5.702254606255764,-2.1153740277404722,-13.973659688998875,-12.615177729372892
2375.0,-0.10988325607031584,-0.025260456558316945,675.0,0.0053600497543811795,0.0,0.0068359375,0.0,-0.7256614633450227,0.0,-14.053594950857153,94,0.14094861358331282,0.11260019466280938,0.3934989169239998,9.545227673968535,0.7027065811039129,0.5088569283485412,0.0,-27.0,0.0,-27.0,-0.976744233071804,-0.998979178071022,2700.0,-0.07539018858224153,0.0,0.6472318440675735,-0.031390663050115106,-12.547553980293467,-14.029147559626395,9500.0,-9.63995553661672,0.35362596735358237,-9.794286974211934,0.0,8653310.0,0.00166015625,-9.54103959735138,5.6054222179589335,-2.0824883259105262,-12.948166538329058,-12.55197226998757
2400.0,-0.11066287234425545,-0.025193809205666183,675.0,0.0052969819982536135,0.0,0.0063720703125,0.0,-0.7240324634505668,0.0,-13.89022652916579,95,0.14648495816277668,0.11567132826894522,0.39484830647706987,9.41148854763543,0.6279301618186672,0.511059345304966,0.0,-27.0,0.0,-27.0,-0.9759910017251968,-0.9989926621317864,2700.0,-0.0751302856951952,0.0,0.6484981417655945,-0.03287195507436991,-12.627093908309698,-14.022387046149863,9600.0,-9.50662236084516,0.35574338734149935,-9.65741399839914,0.0,8744435.0,0.001220703125,-9.407364634291362,5.547306316490973,-2.1239207942606297,-13.949909608121924,-12.621221347765879
2425.0,-0.11138691660016775,-0.02538555394858122,675.0,0.005259139684494585,0.0,0.0072509765625,0.0,-0.7238411965699925,0.0,-14.087421173708004,96,0.1359853729574081,0.12154094893485308,0.3961477354168892,9.450179702118046,0.5438762747290304,0.5139992952346801,0.0,-27.0,0.0,-27.0,-0.9745514154434204,-0.9990007400512695,2700.0,-0.07535751145333051,0.0,0.6493020609021187,-0.0332044031471014,-12.600034366453809,-14.069790052271737,9700.0,-9.543605265489518,0.35735866576433184,-9.69820908843695,0.0,8835560.0,0.0010009765625,-9.445817915554937,5.63597499533724,-2.1210159445239696,-14.107233368601344,-12.602226046244809
2450.0,-0.11159527655690908,-0.025998438615351914,675.0,0.005231636622920632,0.0,0.0070556640625,0.0,-0.7208900350538897,0.0,-14.069393334249376,97,0.13400612819247054,0.1256083333864808,0.39767749384045603,9.397861255924928,0.4059128691474861,0.5167964100837708,0.0,-27.0,0.0,-27.0,-0.9735538527369499,-0.9990066424012184,2700.0,-0.07577729001641273,0.0,0.651285819709301,-0.033399622049182655,-12.602343215370755,-14.035841224278688,9800.0,-9.488146766877781,0.35885502174496653,-9.64207340737023,0.0,8926685.0,0.0012939453125,-9.39256561812837,5.662262136097596,-2.1087984099867754,-13.526826376668375,-12.604907053874559
2475.0,-0.11195365898311138,-0.026197574380785228,675.0,0.005600018030963838,0.0,0.007568359375,0.0,-0.7231821968372969,0.0,-14.035752717292285,98,0.13562947358362676,0.13000737745314836,0.39965754821896554,9.501934317759076,0.48312613227643675,0.5195653393864632,0.0,-27.0,0.0,-27.0,-0.9724749401211739,-0.99892787784338,2700.0,-0.07608609609305858,0.0,0.65357306599617,-0.03391804341226816,-12.579685415116305,-14.02984017500826,9900.0,-9.591952637710696,0.35936888977885245,-9.747284186169598,0.0,9017810.0,0.0010986328125,-9.497069493906887,5.720789383138535,-2.112714521866292,-14.090060251461619,-12.58207915354004
2500.0,-0.11224710308015347,-0.026159265963360667,675.0,0.005596431810408831,0.0,0.0088623046875,0.0,-0.7196303344215267,0.0,-14.075860309887613,99,0.136645944963792,0.12612518519163132,0.40124149471521375,9.46669260984674,0.41590654785139514,0.5209536075592041,0.0,-27.0,0.0,-27.0,-0.9734270974993706,-0.9989286318421364,2700.0,-0.07628685515373945,0.0,0.6553221583366394,-0.03362931264564395,-12.538071203443355,-14.022665135414295,10000.0,-9.555273120308795,0.36014637649059295,-9.70971024716618,0.0,9108935.0,0.0015869140625,-9.46273794669057,5.744709584300043,-2.102680341100495,-13.481596732221494,-12.540852019915246
