ReemS3/reg_curious_hac/data/d4a6886/AntFourRoomsEnv-v0/alg:chac|eta:0.5|fw:1|fwhidsiz:256,256,256|nlev:2|reg:True|rolbatsiz:1|timsca:27,27|144/progress.csv
test/success_rate,train_0/mu_loss,train_1/mu_loss,train_1/q_grads,test_1/n_subgoals,train_1/next_q,train_1/avg_q,train_0/mu_grads,train_0/reward_-0.0_frac,train_1/current_q,train_1/reward_-27.0_frac,train_0/reward,policy/steps,test/episodes,test_1/subgoal_succ_rate,train_0/q_grads,train/success_rate,train_0/target_q,train_0/next_q,train_0/reward_-1.0_frac,train_1/n_subgoals,train_1/q_loss,train_0/current_q,train_1/reward_-0.0_frac,train_1/reward_-1.0_frac,train_1/subgoal_succ_rate,epoch,train_0/q_loss,train_1/mu_grads_std,train_0/fw_bonus,train_0/avg_q,train_1/reward,train_1/target_q,test_0/avg_q,train_1/q_grads_std,train_0/fw_loss,train_0/mu_grads_std,train_1/fw_loss,train_1/mu_grads,train/episodes,train_0/q_grads_std,train_1/fw_bonus,test_1/avg_q
0.0,8.567201437155076,6.636384565788117,0.010249623539857566,675.0,-7.789474860085346,-7.176832800417026,0.003173432528274134,0.0,-8.088175622224192,0.0,-0.7186258182227903,91054.0,25.0,0.0,0.007034952635876834,0.0,-8.669960176253129,-8.54899717118421,0.00048828125,2700.0,3.0729746301392042,-8.549303824749583,0.0,0.0036376953125,0.0011111111111111111,0,0.36281931372093024,0.14455053955316544,-0.9937457725405693,-12.729780144388714,-2.098245777779084,-8.107622234481148,-24.683832883792334,0.1149663170799613,0.03280116468667984,0.1527279183268547,0.0676804631948471,-0.019229442672804,100.0,0.10356566440314055,-0.9903147980570793,-9.8954042357665
0.0,8.947258338129737,4.4516545966690995,-0.010703874356113374,675.0,-7.1666929577258,-12.363187363020698,-0.0029039523797109723,0.0,-7.453375682430277,0.0,-0.7130454173522593,181980.0,50.0,0.0,-0.0016236772673437372,0.0,-9.13295792134808,-8.942082467630033,0.0087646484375,2700.0,4.088942846860646,-8.984529016328974,0.0,0.002783203125,0.002962962962962963,1,0.3138589129010031,0.1788270477205515,-0.996842785179615,-20.57734824131512,-2.0468913389013323,-7.600521343601261,-26.929022535314164,0.15774708539247512,0.016857160883955658,0.17524981312453747,0.07714589443057776,-0.028424057317897676,200.0,0.12775748893618583,-0.9885336384177208,-13.445362893579235
0.0,8.547139418448745,26.999999536325152,-0.011239034635946155,675.0,-27.0,-21.93562446464839,-0.005342255020514131,0.0,-26.999997006128048,0.0,-0.7141956931671303,273105.0,75.0,0.0,-0.00029613254737341775,0.0,-8.766262092232589,-8.544158403970917,0.0236572265625,2700.0,120.22131075486436,-8.63704222011347,0.0,0.0020263671875,0.0,2,0.20795523048491438,0.18355463445186615,-0.9975808516144753,-26.85021013061044,-2.101652581453527,-22.212802972078542,-27.0,0.16959308236837387,0.013057528506033122,0.20136064775288104,0.08103285152465105,-0.03474177597090602,300.0,0.1389382265508175,-0.9878022387623787,-26.99999999996878
0.0,8.858972227604886,26.99999929654515,-0.011341022117994726,675.0,-27.0,-26.999999998242355,-0.008551042596809565,0.0,-26.999995719291782,0.0,-0.7116351966033108,364230.0,100.0,0.0,4.3264196690984136e-05,0.0,-9.046558115375834,-8.859280575149313,0.0309814453125,2700.0,120.55116048321256,-8.915690203920063,0.0,0.001953125,0.0,3,0.21705315537794814,0.1835544180124998,-0.9979285955429077,-27.0,-2.0697146802842328,-22.2163948560655,-27.0,0.16954082250595093,0.011267211684025825,0.22307632602751254,0.08432218655943871,-0.03474216014146805,400.0,0.1457060117274523,-0.9871832668781281,-26.999999999972275
0.0,9.087680305231576,2.524579273370763e-07,-0.025474328082054853,675.0,-2.3409297399641347e-12,-21.91987578092159,-0.008690923149697483,0.0,-0.0005497413830589384,0.0,-0.7132394235624815,455355.0,125.0,0.0,-0.0019004963542101905,0.0,-9.280199991090722,-9.080579167038639,0.0515869140625,2700.0,18.57450203653496,-9.130666797197264,0.0,0.00244140625,0.0,4,0.21737273506428734,0.18634448945522308,-0.9982073664665222,-26.999911394231834,-2.1003466882022623,-2.100346688204107,-27.0,0.18136249408125876,0.009832066111266613,0.24016281068325043,0.08738747611641884,-0.04222029447555542,500.0,0.15229489281773567,-0.9866064682602882,-9.840073149046118e-08
0.0,9.011545917803755,5.948773616204164e-08,-0.02296370631083846,675.0,-8.928236158739989e-26,-6.225800606389495,-0.007594297779724002,0.0,-2.465790469781853e-07,0.0,-0.7066352565932903,546434.0,150.0,0.0,-0.003237093280768022,0.01,-9.223262848450512,-9.016319632836224,0.055908203125,2699.0,18.09326789306681,-9.07331509738491,0.0,0.0022216796875,0.0,5,0.1734328082241475,0.19080783426761627,-0.9984023496508598,-26.999999999843922,-2.062959206859523,-2.062959206859523,-27.0,0.20148642361164093,0.008828240353614092,0.2518259987235069,0.09202997907996177,-0.04534284397959709,600.0,0.15438382029533387,-0.985732863843441,-1.1355700539895923e-08
0.0,9.345813082745655,4.465243615243374e-08,-0.022963897697627543,675.0,-3.4465736610279416e-28,-2.425332176475755e-08,-0.007587511942256242,0.0,-1.515746426606759e-07,0.0,-0.7050964861431567,637559.0,175.0,0.0,-0.0029035835526883603,0.0,-9.5395597903678,-9.344471961335753,0.046728515625,2700.0,18.946658421093705,-9.393853061291006,0.0,0.00283203125,0.0,6,0.14732867693806662,0.19080783426761627,-0.9985230460762977,-27.0,-2.1169834903339506,-2.1169834903339506,-27.0,0.20148637890815735,0.008206846157554537,0.2568249344825745,0.08779138624668122,-0.04534284397959709,700.0,0.158040102571249,-0.9865304604172707,-9.70267359181073e-09
0.0,9.425756472225775,3.780107495966509e-08,-0.02296461621299386,675.0,-6.622960974790169e-28,-6.454969443744078e-08,-0.009830513875931502,0.0,-1.3235959455131451e-07,0.0,-0.7048869686295802,728684.0,200.0,0.0,-0.003346282464917749,0.0,-9.62433590569342,-9.42152283857924,0.0489990234375,2700.0,19.07835434152123,-9.473491443610747,0.0,0.00244140625,0.0,7,0.15306685143921722,0.1908079285174608,-0.99866553992033,-27.0,-2.124151123732736,-2.124151123732736,-27.0,0.20148613452911376,0.007473289570771158,0.26911490336060523,0.08828796483576298,-0.04534293711185455,800.0,0.16375523060560226,-0.9864370107650757,-9.737508536243171e-09
0.0,9.483549151807797,1.9509391712762755e-08,-0.022965998342260718,675.0,-1.9240819228181086e-27,-8.187397493179499e-08,-0.007786453329026699,0.0,-7.224894908815515e-08,0.0,-0.7008340148706338,819809.0,225.0,0.0,-0.003766871668631211,0.0,-9.679664909941405,-9.479835854210124,0.0364990234375,2700.0,19.018931339776547,-9.524070597863119,0.0,0.0021728515625,0.0,8,0.15381284834765951,0.19080810248851776,-0.9988115891814232,-27.0,-2.1185648688682703,-2.1185648688682703,-27.0,0.20148520730435848,0.006721417629159987,0.2791721738874912,0.08408769350498915,-0.04534308239817619,900.0,0.16933490633964537,-0.9872273951768875,-5.267220980377341e-10
0.0,9.375774776053857,1.2723975274039567e-08,-0.02296916232444346,675.0,-9.136281452982859e-28,-6.950527649569271e-08,-0.00891490604262799,0.0,-6.839707120475507e-08,0.0,-0.6987155372902635,910934.0,250.0,0.0,-0.004426513682119548,0.0,-9.577765529047506,-9.372244917086705,0.0485595703125,2700.0,18.307882252485165,-9.424489753248341,0.0,0.0018798828125,0.0,9,0.12838722426809748,0.190808642283082,-0.9988226786255836,-27.0,-2.070077432178368,-2.070077432178368,-27.0,0.2014830756932497,0.00666431630961597,0.29429879114031793,0.08163436222821474,-0.04534321250393987,1000.0,0.1732543557882309,-0.9876890420913697,-7.049127132019457e-08
0.0,9.39580215452818,1.1000840556704398e-08,-0.022978573199361564,675.0,-1.1843505914886823e-27,-6.085525712220846e-08,-0.01122002126649022,0.0,-5.4418793858273845e-08,0.0,-0.6991715554438998,1002059.0,275.0,0.0,-0.005134256801102311,0.0,-9.591710694611844,-9.390864537959384,0.0238037109375,2700.0,18.558641141226758,-9.440424933900065,0.0,0.002392578125,0.0,10,0.12674016369198693,0.1908111937344074,-0.9988802224397659,-27.0,-2.085673884488642,-2.085673884488642,-27.0,0.2014773540198803,0.006368067802395671,0.30408563613891604,0.08012138903141022,-0.0453434182330966,1100.0,0.1767353855073452,-0.9879737511277199,-1.075907259964081e-08
0.0,9.30286253257521,2.0363017657114334e-08,-0.023033986520022153,675.0,-9.009098611489841e-27,-6.819533222112636e-08,-0.012927372683770954,0.0,-1.3425424759333742e-07,0.0,-0.6964548009855207,1093184.0,300.0,0.0,-0.004949891718570143,0.0,-9.503563265665077,-9.29984365936916,0.0310791015625,2700.0,18.2130691927377,-9.352377257975496,0.0,0.0021728515625,0.0,11,0.12013685684483524,0.1908244274556637,-0.9989398762583732,-27.0,-2.0637040130692186,-2.0637040130692186,-27.0,0.20143885351717472,0.006060952390544117,0.3137997694313526,0.07684823218733072,-0.04534441642463207,1200.0,0.18025812804698943,-0.9885896667838097,-3.167531978036415e-08
0.0,9.447880541134065,26.999999999995794,-0.02459326428361237,675.0,-27.0,-11.900722811692773,-0.013784432550892234,0.0,-26.9999972232413,0.0,-0.7018422585089865,1184309.0,325.0,0.0,-0.005711683433037251,0.0,-9.64831110662569,-9.442032283320236,0.0296142578125,2700.0,136.4775820359758,-9.494226424307547,0.0,0.00205078125,0.0,12,0.13431717774717583,0.19327805936336517,-0.9988505393266678,-27.0,-2.068756504839257,-21.60044839937052,-27.0,0.20505568124353885,0.006520904903300107,0.3243499554693699,0.0760827373713255,-0.04562567174434662,1300.0,0.1835501842200756,-0.9887336954474449,-26.999999999999268
0.0,9.521024669586026,26.999999999993086,-0.024732660967856646,675.0,-27.0,-26.999999704626777,-0.015083509171381593,0.0,-26.9999882667843,0.0,-0.7067310274091142,1275434.0,350.0,0.0,-0.006739507347811013,0.0,-9.728830709063091,-9.516168056155,0.0345458984375,2700.0,131.34345504747816,-9.575908334464822,0.0,0.0024658203125,0.0,13,0.16238594196620265,0.19327805936336517,-0.9987891986966133,-27.0,-2.0791916886606487,-21.79434647381691,-27.0,0.20522593855857849,0.006836641568224877,0.33355947956442833,0.07208014912903309,-0.04562567174434662,1400.0,0.18860965743660926,-0.9894868925213813,-26.999999999995875
0.0,9.604098353346425,2.3033058945778903e-25,-0.022404402494430542,675.0,-4.3226708897113695e-43,-14.824597045425328,-0.01531821524258703,0.0,-2.791995773941988e-11,0.0,-0.7113745971146272,1366559.0,375.0,0.0,-0.007496079534757882,0.0,-9.825096637186999,-9.599021888665359,0.041357421875,2700.0,18.04149474108615,-9.667992768002339,0.0,0.002685546875,0.0,14,0.15478332854859608,0.1957458108663559,-0.9987501621246337,-27.0,-2.0580943490051142,-2.0580943490051142,-27.0,0.21841195784509182,0.007037589675746858,0.34535627737641333,0.07095061019062995,-0.045855484902858734,1500.0,0.19274421222507954,-0.9896994277834892,-3.0838094030831983e-34
0.0,9.336395449672889,7.678177567585295e-26,-0.022399236029013992,675.0,-6.684641348536087e-47,-2.669543156794385e-13,-0.014582463190890849,0.0,-3.314638811480252e-11,0.0,-0.7086983585082635,1457684.0,400.0,0.0,-0.007441273494623602,0.0,-9.560124178688076,-9.331614611375745,0.0356201171875,2700.0,18.409336642019518,-9.407677280991706,0.0,0.0023681640625,0.0,15,0.14163811451824732,0.1957458108663559,-0.9987199574708938,-27.0,-2.0832954360041187,-2.0832954360041187,-27.0,0.21841387823224068,0.007193123165052384,0.35692035853862764,0.06881336756050586,-0.045855484902858734,1600.0,0.19651107899844647,-0.9901016056537628,-5.726473604369762e-49
0.0,9.36181352847834,9.156942041948824e-30,-0.022387610003352165,675.0,-2.3061434511436357e-43,-1.1755782266210866e-13,-0.014235681900754572,0.0,-3.739803836215027e-11,0.0,-0.7136811173048045,1548809.0,425.0,0.0,-0.007187802577391267,0.0,-9.59203988089897,-9.356209890656547,0.0315185546875,2700.0,18.308933453302664,-9.439007812574868,0.0,0.0029052734375,0.0,16,0.15891709339561416,0.1957458108663559,-0.9987001299858094,-26.999999999999996,-2.0789607753918973,-2.0789607753918973,-27.0,0.21841856501996518,0.007295233313925564,0.36890760213136675,0.06649038270115852,-0.045855484902858734,1700.0,0.20016003511846064,-0.9905387356877327,-4.043292687851307e-31
0.0,9.36748662865466,9.45476928827585e-30,-0.022367112198844553,675.0,-5.795662802845997e-47,-1.224527439094187e-13,-0.013817857159301639,0.0,-4.970459266125081e-11,0.0,-0.7139724620479683,1639934.0,450.0,0.0,-0.007705581234768033,0.0,-9.60409281068016,-9.363237329702244,0.0198486328125,2700.0,18.31838650838775,-9.450607941213281,0.0,0.002685546875,0.0,17,0.1565530867592988,0.1957458108663559,-0.9988189473748207,-26.999999999995428,-2.0791907960767277,-2.0791907960767277,-26.999999999999105,0.21842734925448895,0.006683511531446129,0.37908374443650245,0.06352663170546294,-0.045855484902858734,1800.0,0.20463272482156752,-0.9910964399576188,-4.6028578159199553e-32
0.0,9.493790812615037,3.830888739082881e-30,-0.02233573803678155,675.0,-2.053883013833894e-44,-9.079573410069747e-15,-0.01366515012923628,0.0,-7.16888823234329e-11,0.0,-0.7153055146911356,1731059.0,475.0,0.0,-0.007707444950938225,0.0,-9.731042978996204,-9.488811748355294,0.027099609375,2700.0,18.154373023216607,-9.575253474162514,0.0,0.0024169921875,0.0,18,0.15260341738206035,0.1957458108663559,-0.9988971561193466,-26.99999999991181,-2.0698400077388213,-2.0698400077388213,-27.0,0.218441966176033,0.006280848558526486,0.3876920573413372,0.06262058475986124,-0.045855484902858734,1900.0,0.2094496540725231,-0.991266930103302,-4.308697820160972e-50
0.0,9.488703799127089,1.6761577449853582e-29,-0.022297058580443264,675.0,-4.5974164934191326e-45,-8.348272184583468e-14,-0.012354230508208275,0.0,-5.0950605493898774e-11,0.0,-0.7141263714249362,1822184.0,500.0,0.0,-0.009444652474485338,0.0,-9.72040096966981,-9.483652861183055,0.012451171875,2700.0,18.366875065030676,-9.565848036193378,0.0,0.0020751953125,0.0,19,0.1435508761284893,0.1957458108663559,-0.9990046963095665,-27.0,-2.082520073095657,-2.082520073095657,-27.0,0.21846284717321396,0.005727244075387716,0.3933840669691563,0.05953907901421189,-0.045855484902858734,2000.0,0.21391402669250964,-0.9918467938899994,-3.0976113794796686e-31
0.0,9.587863685220045,5.783589876968784e-29,-0.02224387302994728,675.0,-3.007829626782134e-44,-2.1856754241154626e-14,-0.010434525669552386,0.0,-9.036530485344089e-11,0.0,-0.7176413107670669,1913309.0,525.0,0.0,-0.010333916964009404,0.0,-9.821107100028554,-9.586113132339815,0.0189697265625,2700.0,18.726271859721827,-9.667536277283,0.0,0.0023193359375,0.0,20,0.15943671421241876,0.1957458108663559,-0.9989544898271561,-27.0,-2.11109131382691,-2.11109131382691,-27.0,0.21849899515509605,0.005985679861623794,0.39869311451911926,0.05881823152303696,-0.045855484902858734,2100.0,0.21796236522495746,-0.9919824331998826,-3.244456933002581e-46
0.0,9.429324067614093,5.680444352992708e-28,-0.022142814192920923,675.0,-9.059253651927717e-40,-7.010552648145084e-13,-0.00966828097589314,0.0,-1.306178953874164e-10,0.0,-0.7178160028721322,2004434.0,550.0,0.0,-0.01137514179572463,0.0,-9.671144747615775,-9.424141892656298,0.0246826171875,2700.0,18.851966275785134,-9.519553299585928,0.0,0.00205078125,0.0,21,0.14989340533626105,0.1957458108663559,-0.9989132583141327,-27.0,-2.1213741681822285,-2.1213741681822285,-27.0,0.21858221665024757,0.006197997136041522,0.40463649556040765,0.06279204664751888,-0.045855484902858734,2200.0,0.222276172041893,-0.9912346690893173,-3.1195473990592864e-29
0.0,9.40617528504254,1.2448922297303718e-07,-0.0300122763030231,675.0,-5.340528852682541e-25,-9.449791704097779,-0.012401399970985948,0.0,-1.350079540178828e-06,0.0,-0.7176519933207601,2095559.0,575.0,0.0,-0.012060788553208112,0.0,-9.647022480595849,-9.400727012352437,0.0254638671875,2700.0,18.460449349592874,-9.493000308656649,0.0,0.0026123046875,0.0,22,0.15238165017938177,0.2010023444890976,-0.998829385638237,-27.0,-2.0956002750484912,-2.0956002750484912,-27.0,0.23181484490633011,0.006629817525390535,0.4113024860620499,0.06907124556601048,-0.048252102266997096,2300.0,0.2273146327584982,-0.990053091943264,-1.5635962643847338e-09
0.0,9.437052395074428,1.1283517881650034e-07,-0.03000035514123738,675.0,-2.5577648830864687e-24,-1.3765458703004707e-08,-0.014605289162136614,0.0,-1.2450596122049201e-06,0.0,-0.7186769964471751,2186684.0,600.0,0.0,-0.012647123425267637,0.0,-9.67840699150691,-9.429730795587455,0.022216796875,2700.0,18.42081025227435,-9.52529697902259,0.0,0.00224609375,0.0,23,0.15289596040783163,0.20100250840187073,-0.9988041892647743,-26.999999999999318,-2.092457056443527,-2.092457056443527,-27.0,0.2319245383143425,0.006759497604798525,0.4177329674363136,0.07276792638003826,-0.04825234040617943,2400.0,0.23212236762046815,-0.9893574550747871,-1.0555450561565227e-08
0.0,9.420058204221887,27.0,-0.025425853999331595,675.0,-27.0,-6.480000013666931,-0.014938236004672945,0.0,-26.999998914336732,0.0,-0.7201764039251429,2277809.0,625.0,0.0,-0.013644715235568584,0.0,-9.66043805097024,-9.412150985350204,0.035009765625,2700.0,115.87219373740943,-9.5075859229818,0.0,0.00205078125,0.0,24,0.15788251248698076,0.2026008665561676,-0.9987268283963203,-26.999999999999986,-2.115743338055472,-22.374180838055487,-27.0,0.23743853457272052,0.0071577436523512,0.4245610676705837,0.07645101696252823,-0.04905307665467262,2500.0,0.2372090697288513,-0.9886644184589386,-27.0
0.0,9.41206963684344,27.0,-0.025517994537949562,675.0,-27.0,-26.999999999997208,-0.0157804936170578,0.0,-26.99999499744729,0.0,-0.7191642347730521,2368934.0,650.0,0.0,-0.013903422094881535,0.0,-9.648543236789816,-9.404806960579739,0.0283447265625,2700.0,117.45961618214817,-9.494347624961282,0.0,0.0020263671875,0.0,25,0.15864400708132403,0.2026008665561676,-0.9987532794475555,-27.0,-2.0935454452221167,-22.32420511319088,-27.0,0.23746060766279697,0.007021612115204334,0.4301558069884777,0.07910443358123302,-0.04905307665467262,2600.0,0.2421512335538864,-0.988165108859539,-27.0
0.0,9.470499714664651,26.499151989263122,-0.02366908104158938,675.0,-27.0,-24.485855668328515,-0.014589123404584825,0.0,-22.99683766467199,0.0,-0.7208578710058646,2460059.0,675.0,0.0,-0.014162819669581949,0.0,-9.709159955873794,-9.463557891731043,0.0336181640625,2700.0,24.881443101232538,-9.558266988641368,0.0,0.00205078125,0.0,26,0.16041156657507902,0.21308454871177673,-0.9987469986081123,-27.0,-2.1363866455511014,-22.278544848676113,-27.0,0.2664378948509693,0.007053951488342136,0.43539226055145264,0.08240623567253351,-0.04650484612211585,2700.0,0.24698860123753547,-0.9875437945127488,-25.462390117064086
0.0,9.41598524437894,1.802550841644215,-0.02823009490966797,675.0,-27.0,-23.164762180359027,-0.014345312304794789,0.0,-22.85332501100433,0.0,-0.7207495266040496,2551184.0,700.0,0.0,-0.014944639638997614,0.0,-9.659228175768604,-9.409704170519467,0.01611328125,2700.0,17.869504637853925,-9.505257538213604,0.0,0.00224609375,0.0,27,0.1522582624010696,0.21662022173404694,-0.9987988501787186,-27.0,-2.1259027532592882,-22.385632245446804,-27.0,0.28388040214776994,0.006786937615834177,0.4400475449860096,0.08082862421870232,-0.05023064641281962,2800.0,0.2511605769395828,-0.987840661406517,-4.819995105833894
0.0,9.449590851861196,8.458182997396632,-0.03301021046936512,675.0,-27.0,-18.682327223586327,-0.014350637444294989,0.0,-23.10645910217847,0.0,-0.7215637510584202,2642309.0,725.0,0.0,-0.015226607793010771,0.0,-9.688195776273117,-9.443347397259988,0.0260986328125,2700.0,20.525061788860338,-9.537776984653146,0.0,0.0020751953125,0.0,28,0.1606023015112332,0.2204607404768467,-0.9987915724515914,-27.0,-2.103534553164354,-22.35163611566437,-27.0,0.30108615234494207,0.006824485200922936,0.44442003071308134,0.0815296195447445,-0.05000067017972469,2900.0,0.2562289983034134,-0.987708754837513,-18.475278678343596
0.0,9.483390978574572,2.6939637688793217,-0.0376873011700809,675.0,-27.0,-24.16836359714523,-0.015132516948506236,0.0,-22.599594264011067,0.0,-0.7220741289223952,2733434.0,750.0,0.0,-0.015804970078170298,0.0,-9.72778315374797,-9.47852407176443,0.0195068359375,2700.0,12.103920543058749,-9.572392758681307,0.0,0.00263671875,0.0,29,0.15443847176075334,0.22459404170513153,-0.9987625271081925,-27.0,-2.0758242090203565,-22.35622557620787,-27.0,0.31291658207774165,0.006974032276775688,0.44855599105358124,0.08477725237607955,-0.050471055787056684,3000.0,0.2595559872686863,-0.9870976343750953,-7.2924178140139135
0.0,9.323728018491034,5.066789445111129e-06,-0.0438313202932477,675.0,-3.1878320858026956e-29,-9.859693987928138,-0.014345572260208429,0.0,-0.0021837506823887878,0.0,-0.7196854525580421,2824559.0,775.0,0.0,-0.01667814967222512,0.0,-9.563053531765291,-9.317714252607525,0.0190185546875,2700.0,19.073073894698744,-9.413014164298929,0.0,0.002392578125,0.0,30,0.15109939102164044,0.22643311098217964,-0.9988191455602646,-27.0,-2.1342046949546782,-2.1342046949546782,-27.0,0.3198083773255348,0.006682479835581035,0.453209038823843,0.08405985236167908,-0.04992409432306886,3100.0,0.26263604164123533,-0.9872326269745827,-2.9669131735513525e-06
0.0,9.452137461790892,1.2170589033383849e-12,-0.04374614115804434,675.0,-5.3234500362010314e-142,-0.11523654756989914,-0.014180314680561423,0.0,-3.235861960844202e-06,0.0,-0.7203377974605246,2915684.0,800.0,0.0,-0.017250066716223957,0.0,-9.694903502640877,-9.447525562979877,0.0271240234375,2700.0,18.561454218861225,-9.540279419487566,0.0,0.002294921875,0.0,31,0.1414449009445758,0.22712643444538116,-0.9988543063402175,-27.0,-2.097598400594143,-2.097598400594143,-27.0,0.32060760259628296,0.006501480320002884,0.4588719345629215,0.08221590127795934,-0.049280133098363876,3200.0,0.26586795449256895,-0.9875796183943748,-5.162114499122319e-30
0.0,9.406876288796315,4.570554879034096e-13,-0.04374703615903854,675.0,-4.299194058238959e-149,-4.5024498323100724e-11,-0.015852628368884326,0.0,-1.341641840669291e-06,0.0,-0.7210887685017952,3006809.0,825.0,0.0,-0.017889806441962718,0.0,-9.654136342018779,-9.404196456286531,0.0114501953125,2700.0,19.124530053220116,-9.499913788039915,0.0,0.0020263671875,0.0,32,0.14955499982218023,0.22712643444538116,-0.9988425865769386,-27.0,-2.1327712253631033,-2.1327712253631033,-27.0,0.32060757279396057,0.006561867368873209,0.4648575909435749,0.0819100022315979,-0.049280133098363876,3300.0,0.2697943910956383,-0.9876371949911118,-1.3110960671174719e-17
0.0,9.394172322960515,5.700920965017519e-13,-0.04375153351575136,675.0,-1.4063538620009733e-148,-9.45414618959805e-11,-0.017974933283403514,0.0,-2.0973271852061603e-06,0.0,-0.717919051458739,3097934.0,850.0,0.0,-0.01893062419258058,0.0,-9.631277768856688,-9.38947108833733,0.033642578125,2700.0,18.76918462898694,-9.477665549884012,0.0,0.001904296875,0.0,33,0.1457720857173081,0.22712643444538116,-0.9988752171397209,-27.0,-2.108931217728241,-2.108931217728241,-27.0,0.32060649022459986,0.006393851921893656,0.4688362814486027,0.07944145034998655,-0.049280133098363876,3400.0,0.2732978783547878,-0.9881017044186592,-5.278386465039503e-17
0.0,9.491197723104124,2.6375634911475562e-12,-0.04378507984802127,675.0,-1.1016530972420704e-155,-1.5971247192162671e-09,-0.01870139194652438,0.0,-5.549456478722146e-06,0.0,-0.7166113216022495,3189059.0,875.0,0.0,-0.019984581880271433,0.0,-9.724875757453656,-9.48451412403829,0.011083984375,2700.0,18.778238616718426,-9.569661073900093,0.0,0.0021240234375,0.0,34,0.13986748448658315,0.22712643444538116,-0.9990185469388961,-27.0,-2.1084736489683564,-2.1084736489683564,-27.0,0.32060283049941063,0.005655963369645178,0.4728759855031967,0.07677965220063925,-0.049280133098363876,3500.0,0.2772467777132988,-0.988602590560913,-3.3337428274194275e-11
0.0,9.432657755305119,7.206851237024293,-0.04640438221395016,675.0,-27.0,-6.504081036920344,-0.01982413758523762,0.0,-22.612797240658146,0.0,-0.7149453440899378,3280184.0,900.0,0.0,-0.020203715097159146,0.0,-9.666817776768067,-9.429020081878328,0.007666015625,2700.0,19.36323989920739,-9.512501273574077,0.0,0.001806640625,0.0,35,0.1345651494246909,0.23871807120740413,-0.9990557372570038,-27.0,-2.121003524326807,-21.94145567276432,-27.0,0.3288259744644165,0.005464526673313231,0.4768465027213097,0.07620264291763305,-0.051815620716661216,3600.0,0.2811007134616375,-0.9887111470103264,-17.58690942135864
0.0,9.384707668853066,2.359458210828129e-08,-0.054263578914105895,675.0,-6.023350712336561e-103,-9.453225612388238,-0.02059806473553181,0.0,-7.315443914465867e-06,0.0,-0.7125924217252759,3371309.0,925.0,0.0,-0.02129565910436213,0.0,-9.611542299463075,-9.3810485994234,0.01142578125,2700.0,17.549755887137128,-9.459898532343622,0.0,0.0021484375,0.0,36,0.13665639906211807,0.24165308475494385,-0.9990373849868774,-27.0,-2.0265516057297646,-2.0265516057297646,-27.0,0.3342633232474327,0.00555896784644574,0.4801852934062481,0.08015993312001228,-0.05226440355181694,3700.0,0.28571673929691316,-0.9879664823412895,-1.388365048215128e-16
0.0,9.392199009961637,10.774452508957847,-0.053919894993305205,675.0,-27.0,-10.88295606086362,-0.02105268696323037,0.0,-22.73642408735038,0.0,-0.7149145350434992,3462434.0,950.0,0.0,-0.0222434688359499,0.0,-9.620068602254797,-9.388839797779658,0.0107177734375,2700.0,19.131850442369338,-9.46747210030757,0.0,0.002099609375,0.0,37,0.14191074526218386,0.24471839144825935,-0.9989940956234932,-27.0,-2.0966511888349486,-21.937775212272463,-27.0,0.33854737132787704,0.005781745514832437,0.4835257053375244,0.08346086908131838,-0.05261965915560722,3800.0,0.2898099921643734,-0.9873453542590142,-26.575903543012153
0.0,9.444201491524257,9.909415494072032,-0.05355301760137081,675.0,-27.0,-26.99114285796774,-0.021237309789285064,0.0,-22.85370345177667,0.0,-0.7156597503744706,3553559.0,975.0,0.0,-0.022952502174302936,0.0,-9.676719620580277,-9.439308256997178,0.008984375,2700.0,18.88911569169327,-9.521290976983162,0.0,0.0025390625,0.0,38,0.13262373368334934,0.24673416130244732,-0.9989952892065048,-27.0,-2.095777602308226,-22.06803883277699,-27.0,0.34487295597791673,0.005775707017164677,0.4865781456232071,0.08405303079634904,-0.053090987354516984,3900.0,0.2941837251186371,-0.987233915925026,-23.596530247118817
0.0,9.542047027357686,7.105891292342884e-17,-0.05398182114586234,675.0,0.0,-22.79837106192705,-0.021245513996109366,0.0,-1.5106702982841956e-09,0.0,-0.7171128613787005,3644684.0,1000.0,0.0,-0.023324742168188094,0.0,-9.777753134392938,-9.5381591537055,0.01083984375,2700.0,18.754835944006253,-9.621082550412003,0.0,0.0020751953125,0.0,39,0.1344234600587162,0.2504447102546692,-0.9989962384104729,-27.0,-2.1111533213275835,-2.1111533213275835,-27.0,0.35038262605667114,0.005770823266357183,0.4889573812484741,0.08877839352935553,-0.0534789115190506,4000.0,0.2975953623652458,-0.9863447278738022,-6.432206314473525e-23
0.0,9.379757330148044,6.238199724606311e-17,-0.05398209355771542,675.0,0.0,-6.995653095240097e-11,-0.02128291530534625,0.0,-2.0000904573435176e-09,0.0,-0.7172791560537007,3735809.0,1025.0,0.0,-0.023906862549483775,0.0,-9.61768703813649,-9.373892492762568,0.00966796875,2700.0,18.960040398873524,-9.464789647053319,0.0,0.00224609375,0.0,40,0.1426149408229911,0.2504447102546692,-0.9989870265126228,-27.0,-2.1250790961057646,-2.1250790961057646,-27.0,0.35038259625434875,0.005818227725103498,0.492292957752943,0.08802595473825932,-0.0534789115190506,4100.0,0.3009283497929573,-0.9864863112568856,-4.735890830040844e-24
0.0,9.360336135675068,2.4484506394308517e-16,-0.05398242175579071,675.0,0.0,-5.1824646900343286e-11,-0.022123744897544383,0.0,-2.580118690947464e-09,0.0,-0.7170324529601203,3826934.0,1050.0,0.0,-0.025127289118245244,0.0,-9.60565762444919,-9.356174626427777,0.0086669921875,2700.0,18.23700691104337,-9.452647898097325,0.0,0.0016845703125,0.0,41,0.1435191262689742,0.2504447102546692,-0.9990063175559044,-27.0,-2.0768422808658213,-2.0768422808658213,-27.0,0.350382536649704,0.005718924209941178,0.4970112696290016,0.08316839616745711,-0.0534789115190506,4200.0,0.30467253029346464,-0.9874003693461418,-3.464081961481589e-21
0.0,9.52793817090104,4.2434304455861295e-16,-0.05398288182914257,675.0,0.0,-3.443373800066507e-11,-0.02171845072880387,0.0,-2.236934434997339e-09,0.0,-0.7192051481179078,3918059.0,1075.0,0.0,-0.025908496836200355,0.0,-9.772369648979382,-9.523119041751844,0.00869140625,2700.0,19.04278204693606,-9.616574195717899,0.0,0.0017333984375,0.0,42,0.13548934561046483,0.2504447102546692,-0.9990304112434387,-27.0,-2.134352815504826,-2.134352815504826,-27.0,0.35038241744041443,0.00559484523255378,0.5030293181538582,0.08404245655983686,-0.0534789115190506,4300.0,0.3079297348856926,-0.9872359231114387,-1.424420721335564e-23
0.0,9.38224883826886,1.440978767827287e-14,-0.05398358358070254,675.0,0.0,-5.058970394357644e-10,-0.021020781621336936,0.0,-2.134586115848165e-09,0.0,-0.7179927791745285,4009184.0,1100.0,0.0,-0.025368585670366883,0.0,-9.625609342253068,-9.37828968663774,0.01279296875,2700.0,18.398139237668865,-9.47112941231352,0.0,0.0021240234375,0.0,43,0.14194962553479945,0.2504447102546692,-0.998973836004734,-27.0,-2.0906123150940403,-2.0906123150940403,-27.0,0.35038191080093384,0.005886097950860858,0.5071202084422112,0.08653632905334234,-0.0534789115190506,4400.0,0.3113207548856735,-0.9867666214704514,-1.6568928798551786e-23
0.0,9.46734461795286,5.514253554678353e-15,-0.05398604860529303,675.0,0.0,-1.3270067792623035e-08,-0.021194052416831255,0.0,-2.5136700667038596e-09,0.0,-0.7197968420638062,4100309.0,1125.0,0.0,-0.025527443224564194,0.0,-9.708450457695879,-9.461571218114264,0.014111328125,2700.0,19.154703186792872,-9.554939768579468,0.0,0.001904296875,0.0,44,0.14145438204905472,0.2504447102546692,-0.9989686802029609,-27.0,-2.143355721340049,-2.143355721340049,-27.0,0.350380914658308,0.00591263931710273,0.5096556589007377,0.08345628306269645,-0.0534789115190506,4500.0,0.3156404845416546,-0.9873462155461311,-1.7507148946901038e-19
0.0,9.435930547672875,2.544521760132736e-14,-0.053996968735009435,675.0,0.0,-1.1253331178785753e-09,-0.022612678399309517,0.0,-2.493230310799622e-09,0.0,-0.7217216520293732,4191434.0,1150.0,0.0,-0.025875234883278607,0.0,-9.684359845860381,-9.430274149674299,0.0108154296875,2700.0,18.70898880926837,-9.530421304664204,0.0,0.0021728515625,0.0,45,0.14231334000084112,0.2504447102546692,-0.9989853054285049,-27.0,-2.111552557775576,-2.111552557775576,-27.0,0.35037638172507285,0.005827115464489907,0.5124226868152618,0.08181052058935165,-0.0534789115190506,4600.0,0.32011103108525274,-0.9876558959484101,-4.2904741198218764e-24
0.0,9.538756394644794,1.2273458938413096e-14,-0.054020352009683845,675.0,0.0,-3.3692883580101397e-10,-0.021657591918483377,0.0,-4.54872118591178e-09,0.0,-0.7231522639951435,4282559.0,1175.0,0.0,-0.026123317470774055,0.0,-9.782278533531478,-9.533582306648645,0.0114501953125,2700.0,18.557342282166257,-9.624218730841946,0.0,0.0016357421875,0.0,46,0.14385914392336474,0.2504447102546692,-0.9989656537771225,-27.0,-2.0995117283047877,-2.0995117283047877,-27.0,0.35037314891815186,0.005928203230723739,0.5146606594324112,0.08406605795025826,-0.0534789115190506,4700.0,0.32369420155882833,-0.9872314691543579,-9.484840603862538e-20
0.0,9.44325575983039,1.7295187569828306e-14,-0.0540864241309464,675.0,0.0,-1.5421886635053663e-09,-0.022877629846334457,0.0,-3.6207681506828805e-09,0.0,-0.7217503495354322,4373684.0,1200.0,0.0,-0.026787096820771693,0.0,-9.687208066454678,-9.438244000450718,0.0132080078125,2700.0,18.55304818427546,-9.532944238232384,0.0,0.002392578125,0.0,47,0.14348507741121724,0.2504447102546692,-0.9989938691258431,-27.0,-2.102314275516983,-2.102314275516983,-27.0,0.35036959424614905,0.005783012951724231,0.515794312953949,0.08515788335353136,-0.0534789115190506,4800.0,0.3275821179151535,-0.9870260030031204,-2.2195110110787904e-17
0.0,9.468290509369515,15.068225588921024,-0.05557945109903813,675.0,-27.0,-11.492148811076838,-0.023398442985489966,0.0,-22.51055620718251,0.0,-0.7208092299639247,4464809.0,1225.0,0.0,-0.027540862420573832,0.0,-9.71114779671095,-9.463462384754635,0.009716796875,2700.0,10.977690941297222,-9.556643939522731,0.0,0.0021728515625,0.0,48,0.14222017131712197,0.2561370424926281,-0.9990647584199905,-27.0,-2.0785495273499692,-22.426780484381233,-27.0,0.35417519733309744,0.0054180794162675735,0.5166193902492523,0.08344634342938662,-0.05213511167094111,4900.0,0.3314175337553024,-0.9873480871319771,-12.96794550036958
0.0,9.471554135004327,26.99999446311142,-0.057649220991879704,675.0,-27.0,-21.24679953468559,-0.02408785494044423,0.0,-23.15922963302314,0.0,-0.7193548422146705,4555934.0,1250.0,0.0,-0.028234600182622673,0.0,-9.709413164280116,-9.467504085373228,0.0116455078125,2700.0,19.093085868951327,-9.558348181727215,0.0,0.0019287109375,0.0,49,0.1471234968526522,0.25825417041778564,-0.999036829173565,-26.999999999993825,-2.1163954325515077,-22.382584885676522,-27.0,0.357248268276453,0.005561795504763723,0.5174752861261368,0.0885923808440566,-0.05368042290210724,5000.0,0.3353762783110142,-0.986379736661911,-26.999999999730036
0.0,9.460971203362025,26.99996802672066,-0.05720993084833026,675.0,-27.0,-26.999999994427657,-0.024388743005692957,0.0,-23.012419598989307,0.0,-0.7197541276276752,4647059.0,1275.0,0.0,-0.029287312738597394,0.0,-9.69712936398395,-9.45499014537504,0.0117431640625,2700.0,18.136196161814894,-9.543523523684737,0.0,0.002392578125,0.0,50,0.14310979246447414,0.2582568868994713,-0.9990297466516495,-27.0,-2.104831646385719,-22.246989849510733,-27.0,0.36097020357847215,0.005598314094822854,0.5179009422659874,0.08850225154310465,-0.053680649120360614,5100.0,0.33792463317513466,-0.9863966926932335,-26.999999999741352
0.0,9.522780866931498,26.999915228327676,-0.0556746774353087,675.0,-27.0,-26.999999935214664,-0.024456429295241833,0.0,-23.083304772542558,0.0,-0.7199896340360283,4738184.0,1300.0,0.0,-0.029869458777830003,0.0,-9.76164383168637,-9.517406652165018,0.0100830078125,2700.0,18.048106799255052,-9.604931541885804,0.0,0.0020263671875,0.0,51,0.13929096033036975,0.2581959955394268,-0.9990368828177452,-27.0,-2.1234806979002316,-22.297938705712745,-27.0,0.36673952713608743,0.005561527819372714,0.5191882610321045,0.08944544084370136,-0.05375506682321429,5200.0,0.3411919787526131,-0.9862192168831825,-26.99999999221356
0.0,9.500018028708405,3.052902709163011e-20,-0.05558988079428673,675.0,0.0,-18.089986318058322,-0.02495638527907431,0.0,-2.9143394363747436e-06,0.0,-0.7184371875686338,4829309.0,1325.0,0.0,-0.030013555893674493,0.0,-9.734125139765283,-9.495828067197838,0.010205078125,2700.0,18.83315763856272,-9.579050250890857,0.0,0.0022705078125,0.0,52,0.13891570315315885,0.25884443521499634,-0.9990081652998924,-27.0,-2.1128384937190274,-2.1128384937190274,-27.0,0.3708674222230911,0.005709388421382755,0.5218746364116669,0.09461041036993265,-0.0536678321659565,5300.0,0.34498432353138925,-0.9852472931146622,-4.875201627083884e-38
0.0,9.369754382251674,2.6699253701969583e-20,-0.055575776100158694,675.0,0.0,-9.713801854039012e-14,-0.02631012354977429,0.0,-1.999715717476532e-06,0.0,-0.7142184611417178,4920434.0,1350.0,0.0,-0.030534037714824082,0.0,-9.599291875258837,-9.365305866679059,0.0093505859375,2700.0,18.402457373628454,-9.447188434508083,0.0,0.00205078125,0.0,53,0.13564946866624636,0.25884443521499634,-0.9990179762244225,-27.0,-2.085389367977041,-2.085389367977041,-27.0,0.37086703032255175,0.005658870562911034,0.5234353229403496,0.09417348895221948,-0.0536678321659565,5400.0,0.3486370950937271,-0.9853295221924782,-4.677216814193337e-29
0.0,9.391346825581971,4.4305015479952e-20,-0.05542878275737166,675.0,0.0,-3.2249320784512253e-14,-0.02711716340854764,0.0,-9.009385674611132e-06,0.0,-0.7118927686686221,5011559.0,1375.0,0.0,-0.031151425652205945,0.0,-9.617505866574408,-9.387591800332146,0.0103271484375,2700.0,18.159345706589324,-9.464513389481732,0.0,0.0018310546875,0.0,54,0.13082889029068256,0.25884443521499634,-0.9990785047411919,-27.0,-2.067617084630183,-2.067617084630183,-27.0,0.3709075331687927,0.005347253347281367,0.5255974486470223,0.08962023463100195,-0.0536678321659565,5500.0,0.35221830755472183,-0.9861863061785698,-1.3566430119930964e-31
0.0,9.436094923972552,1.254077732176648e-19,-0.05521409884095192,675.0,0.0,-3.194917478621057e-14,-0.02865128335542977,0.0,-0.00011733324574469241,0.0,-0.7135802803561091,5102684.0,1400.0,0.0,-0.03200829531997442,0.0,-9.668950177071459,-9.433270448707784,0.0080810546875,2700.0,18.318363090808003,-9.51641334156192,0.0,0.0016845703125,0.0,55,0.12684582754677,0.25884443521499634,-0.9991332098841668,-27.0,-2.07955440040314,-2.07955440040314,-27.0,0.37122169584035875,0.005065593589097262,0.5271555006504058,0.08833514619618654,-0.0536678321659565,5600.0,0.35576664879918096,-0.9864281475543976,-6.928143898161251e-37
0.0,9.380595727688934,2.269164285394349e-19,-0.054837450943887235,675.0,0.0,-8.942202026451818e-14,-0.028127062739804386,0.0,-5.588454718246866e-05,0.0,-0.7123883534433844,5193809.0,1425.0,0.0,-0.03211585292592645,0.0,-9.618207927973938,-9.376919384704893,0.007568359375,2700.0,18.812938305947817,-9.465710245138796,0.0,0.0018310546875,0.0,56,0.1274889682968016,0.25884443521499634,-0.9991663515567779,-27.0,-2.1144484141652358,-2.1144484141652358,-27.0,0.37206710800528525,0.004894991347100586,0.5300434395670891,0.08684082012623548,-0.0536678321659565,5700.0,0.35899472534656524,-0.9867093279957772,-5.321969862631261e-31
0.0,9.262709792109693,9.34984817162621e-26,-0.05464545339345932,675.0,0.0,-1.6880092634453786e-12,-0.02842291775159538,0.0,-7.206041571541374e-09,0.0,-0.7078297476451553,5284934.0,1450.0,0.0,-0.03213679958134889,0.0,-9.495779594020721,-9.260009596828748,0.0068115234375,2700.0,18.346041597574956,-9.343742338499144,0.0,0.0013427734375,0.0,57,0.12303629874345527,0.25884443521499634,-0.9992044165730476,-27.0,-2.0827472446973845,-2.0827472446973845,-27.0,0.37255124002695084,0.004699041158892215,0.5321985840797424,0.0881330244243145,-0.0536678321659565,5800.0,0.36287503466010096,-0.9864661678671837,-1.2619102299666108e-40
0.0,9.303437807770402,2.920973347084326e-25,-0.05464694555848837,675.0,0.0,-8.8008516815265e-16,-0.028415177902206778,0.0,-4.434850282454773e-09,0.0,-0.7087466896991828,5376059.0,1475.0,0.0,-0.03316171783953905,0.0,-9.540331202282886,-9.301817111455705,0.00732421875,2700.0,18.32154450919249,-9.387529250304343,0.0,0.0009765625,0.0,58,0.12003045895435227,0.25884443521499634,-0.9991828307509423,-27.0,-2.0780154288499033,-2.0780154288499033,-27.0,0.37255086526274683,0.0048101611668244,0.5334629237651825,0.08964198119938374,-0.0536678321659565,5900.0,0.3650040879845619,-0.9861822202801704,-3.775200600755141e-50
0.0,9.375125374610226,2.893520097626147e-24,-0.054656552616506815,675.0,0.0,-3.6685521587189e-14,-0.027555110026150943,0.0,-5.199525654912347e-08,0.0,-0.7136566899585887,5467184.0,1500.0,0.0,-0.03354522502049804,0.0,-9.61791541522442,-9.371341425340441,0.006591796875,2700.0,17.800112381591294,-9.464860558220881,0.0,0.0014404296875,0.0,59,0.12028620383606461,0.25884443521499634,-0.9991395562887192,-27.0,-2.0483048172987766,-2.0483048172987766,-27.0,0.3725332699716091,0.005032981024123728,0.5360955953598022,0.0915742726996541,-0.0536678321659565,6000.0,0.36804370284080506,-0.98581862449646,-2.946225413715052e-36
0.0,9.501897879714209,3.002174862013801e-27,-0.05479074101895094,675.0,0.0,-2.153744669106388e-18,-0.028624093206599355,0.0,-7.815922095912049e-10,0.0,-0.7161776366447157,5558309.0,1525.0,0.0,-0.03384565841406584,0.0,-9.747171510612315,-9.498502034862861,0.0079345703125,2700.0,18.788289341675636,-9.595065296574472,0.0,0.001318359375,0.0,60,0.12806224503153812,0.25884443521499634,-0.9991033136844635,-27.0,-2.1128272966896473,-2.1128272966896473,-27.0,0.37273168861865996,0.005219507054425776,0.5401328429579735,0.09719450976699591,-0.0536678321659565,6100.0,0.37076822891831396,-0.9847610414028167,-3.79303363191911e-41
0.0,9.515080746549495,3.2390502768765726e-27,-0.054810362868011,675.0,0.0,-3.1029834898464017e-19,-0.029340200033038853,0.0,-9.51328592110492e-09,0.0,-0.7203995214389579,5649434.0,1550.0,0.0,-0.03475745432078838,0.0,-9.761468731248154,-9.510344838631333,0.00869140625,2700.0,18.917744263728984,-9.607585683324725,0.0,0.001611328125,0.0,61,0.12874325740065473,0.25884443521499634,-0.9990753993391991,-27.0,-2.119183462239016,-2.119183462239016,-27.0,0.37274077013134954,0.005363194190431386,0.5447085276246071,0.10164504926651716,-0.0536678321659565,6200.0,0.37350860312581063,-0.9839235648512841,-1.7646355600339931e-41
0.0,9.375295830258555,8.77076230587234e-27,-0.05543420016765595,675.0,0.0,-2.0155041249570416e-15,-0.030321370204910637,0.0,-2.991289731994709e-09,0.0,-0.7192239743308164,5740446.0,1575.0,0.0,-0.03596760146319866,0.01,-9.621832818982123,-9.368866125343416,0.0072265625,2696.0,18.42570541254827,-9.470820571375874,0.0,0.0010498046875,0.0,62,0.12881717348577965,0.25884443521499634,-0.9990436509251595,-27.0,-2.0848492211211123,-2.0848492211211123,-27.0,0.3726930692791939,0.005526691244449466,0.5486521482467651,0.10095237269997596,-0.0536678321659565,6300.0,0.3766546115279198,-0.9840539187192917,-5.061118793993869e-41
0.0,9.449785307817123,1.984053981643937e-25,-0.05551150692626834,675.0,0.0,-4.9592224852016026e-15,-0.031477052718400955,0.0,-1.3094088739674202e-08,0.0,-0.7230677850879147,5831571.0,1600.0,0.0,-0.03700925251469016,0.0,-9.709577465679555,-9.444929103614475,0.0077392578125,2700.0,18.262921559681214,-9.555669022645974,0.0,0.0013427734375,0.0,63,0.1281999311082195,0.25884443521499634,-0.9990652501583099,-27.0,-2.076206014543277,-2.076206014543277,-27.0,0.3727248527109623,0.0054154607118107375,0.5514848873019218,0.10264570508152246,-0.0536678321659565,6400.0,0.37952466160058973,-0.983735266327858,-1.0664625085448253e-40
0.0,9.446465520314783,6.1481939662087e-20,-0.05560373859480024,675.0,0.0,-2.0377654709209943e-15,-0.033065341785550116,0.0,-1.1225185961578541e-10,0.0,-0.7213473454437918,5922696.0,1625.0,0.0,-0.03849504804238677,0.0,-9.699884746432755,-9.443327953302184,0.007421875,2700.0,18.480618340847947,-9.545825264918696,0.0,0.0012939453125,0.0,64,0.13044049402989152,0.25884443521499634,-0.9990667581558228,-27.0,-2.0900359786726765,-2.0900359786726765,-27.0,0.372577628493309,0.005407722224481404,0.5547773897647857,0.10148443039506674,-0.0536678321659565,6500.0,0.3827623039484024,-0.9839537978172302,-3.720199349772792e-38
0.0,9.289089536246763,7.888235502779556e-20,-0.05561683494597673,675.0,0.0,-1.9222671989388568e-19,-0.03261185511946678,0.0,-6.036172604271058e-11,0.0,-0.7176274264718814,6013821.0,1650.0,0.0,-0.0394752811640501,0.0,-9.534008576419746,-9.28577302104431,0.010986328125,2700.0,18.664779866265498,-9.38260754671092,0.0,0.002099609375,0.0,65,0.13872074725841363,0.25884443521499634,-0.9989999607205391,-27.0,-2.102257259681937,-2.102257259681937,-27.0,0.3725837737321854,0.005751573946326971,0.5576602861285209,0.10198168624192476,-0.0536678321659565,6600.0,0.38650252521038053,-0.9838602244853973,-4.978958889400859e-21
0.0,9.359942097987783,8.563660273368145e-20,-0.05564136821776629,675.0,0.0,-7.16060024026682e-20,-0.03318495387211442,0.0,-1.965834456790517e-10,0.0,-0.7185427701937442,6104946.0,1675.0,0.0,-0.03956657443195581,0.0,-9.607790482526832,-9.355817644377728,0.010546875,2700.0,18.997758774914388,-9.453738985423303,0.0,0.00205078125,0.0,66,0.13745268525801427,0.25884443521499634,-0.9989996090531349,-27.0,-2.1247156522716977,-2.1247156522716977,-27.0,0.37257831543684006,0.005753464961890132,0.5612181469798088,0.10291691776365042,-0.0536678321659565,6700.0,0.38974451199173926,-0.9836842238903045,-1.298454107218232e-22
0.0,9.35425520292606,3.80465533466307e-27,-0.05658205971121788,675.0,0.0,-6.273476681930737e-17,-0.03362591611221433,0.0,-5.336031392520392e-13,0.0,-0.7194649277764256,6196071.0,1700.0,0.0,-0.0398439534008503,0.0,-9.600210613070411,-9.348903389728296,0.0089111328125,2700.0,18.966859024414653,-9.448810232172052,0.0,0.0017578125,0.0,67,0.1472853154110402,0.25884443521499634,-0.9989884421229362,-27.0,-2.1219600293923575,-2.1219600293923575,-27.0,0.37257876992225647,0.005810883734375239,0.564649011194706,0.10820271391421557,-0.0536678321659565,6800.0,0.39238244444131853,-0.982689592242241,-1.957183729255823e-47
0.0,9.482355762900713,1.6880397481042877e-26,-0.056582119315862656,675.0,0.0,-3.4303531710717367e-20,-0.03395622493699193,0.0,-3.5344790413817046e-13,0.0,-0.7197117864721804,6287196.0,1725.0,0.0,-0.039987508207559586,0.0,-9.732158140693244,-9.477402297453247,0.0107421875,2700.0,18.59852203512736,-9.577838983904808,0.0,0.001904296875,0.0,68,0.1418944248892029,0.25884443521499634,-0.9989938840270043,-27.0,-2.099727345831343,-2.099727345831343,-27.0,0.3725787401199341,0.005782897945027799,0.5670048326253891,0.11239358019083738,-0.0536678321659565,6900.0,0.3952678248286247,-0.9819009840488434,-2.8760403572324917e-37
0.0,9.41359637121179,3.5471548152153134e-27,-0.05658221356570721,675.0,0.0,-9.579721768514265e-21,-0.034077599085867404,0.0,-2.2153278312178392e-13,0.0,-0.7214367018161283,6378321.0,1750.0,0.0,-0.0405623878352344,0.0,-9.657957162236325,-9.407398874276717,0.0101318359375,2700.0,18.876583506064605,-9.506798807235423,0.0,0.0020751953125,0.0,69,0.1447629797377783,0.25884443521499634,-0.9989769235253334,-27.0,-2.11675425480571,-2.11675425480571,-27.0,0.3725787103176117,0.005870242812670767,0.5689593598246574,0.10865124277770519,-0.0536678321659565,7000.0,0.3983496464788914,-0.9826051846146584,-1.0707846061568281e-34
0.0,9.445455937126928,2.940580466132763e-27,-0.05658237263560295,675.0,0.0,-5.016254213975018e-24,-0.0341823267750442,0.0,-1.0800426500936077e-12,0.0,-0.7221342006319901,6469446.0,1775.0,0.0,-0.040182387735694644,0.0,-9.698103800118218,-9.4388790676094,0.008349609375,2700.0,18.28572732547129,-9.543760719784414,0.0,0.0016845703125,0.0,70,0.1383493659003598,0.25884443521499634,-0.9990535527467728,-27.0,-2.0793096762768983,-2.0793096762768983,-27.0,0.3725786507129669,0.005475692870095372,0.571898652613163,0.10897038411349058,-0.0536678321659565,7100.0,0.40177463069558145,-0.982545118033886,-3.2051917171530415e-42
0.0,9.41770897405605,2.9198132324005496e-27,-0.05658254697918892,675.0,0.0,-9.6180565663538e-17,-0.03440840123221278,0.0,-2.313255295317333e-13,0.0,-0.7223538185236975,6560571.0,1800.0,0.0,-0.04048010800033808,0.0,-9.673983230623012,-9.411451884863467,0.007470703125,2700.0,18.76707091782108,-9.52137970016874,0.0,0.0014892578125,0.0,71,0.13828950399401507,0.25884443521499634,-0.9990777492523193,-27.0,-2.1110607075890586,-2.1110607075890586,-27.0,0.37257859110832214,0.005351128871552646,0.5756963536143302,0.10494260247796774,-0.0536678321659565,7200.0,0.4048975229263306,-0.9833030506968499,-3.516735391184963e-42
0.0,9.415093363181436,1.5874139810763858e-27,-0.05658266320824623,675.0,0.0,-1.476863368539554e-18,-0.03521090317517519,0.0,-1.145149707489855e-13,0.0,-0.7221236838580808,6651696.0,1825.0,0.0,-0.04044286897405982,0.0,-9.670002842700672,-9.408715027796594,0.0068359375,2700.0,18.852889907453637,-9.516773454916052,0.0,0.001220703125,0.0,72,0.13544644610297896,0.25884443521499634,-0.9991057619452477,-27.0,-2.1130638659415126,-2.1130638659415126,-27.0,0.372578501701355,0.005206914606969803,0.5787120670080185,0.10791386626660823,-0.0536678321659565,7300.0,0.4074482500553131,-0.9827439457178115,-4.998561257887325e-35
0.0,9.440981108763765,1.2040437674518752e-27,-0.05658272551372647,675.0,0.0,-8.756122046544802e-22,-0.03677909011021256,0.0,-9.022891487372036e-14,0.0,-0.7225240584768471,6742821.0,1850.0,0.0,-0.0401955122128129,0.0,-9.70951434953927,-9.433521932624592,0.00693359375,2700.0,18.230724475802024,-9.555719144668206,0.0,0.0013427734375,0.0,73,0.13388028220596068,0.25884443521499634,-0.9991252735257149,-27.0,-2.071507289568399,-2.071507289568399,-27.0,0.3725784718990326,0.005106530676130205,0.5820537313818932,0.1040624376386404,-0.0536678321659565,7400.0,0.41076876446604726,-0.9834686860442161,-2.897065735680311e-44
0.0,9.417447642776912,5.983977852526989e-28,-0.05658450499176979,675.0,0.0,-1.8345587376097576e-22,-0.03645039694383741,0.0,-9.50907168855508e-13,0.0,-0.7210860044149741,6833946.0,1875.0,0.0,-0.040099082980304956,0.0,-9.682982383057896,-9.413057896994133,0.0080322265625,2700.0,18.702221689489214,-9.52855703831968,0.0,0.001171875,0.0,74,0.13625138772916437,0.25884443521499634,-0.999105603992939,-27.0,-2.1033119548468675,-2.1033119548468675,-27.0,0.3725779950618744,0.005207756569143384,0.5856757536530495,0.10789784751832485,-0.0536678321659565,7500.0,0.41247599497437476,-0.9827469661831856,-1.1030425212725007e-31
0.0,9.492838072517362,2.2957768852781534e-27,-0.056586893554776904,675.0,0.0,-2.1329194240609843e-20,-0.03764990670606494,0.0,-8.060414252275631e-13,0.0,-0.7190977221755019,6925071.0,1900.0,0.0,-0.040874931309372184,0.0,-9.73993993237097,-9.488751833810213,0.00830078125,2700.0,18.57398920756334,-9.584577243720798,0.0,0.0017333984375,0.0,75,0.13839011345704377,0.25884443521499634,-0.9990596935153008,-27.0,-2.0900321446868473,-2.0900321446868473,-27.0,0.37257692217826843,0.005444059055298567,0.5884975388646125,0.11423992775380612,-0.0536678321659565,7600.0,0.41524681746959685,-0.9815535455942154,-4.4295282929584596e-38
0.0,9.474077682422458,1.318264520728519e-26,-0.05658998461440205,675.0,0.0,-2.992146475654e-23,-0.03760890746489167,0.0,-1.0309082657186578e-12,0.0,-0.7196514214629133,7016196.0,1925.0,0.0,-0.04223833428695798,0.0,-9.719895005467412,-9.469136044884937,0.0097900390625,2700.0,17.89371122450883,-9.56511559666239,0.0,0.0023193359375,0.0,76,0.13705517408210177,0.25884443521499634,-0.9990196451544762,-27.0,-2.0454697229986776,-2.0454697229986776,-27.0,0.37257458865642545,0.005650309135671705,0.5918822735548019,0.11963120214641094,-0.0536678321659565,7700.0,0.4183880686759949,-0.980539046227932,-7.816382687378552e-39
0.0,9.612126201953107,1.354408014731807e-26,-0.05659678718075156,675.0,0.0,-6.211885907584598e-20,-0.03846678109839559,0.0,-1.8108478599104926e-12,0.0,-0.7218725358536175,7107321.0,1950.0,0.0,-0.042586861085146664,0.0,-9.851376715698123,-9.606320876541691,0.00966796875,2700.0,18.31971487961369,-9.695125223034353,0.0,0.0021240234375,0.0,77,0.1410412549778352,0.25884443521499634,-0.9989940851926804,-27.0,-2.076326846158918,-2.076326846158918,-27.0,0.3725685402750969,0.00578181796008721,0.5950202897191048,0.12705043870955707,-0.0536678321659565,7800.0,0.4212402395904064,-0.9791429549455642,-6.649993138209763e-42
0.0,9.525905806100008,3.554921840720094e-25,-0.05661596963182092,675.0,0.0,-3.2443962298647514e-24,-0.03922102963551879,0.0,-4.54508607267694e-12,0.0,-0.7192266184378241,7198446.0,1975.0,0.0,-0.04316366231068969,0.0,-9.763599161933604,-9.521315564944956,0.0090576171875,2700.0,18.41889516771415,-9.607034099156955,0.0,0.0022705078125,0.0,78,0.13710171120802755,0.25884443521499634,-0.9990001082420349,-27.0,-2.083239540748764,-2.083239540748764,-27.0,0.3725520968437195,0.005750843684654683,0.5964417889714241,0.13181354589760302,-0.0536678321659565,7900.0,0.4233100175857544,-0.9782466620206833,-4.014345575829568e-44
0.0,9.430088024483535,2.8276950873002025e-24,-0.05663772793486714,675.0,0.0,-1.5130184108691789e-21,-0.04037804733961821,0.0,-3.952207528115455e-12,0.0,-0.7167880177039478,7289571.0,2000.0,0.0,-0.04343266077339649,0.0,-9.668771273238747,-9.425160291333357,0.00732421875,2700.0,18.238933960806236,-9.515436974550108,0.0,0.0019775390625,0.0,79,0.13951338403491848,0.25884443521499634,-0.9990301370620728,-27.0,-2.0719299145479453,-2.0719299145479453,-27.0,0.3725328579545021,0.0055962669779546555,0.5985505074262619,0.13187642227858304,-0.0536678321659565,8000.0,0.4258702002465725,-0.9782348290085793,-9.7457432183993e-33
0.0,9.41459890744691,0.8817166253536979,-0.06001879945397377,675.0,-8.698738619149215e-06,-4.441489860077444,-0.041711616609245536,0.0,-2.070898551935202,0.0,-0.7156012146173453,7380696.0,2025.0,0.0,-0.044223228748887775,0.0,-9.65172919366923,-9.41210781981346,0.007861328125,2700.0,0.22539542986855202,-9.500753347482512,0.0,0.0021728515625,0.0,80,0.13548240626875496,0.25827771574258807,-0.9990979388356209,-27.0,-2.0758382337822696,-2.0758457537647756,-27.0,0.3657797545194626,0.005247221258468926,0.6000191047787666,0.12938932627439498,-0.05677691930904984,8100.0,0.42836722210049627,-0.9787028431892395,-1.667379138839669
0.0,9.322016464943164,0.8790562821030032,-0.06158124031499028,675.0,-7.70526695945463e-09,-8.76980884473147,-0.04146835003048181,0.0,-2.053784881645982,0.0,-0.7178078007680597,7471821.0,2050.0,0.0,-0.04546273732557893,0.0,-9.563432217819914,-9.319407373356615,0.0074951171875,2700.0,0.47010459707557717,-9.411183231614766,0.0,0.001416015625,0.0,81,0.135781350117759,0.2566413529217243,-0.9990921601653099,-27.0,-2.0560658707669064,-2.05606587595772,-27.0,0.3675240077078342,0.005276940483599901,0.6006835788488388,0.12624333892017603,-0.05881890468299389,8200.0,0.4308255225419998,-0.9792948260903358,-0.9960876485096899
0.0,9.495027585915365,0.8374458946137203,-0.062405246682465075,675.0,-6.114083134125199e-08,-10.603957863939302,-0.04200203809887171,0.0,-2.0489438623996334,0.0,-0.7203321610875719,7562946.0,2075.0,0.0,-0.04563777549192309,0.0,-9.740458765593639,-9.491283614719743,0.0084228515625,2700.0,0.4274405669097103,-9.585515322036226,0.0,0.0020751953125,0.0,82,0.13959060186702715,0.25607254803180696,-0.9990871712565422,-27.0,-2.0569044910778755,-2.0569045429704893,-27.0,0.3710488438606262,0.005302631377708167,0.6014928221702576,0.13160171024501324,-0.057296198327094316,8300.0,0.4330058999359608,-0.9782865136861801,-0.9892854583210202
0.0,9.432826984380997,0.8484657396661011,-0.06319242119789123,675.0,-1.3355243103478673e-12,-11.221134984004344,-0.04239734411239624,0.0,-2.06071956885101,0.0,-0.7178811615791346,7654071.0,2100.0,0.0,-0.045822712033987044,0.0,-9.67918673136349,-9.427897836999422,0.0092041015625,2700.0,0.36961696223165735,-9.525581619802413,0.0,0.00166015625,0.0,83,0.13679844317249593,0.2564317651093006,-0.9990679919719696,-27.0,-2.0654586388242024,-2.0654586388248726,-27.0,0.3754986204206944,0.005401409743353724,0.6031569421291352,0.1320226386189461,-0.05746160866692662,8400.0,0.4350598596036434,-0.978207316994667,-1.0030003917645434
0.0,9.407389598068933,0.8439270086646653,-0.06424570325762033,675.0,-1.7971568778440072e-10,-11.885070255812005,-0.04267474273219705,0.0,-2.079108565714942,0.0,-0.7197275193677342,7745196.0,2125.0,0.0,-0.046229229960590604,0.0,-9.652776948608636,-9.403055669468452,0.0081298828125,2700.0,0.28316265870784074,-9.50100474216229,0.0,0.0019775390625,0.0,84,0.1342960490105476,0.25693098157644273,-0.999025346338749,-27.0,-2.0811960034494406,-2.081196003620434,-27.0,0.3811423175036907,0.005620906979311257,0.6047030538320541,0.13316373117268085,-0.057508589886128905,8500.0,0.4372653692960739,-0.9779926016926765,-0.9922554267598069
0.0,9.394813001617138,0.8139365857065766,-0.06454333811998367,675.0,-1.6598380572603675e-07,-11.993880798126431,-0.04281881907954812,0.0,-2.052234536246887,0.0,-0.7191278472753766,7836321.0,2150.0,0.0,-0.046692033670842646,0.0,-9.634652533659587,-9.389660932526661,0.00810546875,2700.0,0.5950360371154257,-9.483412545616778,0.0,0.0016845703125,0.0,85,0.13674326208041668,0.2590080663561821,-0.9989978909492493,-27.0,-2.057014078937209,-2.057014224505885,-27.0,0.38677811697125436,0.005762321944348514,0.6069933190941811,0.13770253546535968,-0.05811827024444938,8600.0,0.44018530398607253,-0.9771385088562965,-0.9606154097389208
0.0,9.55201777469362,4.362249584721673,-0.06417221259325742,675.0,-27.0,-19.651080145147727,-0.043213681969791654,0.0,-22.880391803354193,0.0,-0.72053572871082,7927446.0,2175.0,0.0,-0.04724137568846345,0.0,-9.795267922473007,-9.546454618025667,0.00751953125,2700.0,19.03000080408119,-9.640195477812885,0.0,0.0019287109375,0.0,86,0.13951805945567222,0.26287114843726156,-0.9989816188812256,-27.0,-2.0686545830394607,-22.128771282258224,-27.0,0.3894731648266315,0.00584607592318207,0.6087260708212853,0.14476180374622344,-0.05592022556811571,8700.0,0.4435924842953682,-0.9758101418614388,-15.669222799436328
0.0,9.499858791261554,5.433208178931613,-0.0644472362473607,675.0,-27.0,-23.586811663841313,-0.043485844042152166,0.0,-22.57672010498133,0.0,-0.7197988895895833,8018571.0,2200.0,0.0,-0.047362680081278086,0.0,-9.741006637190496,-9.494853475231634,0.0067138671875,2700.0,14.283211768100767,-9.587285005747617,0.0,0.0018798828125,0.0,87,0.14151519160251508,0.2648521065711975,-0.9989971905946732,-27.0,-2.083212483837997,-22.18531892915051,-27.0,0.3932026408612728,0.005765868443995714,0.6110822319984436,0.1455943316221237,-0.05539122391492128,8800.0,0.4469219855964184,-0.9756534710526467,-15.025458394104579
0.0,9.500963149376485,9.829067447808344,-0.06442090310156345,675.0,-27.0,-23.397765231914143,-0.044287247210741044,0.0,-22.768088249627617,0.0,-0.7220795107357845,8109696.0,2225.0,0.0,-0.04803127059713006,0.0,-9.745103085825956,-9.493981277160298,0.006494140625,2700.0,18.467184898682728,-9.588678869835423,0.0,0.0013916015625,0.0,88,0.1417485951897421,0.2695883549749851,-0.9990418449044227,-27.0,-2.1118567229052134,-22.189415316655225,-27.0,0.3975051738321781,0.005536049127113074,0.6126539781689644,0.14448685776442288,-0.054793279990553855,8900.0,0.44993790686130525,-0.9758618757128715,-26.787504046250543
0.0,9.521410964607501,2.851695685753646,-0.06643249336630105,675.0,-20.88769580861927,-20.75729190192676,-0.04520733868703246,0.0,-18.154966684670462,0.0,-0.7213209813642607,8200821.0,2250.0,0.0,-0.049231745302677155,0.0,-9.763397010988959,-9.516598935754393,0.005908203125,2700.0,11.167543239483125,-9.60904925861891,0.0,0.0017822265625,0.0,89,0.14305141582156064,0.2715404786169529,-0.9990628585219383,-27.0,-2.1414084274161724,-17.79587565540963,-27.0,0.3963416576385498,0.005427798582240939,0.6139983355998992,0.1411296810954809,-0.05377244502305985,9000.0,0.4521955743432045,-0.9764936164021492,-7.445228177773355
0.0,9.459145910911861,1.0295282147222435e-13,-0.06537683829665183,675.0,-2.315618501374385e-220,-8.917114348353806,-0.0464432492852211,0.0,-0.003826023949813603,0.0,-0.721270993618964,8291946.0,2275.0,0.0,-0.04897301597520709,0.0,-9.706285654596007,-9.45840861185738,0.00556640625,2700.0,18.525048560161707,-9.553167226109434,0.0,0.0020263671875,0.0,90,0.14161333234322132,0.27218636870384216,-0.9991093784570694,-27.0,-2.0986304057223606,-2.0986304057223606,-27.0,0.39788868054747584,0.005188359308522195,0.6152794018387795,0.14156764037907124,-0.05448177084326744,9100.0,0.4541314788162708,-0.9764112114906311,-9.39008524777685e-19
0.0,9.33964608043766,20.395034946973567,-0.06664650831371546,675.0,-20.375893057509792,-1.7186209621614037,-0.04683461328968406,0.0,-17.47227108110968,0.0,-0.7193090895205387,8383071.0,2300.0,0.0,-0.049258435051888226,0.0,-9.581794166989607,-9.33578705508133,0.00615234375,2700.0,8.962043922311654,-9.432075425200821,0.0,0.0016357421875,0.0,91,0.1396439933554331,0.2709560289978981,-0.999091811478138,-27.0,-2.127526574784133,-17.491270466600525,-27.0,0.39791224524378777,0.005278755107428879,0.615937101840973,0.1431019317358732,-0.05391949713230133,9200.0,0.455269642919302,-0.9761224746704101,-20.782853843951216
0.0,9.400821540427064,12.032411129415346,-0.06419383566826582,675.0,-26.999982175329762,-21.486801834052866,-0.04699615314602852,0.0,-23.036266195525023,0.0,-0.7149695290092495,8474196.0,2325.0,0.0,-0.04881901135668158,0.0,-9.643206541183599,-9.397410539392183,0.005517578125,2700.0,18.608810160337004,-9.49110023651913,0.0,0.0015869140625,0.0,92,0.13166257541646073,0.2739189349114895,-0.9991285160183907,-27.0,-2.1264017408611835,-22.35381425488791,-27.0,0.39746046587824824,0.005089819594286382,0.6166666805744171,0.14610501416027546,-0.05314104054123163,9300.0,0.45678548961877824,-0.9755573868751526,-20.399735068328983
0.0,9.430769397744152,0.21043915022911416,-0.064715008251369,675.0,-0.0033795434837231688,-10.54639897219252,-0.04762178976088762,0.0,-0.46764983656431314,0.0,-0.7159640992736968,8565321.0,2350.0,0.0,-0.048969656322151424,0.0,-9.670467033296358,-9.427313146764536,0.005419921875,2700.0,12.317724127857698,-9.519879545449845,0.0,0.0015380859375,0.0,93,0.13109212592494077,0.2751671954989433,-0.999164529144764,-27.0,-2.102264648250275,-2.104904880625052,-27.0,0.3964006580412388,0.0049044034676626325,0.6187365859746933,0.1418638151139021,-0.05241193380206823,9400.0,0.45849620550870895,-0.9763554707169533,-2.17678436812612
0.0,9.469973565724843,3.1770188758632394e-17,-0.06452912539243698,675.0,0.0,-2.363037834432848,-0.04706810628995299,0.0,-0.07639173945842063,0.0,-0.7171521436990588,8656446.0,2375.0,0.0,-0.049393748957663776,0.0,-9.70977006056524,-9.465627027874945,0.0058837890625,2700.0,17.950328393686174,-9.554724054039568,0.0,0.00185546875,0.0,94,0.13159669941330104,0.27589696645736694,-0.9991480216383934,-27.0,-2.0587643990074866,-2.0587643990074866,-27.0,0.3987730711698532,0.00498929686145857,0.6206724852323532,0.14167444296181203,-0.05232496187090874,9500.0,0.4615665525197983,-0.9763911023736,-1.8007362414591618e-19
0.0,9.49977040576648,6.007774471561229,-0.06492343805730343,675.0,-5.930221415977959e-08,-4.771858856140487,-0.04636080265045166,0.0,-2.065173662518311,0.0,-0.7180564180242073,8747571.0,2400.0,0.0,-0.04972261833027005,0.0,-9.742099694906832,-9.497921027656664,0.0060791015625,2700.0,0.1606201488481493,-9.586769711664095,0.0,0.001904296875,0.0,95,0.13563850822373358,0.2720325879752636,-0.9991011336445809,-26.986469111633713,-2.0723291220201645,-2.072329180133223,-27.0,0.3985326185822487,0.00523084953892976,0.6217165231704712,0.13827232960611582,-0.053714937902987,9600.0,0.46537124887108805,-0.9770312830805779,-13.715213756146117
0.0,9.3729002633652,7.5136962665206966,-0.06458446346223354,675.0,-0.0032977785979715008,-13.764886291177994,-0.046302192565053704,0.0,-2.085481417144459,0.0,-0.7142547182280395,8838696.0,2425.0,0.0,-0.050231170188635585,0.0,-9.60840078034931,-9.368769945322194,0.00556640625,2700.0,0.08062479366391655,-9.45543647717343,0.0,0.001806640625,0.0,96,0.13049632353415755,0.27330480217933656,-0.9991637319326401,-27.0,-2.087777470949368,-2.0877774709497166,-27.0,0.3982677958905697,0.004908487130887806,0.6242875382304192,0.141966250911355,-0.05390790430828929,9700.0,0.46746027544140817,-0.9763361930847168,-13.55746418068594
0.0,9.415984698506875,5.4548702494472865,-0.06506570503115654,675.0,-3.2582230142309516e-08,-13.891616069163128,-0.04603204671293497,0.0,-2.1209829839758543,0.0,-0.7154769837310596,8929821.0,2450.0,0.0,-0.0509111481718719,0.0,-9.6536117399667,-9.41171322398694,0.006494140625,2700.0,0.036954050210495124,-9.501016205800706,0.0,0.0015869140625,0.0,97,0.13102795229344638,0.2748659856617451,-0.9991180241107941,-27.0,-2.1216510557816948,-2.121651055781997,-27.0,0.40079534947872164,0.005143779492937028,0.6254138067364693,0.14262481331825255,-0.05408787550404668,9800.0,0.4697930462658405,-0.9762122705578804,-12.793882571090979
0.0,9.411144040585762,6.163079237224409,-0.06514230035245419,675.0,-5.838544397460049e-23,-13.855642635795775,-0.0468542049638927,0.0,-2.0731476862793117,0.0,-0.713440070485376,9020946.0,2475.0,0.0,-0.05086545469239354,0.0,-9.642160684605694,-9.406619037711817,0.0059326171875,2700.0,0.02272460433381058,-9.489658268889432,0.0,0.00146484375,0.0,98,0.12721131868562566,0.27583117336034774,-0.9991457790136338,-27.0,-2.07338329809063,-2.07338329809063,-27.0,0.40153239741921426,0.005000989662948996,0.627716702222824,0.14873500391840935,-0.05429561324417591,9900.0,0.47136808186769485,-0.9750624895095825,-12.418986171637869
0.0,9.374436983510396,0.8267655093984706,-0.06574984323233365,675.0,-1.7978580729045508e-27,-12.427412778285813,-0.049327794928103685,0.0,-2.113331262972417,0.0,-0.7120345285366056,9112071.0,2500.0,0.0,-0.0509998525492847,0.0,-9.604711063672791,-9.370149843732976,0.0056396484375,2700.0,0.1618701945114685,-9.451495429422744,0.0,0.002001953125,0.0,99,0.1300745969635809,0.2745801702141762,-0.9991667285561562,-27.0,-2.1129871633929724,-2.1129871633929724,-27.0,0.40156035497784615,0.0048931501689366995,0.6295991569757462,0.14246212989091872,-0.05338904280215502,10000.0,0.4732675440609455,-0.9762428849935532,-1.0284128959837937
