ReemS3/reg_curious_hac/data/d4a6886/AntFourRoomsEnv-v0/alg:chac|eta:0.5|fw:1|fwhidsiz:256,256,256|nlev:2|reg:True|rolbatsiz:1|timsca:15,15|102/progress.csv
train_0/target_q,epoch,train_1/mu_loss,train_0/mu_grads_std,train_1/reward_-1.0_frac,train_0/fw_bonus,test_1/avg_q,train_1/target_q,train/episodes,test/success_rate,train_0/q_loss,train_1/reward_-0.0_frac,train_1/n_subgoals,train_1/reward,train_0/current_q,policy/steps,train_1/mu_grads,train_1/avg_q,train_0/mu_grads,train_0/mu_loss,train_0/reward,train_0/reward_-0.0_frac,train_1/subgoal_succ_rate,test_0/avg_q,test/episodes,train_1/reward_-15.0_frac,train_1/mu_grads_std,train/success_rate,train_1/q_grads_std,train_0/next_q,train_1/fw_loss,test_1/n_subgoals,train_1/q_loss,train_0/avg_q,train_0/q_grads,train_1/next_q,train_0/fw_loss,train_0/reward_-1.0_frac,train_1/q_grads,train_1/current_q,train_1/fw_bonus,test_1/subgoal_succ_rate,train_0/q_grads_std
-5.6400769074254615,0,2.1434713692471172,0.17054423540830613,0.0025146484375,-0.9948932930827141,-8.140167319776468,-2.2997761997242834,100.0,0.0,0.20244707568102407,0.0,1500.0,-1.5312159375571355,-5.4074683586162235,28125.0,-0.0009075367022887803,-5.162948046742859,-0.0007036485025309957,5.319307673392157,-0.6970438129610557,0.0,0.0,-14.999999999999998,25.0,0.0,0.2514435715973377,0.0,0.1114209234714508,-5.316604478117093,0.042519119661301376,375.0,0.16885189440491283,-9.918452918979893,0.02827400667592883,-1.1411527454854422,0.02602881332859397,0.011474609375,0.021840674662962557,-2.30866276544715,-0.9954885110259056,0.0,0.10795293357223272
-5.7017634528518695,1,3.509336197905685,0.20971323288977145,0.002734375,-0.9968130558729171,-7.791626729079721,-3.2847492541103924,200.0,0.0,0.21514292924078302,0.0,1500.0,-1.52103875102257,-5.463528977315809,56250.0,-0.013212375389412046,-7.775846613319646,-0.013992789224721492,5.40693241268535,-0.6974543840595289,0.0,0.0,-14.994411113026198,50.0,0.0,0.27272539064288137,0.0,0.1270400106906891,-5.404819196484478,0.05167763167992234,375.0,0.34671997190239684,-14.993429047616372,0.026528106117621065,-2.4966886675790447,0.016703656618483366,0.0133056640625,0.013479434768669307,-3.298172281920157,-0.993615573644638,0.0,0.1197755966335535
-5.661506055104732,2,3.8150735987571722,0.23462543971836566,0.0032470703125,-0.9975409269332886,-8.028596581360027,-3.48165949178278,300.0,0.0,0.21997402698388538,0.0,1500.0,-1.5307405537081649,-5.426185935979855,84375.0,-0.017047977587208153,-7.697671718224493,-0.0176782819442451,5.372558904451556,-0.700308547392342,0.0,0.0,-15.0,75.0,0.0,0.28952764347195625,0.0,0.13552075996994972,-5.3695563947920055,0.050630437396466735,375.0,0.3591426138288956,-14.982166233505092,0.02292471956461668,-2.7988563932856136,0.013168142666108907,0.012744140625,-0.0004885999267571605,-3.4973683228471097,-0.9938297525048256,0.0,0.13377190083265306
-5.714109281435534,3,1.0,0.25135946795344355,0.00341796875,-0.9980290159583092,-5.003185524779155e-10,-1.519089841505047,400.0,0.0,0.21943799023939556,0.0,1500.0,-1.519089841505047,-5.478235580710384,112500.0,-0.01581735722720623,-8.085363010637808,-0.021679577743634583,5.416534037896463,-0.7058382328839798,0.0,0.0,-15.0,100.0,0.0,0.29260489344596863,0.0,0.1613212525844574,-5.4112214123387865,0.05402407292276621,375.0,6.636550833130562,-15.0,0.0216973508708179,-8.62458641592755e-26,0.010797323985025286,0.0114013671875,-0.009829375892877579,-6.922743593448892e-08,-0.993135741353035,0.0,0.1478301677852869
-5.632836842537212,4,1.0,0.264297866076231,0.0025146484375,-0.9982390761375427,-3.941363371590002e-08,-1.5227140048278671,500.0,0.0,0.21628835243137612,0.0,1500.0,-1.5227140048278671,-5.401594155776299,140625.0,-0.01581735722720623,-2.762753518329558e-08,-0.020442737406119703,5.340177695110579,-0.7028671011656116,0.0,0.0,-15.0,125.0,0.0,0.29260489344596863,0.0,0.16132117956876754,-5.335367317063073,0.056902225594967604,375.0,6.683515745557512,-15.0,0.01865834235213697,-2.9342004364645657e-25,0.009776872745715082,0.0127197265625,-0.009829539083875715,-7.407063318669073e-08,-0.9925471484661103,0.0,0.15627568103373052
-5.712630010203393,5,1.0,0.2707085654139519,0.002392578125,-0.998424519598484,-4.0332600484365e-08,-1.5084386167742196,600.0,0.0,0.22344030289345035,0.0,1500.0,-1.5084386167742196,-5.479484277077467,168750.0,-0.01581735722720623,-9.425733943440768e-08,-0.022201573848724364,5.417031699089651,-0.706805030326359,0.0,0.0,-15.0,150.0,0.0,0.29260489344596863,0.0,0.16132039502263068,-5.4110777378194514,0.056954729557037356,375.0,6.544215196340824,-15.0,0.011837824434041976,-1.2902674621184802e-24,0.008876169240102172,0.01064453125,-0.00983102130703628,-1.0511662071570729e-07,-0.9925364062190056,0.0,0.163278328999877
-5.724805758571689,6,1.0,0.2814356401562691,0.0025390625,-0.9985166549682617,-2.7020855211961685e-08,-1.5318314376432682,700.0,0.0,0.22190685798169668,0.0,1500.0,-1.5318314376432682,-5.49045068821823,196875.0,-0.01581735722720623,-7.14567074777206e-08,-0.02199702481739223,5.428052432320472,-0.7092803053332318,0.0,0.0,-15.0,175.0,0.0,0.29260489344596863,0.0,0.16131545044481754,-5.423396261732506,0.05166128892451525,375.0,6.728402761650193,-15.0,0.010984502732753754,-1.577783712943998e-24,0.008428549987729638,0.00908203125,-0.009841154841706157,-1.314549962581636e-07,-0.9936189264059067,0.0,0.17325204983353615
-5.689871817722894,7,1.0,0.29200202971696854,0.0020751953125,-0.9987107366323471,-3.595136326110351e-08,-1.537929613644519,800.0,0.0,0.21503218469721058,0.0,1500.0,-1.537929613644519,-5.455914246428563,225000.0,-0.01581735722720623,-7.858396645144449e-08,-0.02115902677178383,5.3888481621736375,-0.7069725571607706,0.0,0.0,-15.0,200.0,0.0,0.29260489344596863,0.0,0.16128135547041894,-5.385551889139716,0.04562495667487383,375.0,6.8063857470862414,-15.0,0.0079903180943802,-5.593624980322368e-24,0.007485853030811995,0.0083984375,-0.009910895861685276,-3.385231868802638e-07,-0.9948533564805985,0.0,0.18051531948149205
-5.657036611756831,8,16.0,0.3022693946957588,0.0026611328125,-0.998824904859066,-14.999999999995687,-10.979710938735666,900.0,0.0,0.20992330579242938,0.0,1500.0,-1.5194570324856613,-5.423760572184686,253125.0,-0.005974332801997662,-7.83225645927799,-0.02120681283995509,5.356676832617028,-0.7049056156749429,0.0,0.0,-15.0,225.0,0.0,0.3108692765235901,0.0,0.20764229595661163,-5.353745524377944,0.043269979674369095,375.0,7.02183606270106,-15.0,0.0060346178011968735,-15.0,0.00693130730651319,0.004736328125,-0.019982831878587605,-11.09456669441803,-0.9953349605202675,0.0,0.18844777829945086
-5.6351089609933025,9,16.0,0.311699964851141,0.0026611328125,-0.9989113703370094,-15.0,-11.045221525905658,1000.0,0.0,0.2073789653958295,0.0,1500.0,-1.501705900905654,-5.4043041719385645,281250.0,-0.005974354222416878,-14.999999999193705,-0.022123672254383563,5.340062765891105,-0.7024097863293719,0.0,0.0,-15.0,250.0,0.0,0.3108692765235901,0.0,0.22485704980790616,-5.33678501818792,0.04221615232527256,375.0,5.728504275551323,-15.0,0.0034773638937622307,-15.0,0.006511304574087262,0.0035888671875,-0.02051134961657226,-11.107622181507372,-0.9955504789948464,0.0,0.1964170392602682
-5.739653597465965,10,1.0,0.3216749779880047,0.0029541015625,-0.9990148231387138,-7.016924913617049e-10,-1.5079192907702237,1100.0,0.0,0.20776626262694647,0.0,1500.0,-1.5079192907702237,-5.504451855326076,309375.0,-0.008799148723483086,-8.112760398310252,-0.022787920106202363,5.4373037290380015,-0.7070879747589061,0.0,0.0,-15.0,275.0,0.0,0.3170851469039917,0.0,0.2286742925643921,-5.434880898681525,0.04233543379232287,375.0,6.576486578156252,-15.0,0.0013973162276670337,0.0,0.006008817162364721,0.0036865234375,-0.023026060312986374,-3.111261900646515e-09,-0.9955260649323463,0.0,0.20474707148969173
-5.692864529814626,11,1.0,0.32882980853319166,0.002685546875,-0.9991252765059471,-5.116381706012255e-08,-1.5027794359899418,1200.0,0.0,0.2059434468925045,0.0,1500.0,-1.5027794359899418,-5.459949159083086,337500.0,-0.008799148723483086,-3.9582562596461e-09,-0.02397293415851891,5.3930703569748015,-0.705507458926877,0.0,0.0,-15.0,300.0,0.0,0.3170851469039917,0.0,0.2286742776632309,-5.392126487861814,0.0409096241928637,375.0,6.501719986752297,-15.0,0.0006992041147896088,0.0,0.005472302634734661,0.003271484375,-0.023026134818792343,-3.5589809849188083e-09,-0.9958176538348198,0.0,0.21329395584762095
-5.712400202784823,12,1.0,0.3346632823348045,0.002490234375,-0.9991422310471535,-5.477914575077453e-10,-1.517444212602277,1300.0,0.0,0.20796423531145153,0.0,1500.0,-1.517444212602277,-5.477294140926433,365625.0,-0.008799148723483086,-1.0772569401156173e-08,-0.025106959184631704,5.410943729145662,-0.7069197484379401,0.0,0.0,-15.0,325.0,0.0,0.3170851469039917,0.0,0.22867418825626373,-5.4086553872738765,0.03931723004207015,375.0,6.626362197246214,-15.0,-0.0015509626682614908,0.0,0.0053899131249636415,0.0047119140625,-0.023026584275066854,-1.7485285782351062e-09,-0.9961433127522469,0.0,0.2223719522356987
-5.64012402217106,13,1.0,0.34028337374329565,0.00234375,-0.9991558134555817,-5.674539397669068e-08,-1.5106989155312476,1400.0,0.0,0.20114464728851478,0.0,1500.0,-1.5106989155312476,-5.408656586267906,393750.0,-0.008799148723483086,-1.5514199060781162e-08,-0.02501192898489535,5.335117723232927,-0.7061941181062139,0.0,0.0,-15.0,350.0,0.0,0.3170851469039917,0.0,0.2286734402179718,-5.3334812082485925,0.03747571054846048,375.0,6.523082618470205,-15.0,-0.00368846669443883,0.0,0.005323933984618634,0.004296875,-0.023028777912259102,-1.9039866005732427e-09,-0.9965199008584023,0.0,0.23065066263079642
-5.693573935285654,14,1.0,0.34632319435477255,0.002294921875,-0.9991019994020462,-3.13710091686962e-08,-1.5335993989705456,1500.0,0.0,0.20709779708902443,0.0,1500.0,-1.5335993989705456,-5.458476756866852,421875.0,-0.008799148723483086,-3.419276997586922e-08,-0.024672300927340983,5.389972056385277,-0.7086574488894257,0.0,0.0,-15.0,375.0,0.0,0.3170851469039917,0.0,0.22866948023438455,-5.38679740994065,0.036042194627225396,375.0,6.69965369754739,-15.0,-0.004835519182961434,-1.5273011443590046e-307,0.005585299979429692,0.004638671875,-0.023039271775633096,-3.0371027083425497e-09,-0.9968130558729171,0.0,0.2387784618884325
-5.621091820217535,15,1.0,0.3529396913945675,0.001904296875,-0.99908557087183,-2.8611548600869155e-09,-1.51616045223127,1600.0,0.0,0.2029599049721722,0.0,1500.0,-1.51616045223127,-5.392297463329231,450000.0,-0.008799148723483086,-3.130482640759935e-08,-0.024597620591521263,5.317849504712803,-0.7059270629710227,0.0,0.0,-15.0,400.0,0.0,0.3170851469039917,0.0,0.22865670099854468,-5.315633465349552,0.037426866963505744,375.0,6.534515019296288,-15.0,-0.006101694446988404,-7.467815346610974e-307,0.005665134266018867,0.00400390625,-0.02307718200609088,-3.1674449008141454e-09,-0.9965298876166344,0.0,0.24614759013056756
-5.67420245995995,16,1.1098878980165907,0.35965005308389664,0.0023193359375,-0.9990808457136154,-0.11259525421687158,-1.576123484197397,1700.0,0.0,0.20489200601045932,0.0,1500.0,-1.5057794888285572,-5.440483917965816,478125.0,-0.013297127187252044,-1.9118327769367962,-0.025039993599057196,5.37561175795304,-0.7037762608466437,0.0,0.0,-15.0,425.0,0.0,0.3331820383667946,0.0,0.23819337859749795,-5.37423411445271,0.0371174942702055,375.0,6.3561574263221114,-15.0,-0.00765080654527992,-0.1093426377995963,0.005688104312866926,0.0046142578125,-0.03224425697699189,-0.09101487605124599,-0.9965931490063668,0.0,0.2539165556430817
-5.634968260908957,17,2.668888799340121,0.3642249725759029,0.0020263671875,-0.999079579114914,-1.7149524598024068,-2.5796033188224476,1800.0,0.0,0.2031216034179113,0.0,1500.0,-1.511104471662111,-5.405920231432124,506250.0,-0.013251317664980888,-0.3293607676049868,-0.024827551981434225,5.336901880288529,-0.704337155988469,0.0,0.0,-15.0,450.0,0.0,0.33318838477134705,0.0,0.24110027104616166,-5.334742648140744,0.035658312821760775,375.0,4.622299614793214,-15.0,-0.009162889560684562,-1.666537513586753,0.00569421115797013,0.0044921875,-0.031682382617145774,-1.666537513586753,-0.9968915566802025,0.0,0.26025294661521914
-5.677916327187676,18,5.1301748810479335,0.36873130053281783,0.0021728515625,-0.999116051197052,-4.130290464363339,-4.133126810998953,1900.0,0.0,0.19929475907132482,0.0,1500.0,-1.502327413353487,-5.443403266819615,534375.0,-0.013251317664980888,-3.0449765165373703,-0.02422419497743249,5.376187936661941,-0.7045507026770792,0.0,0.0,-15.0,475.0,0.0,0.33318838477134705,0.0,0.24276370778679848,-5.374580577693813,0.03804796505719423,375.0,5.3231296506808805,-15.0,-0.011539488518610596,-4.130139669217293,0.005517066293396056,0.0046875,-0.031579583790153264,-4.130139669217293,-0.9964028701186181,0.0,0.2672841474413872
-5.694815513752052,19,5.193264350426731,0.37242078483104707,0.0018310546875,-0.9992295041680336,-4.201352190652714,-4.206048365447091,2000.0,0.0,0.2003390679152674,0.0,1500.0,-1.5270097922701098,-5.459784711864623,562500.0,-0.013251317664980888,-4.17697356085337,-0.0227063397411257,5.391579607070402,-0.7042412286944455,0.0,0.0,-15.0,500.0,0.0,0.33318838477134705,0.0,0.24279935024678706,-5.390105577501993,0.03745338479056955,375.0,5.374893292701345,-15.0,-0.013241217681206762,-4.192947242818219,0.004965875286143273,0.004638671875,-0.03157765241339803,-4.192947242818219,-0.996524466574192,0.0,0.27451635524630547
-5.651958319588873,20,5.175361724275497,0.3760326825082302,0.0017333984375,-0.9992775321006775,-4.175706761640796,-4.184303697279456,2100.0,0.0,0.1982907748093285,0.0,1500.0,-1.5267256198414543,-5.419317581148699,590625.0,-0.013251317664980888,-4.17236539183265,-0.022328566946089267,5.3518231131709655,-0.7031055572799232,0.0,0.0,-15.0,525.0,0.0,0.33318838477134705,0.0,0.24278936982154847,-5.349046655416143,0.037009202595800164,375.0,5.38675198571639,-15.0,-0.015131829073652625,-4.175328428773483,0.004732753697317094,0.0050048828125,-0.03157819239422679,-4.175328428773483,-0.9966153025627136,0.0,0.2812210276722908
-5.695463174834848,21,5.369985704862823,0.3812191255390644,0.0016845703125,-0.9993093937635422,-4.3568167271004725,-4.3575400610446,2200.0,0.0,0.19774382653361752,0.0,1500.0,-1.5222188006729993,-5.459682038184246,618750.0,-0.013251317664980888,-4.289009605246932,-0.022250436572358014,5.387895520694586,-0.7066249093055376,0.0,0.0,-15.0,550.0,0.0,0.33318838477134705,0.0,0.24289921671152115,-5.385462818202205,0.03655537981539965,375.0,5.4499283205629805,-15.0,-0.01627553887665272,-4.370469058727666,0.004577958688605577,0.00537109375,-0.031572287902235985,-4.370469058727666,-0.9967081159353256,0.0,0.2864466071128845
-5.707869086569787,22,5.275416489683635,0.3850104659795761,0.001220703125,-0.9993482559919358,-4.2683067506297965,-4.266858774021831,2300.0,0.0,0.19885995286073482,0.0,1500.0,-1.5078735512091952,-5.47339435674741,646875.0,-0.013251317664980888,-4.313419999439341,-0.02284757876768708,5.402577594304587,-0.7046790161504759,0.0,0.0,-15.0,575.0,0.0,0.33318838477134705,0.0,0.2428862564265728,-5.401851337247837,0.03406776823103428,375.0,5.387378165472176,-15.0,-0.017253348138183355,-4.275792680840313,0.004389111476484686,0.0052978515625,-0.031616339832544325,-4.275792680840313,-0.9972168371081352,0.0,0.2913393408060074
-5.633046455015946,23,5.2713777230994765,0.3878068171441555,0.001513671875,-0.9993946895003318,-4.269754300160615,-4.267163016552763,2400.0,0.0,0.19675634688682936,0.0,1500.0,-1.5272331229665723,-5.4018569309955655,675000.0,-0.013251317664980888,-4.26543136905218,-0.02458214610815048,5.33388154240146,-0.7026026122512121,0.0,0.0,-15.0,600.0,0.0,0.33318838477134705,0.0,0.2428838260471821,-5.3315955451433,0.03347848011180758,375.0,5.43281847200654,-15.0,-0.018416491476818918,-4.271472817438474,0.004163674934534356,0.005078125,-0.0316164705902338,-4.271472817438474,-0.9973373383283615,0.0,0.29610375836491587
-5.697189081154933,24,5.292913653577299,0.3902514107525349,0.0017822265625,-0.999338085949421,-4.285685156761077,-4.284691036783632,2500.0,0.0,0.2035952325796706,0.0,1500.0,-1.5308062933836482,-5.46229452838139,703125.0,-0.013251317664980888,-4.255080156368361,-0.02675101449713111,5.393143976400952,-0.7057969734574726,0.0,0.0,-15.0,625.0,0.0,0.33318838477134705,0.0,0.24289588294923306,-5.391386711971804,0.03637782046571374,375.0,5.456530062754444,-15.0,-0.01909666880965233,-4.2929109166614605,0.004438557371031493,0.00478515625,-0.031615822296589616,-4.2929109166614605,-0.99674441665411,0.0,0.3008215256035328
-5.679373836124064,25,5.2660364074172765,0.3959907107055187,0.0015625,-0.999352103471756,-4.270284462652662,-4.266528156489318,2600.0,0.0,0.2062543920528091,0.0,1500.0,-1.5185548230780115,-5.446484413427259,731250.0,-0.013251317664980888,-4.3281361429313385,-0.029709585662931203,5.369945220033998,-0.7073054460168351,0.0,0.0,-15.0,650.0,0.0,0.33318838477134705,0.0,0.24288066290318966,-5.36920317201681,0.038841931615024805,375.0,5.389329391341913,-15.0,-0.019972959207370876,-4.2658566881597535,0.0043704763695131986,0.0037841796875,-0.03161664018407464,-4.2658566881597535,-0.9962405085563659,0.0,0.30581955462694166
-5.655123275789839,26,5.073981242973979,0.40085165575146675,0.001904296875,-0.9993768036365509,-4.089225512660491,-4.090946434953599,2700.0,0.0,0.20050758862073942,0.0,1500.0,-1.523794458739576,-5.421349463949336,759375.0,-0.013251317664980888,-4.1772066817330185,-0.031173564167693256,5.353670132317834,-0.7039974878338399,0.0,0.0,-15.0,675.0,0.0,0.33318838477134705,0.0,0.24277142770588397,-5.350840698659115,0.03988881502300501,375.0,5.350623094473119,-15.0,-0.02090057162567973,-4.073242697433062,0.004250457580201328,0.0036865234375,-0.031622556038200855,-4.073242697433062,-0.9960264131426811,0.0,0.3116611659526825
-5.717122437191004,27,4.968237888945917,0.40424219369888303,0.0019775390625,-0.999383382499218,-3.9638762239133456,-3.9686162921288597,2800.0,0.0,0.2024376161353844,0.0,1500.0,-1.4877409161614197,-5.481608714257407,787500.0,-0.013251317664980888,-4.0048471509683194,-0.03179967887699604,5.409927911027903,-0.7068450122977084,0.0,0.0,-15.0,700.0,0.0,0.33318838477134705,0.0,0.24271119385957718,-5.408244551848108,0.039471714198589324,375.0,5.275503233632375,-15.0,-0.023083579959347844,-3.9682684861058704,0.004218533268431202,0.0047607421875,-0.03162585366517305,-3.9682684861058704,-0.9961117044091224,0.0,0.3163877263665199
-5.675164827335996,28,4.9061904678942145,0.4076908819377422,0.001806640625,-0.99938053637743,-3.9101124027517296,-3.909690573682113,2900.0,0.0,0.2009318032717296,0.0,1500.0,-1.4843566526345966,-5.442134982551975,815625.0,-0.013251317664980888,-3.949791698442265,-0.03394856434315443,5.370387738707147,-0.7049637045070994,0.0,0.0,-15.0,725.0,0.0,0.33318838477134705,0.0,0.2426752161234617,-5.36889827857348,0.040574679151177406,375.0,5.251070422072891,-15.0,-0.024767753295600416,-3.906017225657785,0.004232374823186546,0.0040771484375,-0.03162783561274409,-3.906017225657785,-0.9958861500024796,0.0,0.3224691316485405
-5.58917865682456,29,4.8316632647946545,0.4127333924174309,0.001416015625,-0.9993883401155472,-3.8274709959770727,-3.836121218973311,3000.0,0.0,0.20019008401037888,0.0,1500.0,-1.5058738471590913,-5.360407080821662,843750.0,-0.013251317664980888,-3.8675197096569223,-0.03462613765150309,5.297121561338774,-0.7006463182275183,0.0,0.0,-15.0,750.0,0.0,0.33318838477134705,0.0,0.2426321055740118,-5.295285598526748,0.04204445872455835,375.0,5.327111513605771,-15.0,-0.02576224678196013,-3.8318819498027046,0.004194459650898352,0.00419921875,-0.03163022277876735,-3.8318819498027046,-0.9955855831503868,0.0,0.3277279257774353
-5.696646013001486,30,4.899953549171834,0.41707637831568717,0.0013916015625,-0.9994219481945038,-3.911240091013284,-3.9124017563706275,3100.0,0.0,0.20104081834777315,0.0,1500.0,-1.4823641143993882,-5.4616117792322125,871875.0,-0.013251317664980888,-3.835885405280341,-0.03438525041565299,5.387715100883733,-0.7064248380207573,0.0,0.0,-15.0,775.0,0.0,0.33318838477134705,0.0,0.24267166927456857,-5.385157860734493,0.040482604410499334,375.0,5.2184796557168855,-15.0,-0.026958621013909577,-3.8999016837137455,0.004031241912161932,0.0040283203125,-0.03162803174927831,-3.8999016837137455,-0.9959049880504608,0.0,0.3328331135213375
-5.689866622584498,31,5.189790498752759,0.42075334414839743,0.001318359375,-0.999440298974514,-4.178842669075482,-4.1777511646823715,3200.0,0.0,0.20399239136400044,0.0,1500.0,-1.508271452293411,-5.456382331737247,900000.0,-0.013251317664980888,-4.025273886442709,-0.035904651321470735,5.381209188273185,-0.7086068666038046,0.0,0.0,-15.0,800.0,0.0,0.33318838477134705,0.0,0.2428378690034151,-5.380320119821047,0.03423537788912654,375.0,5.393420339427655,-15.0,-0.028330713463947176,-4.190063411285865,0.003942088392795995,0.00439453125,-0.03161894865334034,-4.190063411285865,-0.9971825495362282,0.0,0.33787874281406405
-5.694663259593012,32,5.404956626392486,0.42410495281219485,0.0009521484375,-0.9994878381490707,-4.41300492310865,-4.419133257990341,3300.0,0.0,0.20469999253853302,0.0,1500.0,-1.509407290060335,-5.459899209468286,928125.0,-0.013251317664980888,-4.283411040321901,-0.03600926212966442,5.385152176793914,-0.7093996774165134,0.0,0.0,-15.0,825.0,0.0,0.33318838477134705,0.0,0.24295841120183467,-5.38356544970969,0.033035841025412085,375.0,5.322413125497004,-15.0,-0.02925844080746174,-4.404597474768858,0.003711186960572377,0.0036865234375,-0.03161247903481126,-4.404597474768858,-0.9974278643727302,0.0,0.34315130636096003
-5.732805005139602,33,5.517864451311531,0.4276966542005539,0.0010986328125,-0.9995606034994126,-4.504835798866082,-4.510184669756259,3400.0,0.0,0.2086542560288282,0.0,1500.0,-1.4977613824026776,-5.4988997742016155,956250.0,-0.013251317664980888,-4.454016461276289,-0.03802373325452209,5.413511347471696,-0.7136718979367288,0.0,0.0,-15.0,850.0,0.0,0.33318838477134705,0.0,0.24302161261439323,-5.413001729032759,0.030532695166766644,375.0,5.372531956904041,-15.0,-0.02992870509624481,-4.518306627029618,0.0033577538328245283,0.004833984375,-0.03160912534222007,-4.518306627029618,-0.997939744591713,0.0,0.34763193055987357
-5.692526614514039,34,5.515752095805259,0.4309700205922127,0.0013427734375,-0.999560035765171,-4.518818151266006,-4.513127272310145,3500.0,0.0,0.20387332719382475,0.0,1500.0,-1.5213731625000946,-5.458840302532609,984375.0,-0.013251317664980888,-4.550979675451421,-0.03930565183982253,5.3754410119774745,-0.7114011120422219,0.0,0.0,-15.0,875.0,0.0,0.33318838477134705,0.0,0.24302024841308595,-5.373283419598596,0.029305791668593883,375.0,5.421865685297296,-15.0,-0.03046693350188434,-4.515843921898595,0.003360456775408238,0.00498046875,-0.03160919742658734,-4.515843921898595,-0.9981906667351723,0.0,0.35233441963791845
-5.707912603902076,35,5.307567750419049,0.4341602481901646,0.001123046875,-0.999581153690815,-4.310562136179301,-4.313069105447077,3600.0,0.0,0.20398217872745175,0.0,1500.0,-1.520909915112861,-5.473800113217165,1012500.0,-0.013251317664980888,-4.427009752701076,-0.03861871724948287,5.3791896079634665,-0.7118267090030713,0.0,0.0,-15.0,900.0,0.0,0.33318838477134705,0.0,0.24290403313934802,-5.37693391992661,0.028822190267965196,375.0,5.382112608023562,-15.0,-0.031721041072160006,-4.307420894388434,0.0032578871119767427,0.004931640625,-0.031615385226905345,-4.307420894388434,-0.9982895508408547,0.0,0.3559365004301071
-5.6760390745651375,36,5.2042314805908205,0.43869209513068197,0.0013427734375,-0.9995433330535889,-4.193500802641409,-4.187513510915256,3700.0,0.0,0.19997380824602243,0.0,1500.0,-1.5143241680860229,-5.443410182619063,1040625.0,-0.013251317664980888,-4.2921672129681125,-0.038185153156518936,5.360105610534593,-0.7078649278177181,0.0,0.0,-15.0,925.0,0.0,0.33318838477134705,0.0,0.2428460817784071,-5.358115941331098,0.03115069679915905,375.0,5.429285035704739,-15.0,-0.03302375953644514,-4.204574142700698,0.003441595833282918,0.005029296875,-0.03161850450560451,-4.204574142700698,-0.9978133767843247,0.0,0.36011729165911677
-5.676962173746752,37,4.976820257564897,0.4440072558820248,0.0015380859375,-0.9995477095246315,-3.99026821509601,-3.9921392647760996,3800.0,0.0,0.1966526098471745,0.0,1500.0,-1.4840126812952803,-5.444856269332432,1068750.0,-0.013251317664980888,-4.116869731456797,-0.038847488909959794,5.350991931849697,-0.7063412390118173,0.0,0.0,-15.0,950.0,0.0,0.33318838477134705,0.0,0.242716047167778,-5.349054890123794,0.033671709382906555,375.0,5.218459811416838,-15.0,-0.03371963631361723,-3.9766948624215877,0.0034203210030682384,0.0047607421875,-0.03162558674812317,-3.9766948624215877,-0.9972978383302689,0.0,0.3638596601784229
-5.641063373775706,38,4.929477479279614,0.4507267393171787,0.0018310546875,-0.9995189055800437,-3.935703752680417,-3.9394376481813147,3900.0,0.0,0.1959180167296711,0.0,1500.0,-1.511681453842175,-5.409490467397477,1096875.0,-0.013251317664980888,-3.950159299367156,-0.04018022855743766,5.327281354126238,-0.7035680497116118,0.0,0.0,-15.0,975.0,0.0,0.33318838477134705,0.0,0.24268853925168515,-5.3259684699424,0.0376560315489769,375.0,5.329603277745859,-15.0,-0.034844846464693546,-3.929032632501117,0.0035602166317403316,0.004443359375,-0.03162710070610046,-3.929032632501117,-0.9964830204844475,0.0,0.3689668864011765
-5.694225825624997,39,4.803702174007475,0.4580693252384663,0.0015625,-0.9995298072695732,-3.8023009533025336,-3.799526566228578,4000.0,0.0,0.1961277462346817,0.0,1500.0,-1.4962329450070684,-5.460338397287155,1125000.0,-0.013251317664980888,-3.8739255202193794,-0.041916347295045855,5.392038705385487,-0.7028044579303241,0.0,0.0,-15.0,1000.0,0.0,0.33318838477134705,0.0,0.24261574931442736,-5.39089315590911,0.03915331764146686,375.0,5.315496990387286,-15.0,-0.0358608559705317,-3.803883079563178,0.0035072583355940878,0.00478515625,-0.031631131935864684,-3.803883079563178,-0.9961768239736557,0.0,0.37307404577732084
-5.612310334830124,40,4.753912300823417,0.46276703625917437,0.0013916015625,-0.9994941011071206,-3.7569244384200084,-3.7601276685689258,4100.0,0.0,0.19126128040347035,0.0,1500.0,-1.4821668789649265,-5.379662684804673,1153125.0,-0.013251317664980888,-3.777440451882337,-0.043024822138249874,5.3128717196329545,-0.6979282066808082,0.0,0.0,-15.0,1025.0,0.0,0.33318838477134705,0.0,0.24258660413324834,-5.310721574220183,0.039785105362534524,375.0,5.2336097849365615,-15.0,-0.037938861455768344,-3.7541857149156916,0.0036806981835979967,0.004443359375,-0.03163275793194771,-3.7541857149156916,-0.9960476189851761,0.0,0.37735331878066064
-5.627689666970663,41,4.778401117436576,0.46531972140073774,0.0015380859375,-0.9994392096996307,-3.7882918602798683,-3.7961146040542304,4200.0,0.0,0.1920763914681955,0.0,1500.0,-1.4680925174616277,-5.396783925437255,1181250.0,-0.013251317664980888,-3.788077652763257,-0.04361034035682678,5.332672931579941,-0.6988162803892919,0.0,0.0,-15.0,1050.0,0.0,0.33318838477134705,0.0,0.24260066114366055,-5.3299816089869045,0.045273360516875985,375.0,5.147394343456969,-15.0,-0.03891528369858861,-3.7781245632283804,0.003947401425102725,0.00517578125,-0.03163197264075279,-3.7781245632283804,-0.9949252739548683,0.0,0.38026411458849907
-5.676006776492065,42,4.817434175197208,0.46786214858293534,0.00166015625,-0.9994280070066452,-3.813775042199737,-3.8132269384469084,4300.0,0.0,0.1945298778646901,0.0,1500.0,-1.469536334550503,-5.441426112218226,1209375.0,-0.013251317664980888,-3.815427014562602,-0.046069268882274625,5.386399448567181,-0.6979439820875996,0.0,0.0,-15.0,1075.0,0.0,0.33318838477134705,0.0,0.2426237002015114,-5.38389189812387,0.05037371255457401,375.0,5.217980881420658,-15.0,-0.040640611201524734,-3.8174833790042606,0.004001797770615667,0.0045166015625,-0.031630689650774,-3.8174833790042606,-0.9938822388648987,0.0,0.3836714930832386
-5.642194971622532,43,4.7172636677625,0.4709146417677402,0.001611328125,-0.9993677288293839,-3.721364383093046,-3.7183047171396852,4400.0,0.0,0.19487631553554655,0.0,1500.0,-1.459331705301156,-5.407411662294617,1237500.0,-0.013251317664980888,-3.789293463716577,-0.04607928106561303,5.359029387780538,-0.6956555396885961,0.0,0.0,-15.0,1100.0,0.0,0.33318838477134705,0.0,0.24256462790071964,-5.3570439805462495,0.05848739566281438,375.0,5.1614905683984205,-15.0,-0.04176090434193611,-3.716870388978485,0.004294616577681154,0.003955078125,-0.031633987184613944,-3.716870388978485,-0.9922229707241058,0.0,0.38711310252547265
-5.599515038813746,44,4.663423449749382,0.4739097818732262,0.0015380859375,-0.9993534609675407,-3.669630862538652,-3.668830114152185,4500.0,0.0,0.1888848552715888,0.0,1500.0,-1.4672909109838657,-5.368496572734224,1265625.0,-0.013251317664980888,-3.6623396476477548,-0.04764769310131669,5.3185428677913436,-0.6930971511275856,0.0,0.0,-15.0,1125.0,0.0,0.33318838477134705,0.0,0.24253286831080914,-5.316689232911871,0.06146981418132782,375.0,5.179965998269081,-15.0,-0.04170596497133374,-3.663185118873531,0.004363780957646668,0.004736328125,-0.03163577076047659,-3.663185118873531,-0.99161307066679,0.0,0.39134790375828743
-5.6384317849025205,45,4.71049353091446,0.47672922164201736,0.0015869140625,-0.9993316397070885,-3.7187805399333542,-3.7196454353328874,4600.0,0.0,0.1937551713630835,0.0,1500.0,-1.483157339997706,-5.40582938244073,1293750.0,-0.013251317664980888,-3.6995185368226204,-0.04762840392068028,5.354207928865243,-0.6961257795192068,0.0,0.0,-15.0,1150.0,0.0,0.33318838477134705,0.0,0.24256065040826796,-5.351302541586622,0.06579413637518883,375.0,5.231936280473365,-14.999999999858744,-0.043085343297570945,-3.7101291963830305,0.004469887900631875,0.0044921875,-0.03163420967757702,-3.7101291963830305,-0.9907287418842315,0.0,0.3959708191454411
-5.658671624100624,46,4.753890897820003,0.48048075586557387,0.0015380859375,-0.9993502482771873,-3.7625977369970944,-3.76526850379111,4700.0,0.0,0.19700356445627074,0.0,1500.0,-1.486046412200085,-5.425095068578627,1321875.0,-0.013251317664980888,-3.7017707040777594,-0.04797884486615658,5.371171606159514,-0.6981980689699412,0.0,0.0,-15.0,1175.0,0.0,0.33318838477134705,0.0,0.2425860919058323,-5.368808963692719,0.0615354030393064,375.0,5.234693659748915,-15.0,-0.04441041499376297,-3.7533131114766767,0.004379527876153588,0.0044677734375,-0.03163278615102172,-3.7533131114766767,-0.9915996581315994,0.0,0.4011566497385502
-5.630925518385102,47,4.961680516998511,0.4837003543972969,0.0014404296875,-0.9993867948651314,-3.9607077618092745,-3.9530722647310284,4800.0,0.0,0.19580560972906727,0.0,1500.0,-1.4850541324252844,-5.398230735296901,1350000.0,-0.013251317664980888,-3.8223075675468117,-0.04911183901131153,5.334980206323766,-0.7003525753782014,0.0,0.0,-15.0,1200.0,0.0,0.33318838477134705,0.0,0.24270746484398842,-5.332230050314235,0.061808491311967376,375.0,5.294651924623652,-15.0,-0.0453337574377656,-3.961802531493947,0.00420198236242868,0.004345703125,-0.03162605818361044,-3.961802531493947,-0.9915438130497932,0.0,0.406339131295681
-5.66660846081455,48,5.107537291576062,0.4873834431171417,0.0012451171875,-0.9993815034627914,-4.100084686959136,-4.1023556642727055,4900.0,0.0,0.20064159849559154,0.0,1500.0,-1.4898771010055498,-5.432326355659957,1378125.0,-0.013251317664980888,-4.041801671078509,-0.04917478039860725,5.361320842631191,-0.7028645805810811,0.0,0.0,-15.0,1225.0,0.0,0.33318838477134705,0.0,0.2427913449704647,-5.359120796853907,0.06322943670675159,375.0,5.310643055570542,-15.0,-0.04699867172166705,-4.108150456963758,0.004227657197043299,0.0047119140625,-0.0316214713267982,-4.108150456963758,-0.9912532299757004,0.0,0.4114041097462177
-5.65143600599565,49,5.1889219490001235,0.49271340668201447,0.0014892578125,-0.9993586018681526,-4.179016609082056,-4.18724110944232,5000.0,0.0,0.20214617043465571,0.0,1500.0,-1.5116102475862134,-5.420430346952169,1406250.0,-0.013251317664980888,-4.181299778517134,-0.049205289036035535,5.345281669855529,-0.70525791371183,0.0,0.0,-15.0,1250.0,0.0,0.33318838477134705,0.0,0.2428374696522951,-5.340603393294623,0.06318415133282543,375.0,5.374582259569241,-15.0,-0.047813852317631245,-4.1893561345407875,0.0043389150057919325,0.003857421875,-0.0316189699806273,-4.1893561345407875,-0.9912624821066857,0.0,0.416190567612648
-5.66581196929147,50,5.159322498360336,0.49867369830608366,0.00126953125,-0.9994146957993507,-4.163940627880256,-4.161335518649238,5100.0,0.0,0.20313902222314112,0.0,1500.0,-1.5096629385501728,-5.432230004824959,1434375.0,-0.013251317664980888,-4.179437514729295,-0.05099774831905961,5.343537531279934,-0.7039309787629463,0.0,0.0,-15.0,1275.0,0.0,0.33318838477134705,0.0,0.24282045289874077,-5.34041299146044,0.06217220760881901,375.0,5.353738171387055,-15.0,-0.04892124626785517,-4.159338312794025,0.004066456854343414,0.0034912109375,-0.03161989115178585,-4.159338312794025,-0.991469432413578,0.0,0.4205610670149326
-5.741371516993617,51,5.26705102608759,0.5030733570456505,0.0013916015625,-0.9994285494089127,-4.262644635966028,-4.259128810940104,5200.0,0.0,0.2030444217606245,0.0,1500.0,-1.5109102410096966,-5.506012838503774,1462500.0,-0.013251317664980888,-4.228971617621618,-0.05073048174381256,5.406293664532501,-0.7095531411316187,0.0,0.0,-15.0,1300.0,0.0,0.33318838477134705,0.0,0.24288152493536472,-5.402322490573127,0.06083762748166919,375.0,5.394336609810604,-15.0,-0.05083512384444475,-4.26738795469349,0.003999151173047721,0.0041259765625,-0.031616594083607195,-4.26738795469349,-0.9917423412203789,0.0,0.4248349189758301
-5.667400074853075,52,5.261436261953143,0.5069225311279297,0.0014892578125,-0.9994909331202507,-4.254687502723547,-4.251860984579681,5300.0,0.0,0.20203874372192648,0.0,1500.0,-1.5127537457658036,-5.437468684241742,1490625.0,-0.013251317664980888,-4.248757175232276,-0.05133165949955583,5.358030512598587,-0.7071429258547142,0.0,0.0,-15.0,1325.0,0.0,0.33318838477134705,0.0,0.24287810362875462,-5.3551078746297565,0.05641806339845061,375.0,5.404207920455895,-15.0,-0.05160395624116063,-4.261312336179179,0.0036961368226911873,0.004248046875,-0.03161677801981568,-4.261312336179179,-0.9926461711525917,0.0,0.42886982709169386
-5.683802637721572,53,5.219984130322598,0.5088463097810745,0.001220703125,-0.9995173051953316,-4.212398499754668,-4.210636341792717,5400.0,0.0,0.19910149058387855,0.0,1500.0,-1.5188120288730715,-5.44997549952305,1518750.0,-0.013251317664980888,-4.210692766712722,-0.052844783384352924,5.360126044527748,-0.7089505485833797,0.0,0.0,-15.0,1350.0,0.0,0.33318838477134705,0.0,0.24285492710769177,-5.356674865166788,0.05841241385787725,375.0,5.422190331755099,-15.0,-0.05288100270554423,-4.22022405610913,0.0035680057597346606,0.0037841796875,-0.03161802673712373,-4.22022405610913,-0.9922383219003678,0.0,0.43320009857416153
-5.714267538387807,54,5.352641353291374,0.5095727041363716,0.0012939453125,-0.9995245650410652,-4.348800646004613,-4.346353948851498,5500.0,0.0,0.20102552466436524,0.0,1500.0,-1.512849137102603,-5.480270232877922,1546875.0,-0.013251317664980888,-4.285939404128942,-0.05499548465013504,5.390012940071521,-0.7105777101460262,0.0,0.0,-15.0,1375.0,0.0,0.33318838477134705,0.0,0.24292954318225385,-5.3874653718109,0.055007600132375954,375.0,5.400482490266962,-15.0,-0.05356780095025897,-4.352929962954007,0.0035327764868270605,0.003564453125,-0.03161401944234967,-4.352929962954007,-0.9929345905780792,0.0,0.43702612221241
-5.656982273476309,55,5.4054263635792745,0.5107361972332001,0.0009521484375,-0.9995351344347,-4.404723511773686,-4.40581893920992,5600.0,0.0,0.20062117632540205,0.0,1500.0,-1.528659563860856,-5.4251344158116535,1575000.0,-0.013251317664980888,-4.380226522707055,-0.0556525707244873,5.337399328442284,-0.7083979448216269,0.0,0.0,-15.0,1400.0,0.0,0.33318838477134705,0.0,0.24295884594321251,-5.334946040986502,0.05617874134331942,375.0,5.428317900340596,-15.0,-0.054054697323590514,-4.405375372557293,0.003481353260576725,0.0038330078125,-0.03161245584487915,-4.405375372557293,-0.9926951110363007,0.0,0.44067531526088716
-5.6594474253802005,56,5.306426364837824,0.5118439853191376,0.0012451171875,-0.999544021487236,-4.306438539177463,-4.30499782660672,5700.0,0.0,0.20035496196574698,0.0,1500.0,-1.5403219907871972,-5.427934249334999,1603125.0,-0.013251317664980888,-4.36479726103464,-0.055439282488077876,5.343252294508592,-0.7085976954920625,0.0,0.0,-15.0,1425.0,0.0,0.33318838477134705,0.0,0.24290352165699006,-5.340989428980306,0.054938823264092204,375.0,5.467883569630574,-14.999999999999982,-0.05499232597649097,-4.3065096083036325,0.003438234416535124,0.0047119140625,-0.03161541260778904,-4.3065096083036325,-0.9929486677050591,0.0,0.4443687409162521
-5.651519526252601,57,5.213989166071524,0.5145723730325699,0.00107421875,-0.9995420426130295,-4.206466828710673,-4.210290783579792,5800.0,0.0,0.19966228993219481,0.0,1500.0,-1.5400246959696233,-5.417921846475798,1631250.0,-0.013251317664980888,-4.272644039744285,-0.05660260496661067,5.3427853142036765,-0.7052763903913728,0.0,0.0,-15.0,1450.0,0.0,0.33318838477134705,0.0,0.24285156577825545,-5.339993938186066,0.05736879911273718,375.0,5.473880702739493,-14.999999999896934,-0.05640158541500569,-4.214278214482853,0.0034478804853279145,0.003662109375,-0.031618207972496745,-4.214278214482853,-0.992451736330986,0.0,0.447452637553215
-5.710680489207277,58,5.1864805351111105,0.517424239218235,0.0008056640625,-0.9995348289608955,-4.200058623775341,-4.201394120886851,5900.0,0.0,0.19934597449862318,0.0,1500.0,-1.5271594391400867,-5.47554726483704,1659375.0,-0.013251317664980888,-4.205999977939872,-0.0566641946323216,5.402312587592871,-0.7071282509728917,0.0,0.0,-15.0,1475.0,0.0,0.33318838477134705,0.0,0.242835533618927,-5.399522798521419,0.060702205542474984,375.0,5.3700925826766825,-15.0,-0.05707129891961813,-4.185939067835443,0.0034829311014618726,0.004345703125,-0.031619074195623396,-4.185939067835443,-0.9917700543999672,0.0,0.45046830400824545
-5.724585490363711,59,5.158662107875794,0.5203112661838531,0.0014892578125,-0.9995163813233375,-4.155858607263817,-4.154173945522368,6000.0,0.0,0.19837818577568322,0.0,1500.0,-1.4998537048137224,-5.488731580100645,1687500.0,-0.013251317664980888,-4.164311487208915,-0.057904186099767684,5.417648506127755,-0.7081444270334032,0.0,0.0,-14.999999999999998,1500.0,0.0,0.33318838477134705,0.0,0.24282022900879383,-5.416695580080477,0.06486697904765606,375.0,5.343956017664954,-15.0,-0.05802890472114086,-4.1589422049625675,0.003572449798230082,0.0041015625,-0.03161990288645029,-4.1589422049625675,-0.9909183442592621,0.0,0.4538837164640427
-5.721784422056812,60,5.163148477311725,0.5222922638058662,0.0008056640625,-0.9994991391897201,-4.161003719899709,-4.161630221116374,6100.0,0.0,0.1999785735347288,0.0,1500.0,-1.518369131423242,-5.487054440101536,1715625.0,-0.013251317664980888,-4.1758206871458095,-0.058099803142249586,5.413173952507817,-0.7091001528817287,0.0,0.0,-15.0,1525.0,0.0,0.33318838477134705,0.0,0.24282272532582283,-5.411053007728244,0.06775799151510001,375.0,5.395537706840061,-14.999999999999993,-0.05939000248908997,-4.163344653060751,0.003656286146724597,0.004248046875,-0.031619767751544715,-4.163344653060751,-0.9903271332383156,0.0,0.4575004778802395
-5.694524330090481,61,5.106379748403185,0.5241899266839027,0.0009033203125,-0.9995185911655426,-4.09916557441853,-4.095910319899166,6200.0,0.0,0.20044643359593817,0.0,1500.0,-1.5150100043552812,-5.460594432691648,1743750.0,-0.013251317664980888,-4.132131649047945,-0.05785043640062213,5.388438341024122,-0.7073398591463047,0.0,0.0,-15.0,1550.0,0.0,0.33318838477134705,0.0,0.242790524661541,-5.385607851024536,0.07028650445863605,375.0,5.411583962559312,-14.999999999999993,-0.06065466916188598,-4.106707672296321,0.003561800706665963,0.004541015625,-0.03162151612341404,-4.106707672296321,-0.9898100405931473,0.0,0.46141197979450227
-5.710517962410641,62,5.132349691002989,0.5263388723134994,0.00087890625,-0.9995501562952995,-4.143873859916639,-4.140720562697415,6300.0,0.0,0.19885595749037732,0.0,1500.0,-1.501779191451351,-5.474990590966915,1771875.0,-0.013251317664980888,-4.119933880077312,-0.058277540002018215,5.400765580999971,-0.7084542779710319,0.0,0.0,-15.0,1575.0,0.0,0.33318838477134705,0.0,0.24280487559735775,-5.39965600015897,0.06800247225910425,375.0,5.307471889777624,-14.999999999999977,-0.06166214570403099,-4.1319162957696305,0.0034084421931765974,0.0050537109375,-0.03162073586136103,-4.1319162957696305,-0.9902771264314651,0.0,0.46488330960273744
-5.625823879146542,63,5.175074777932838,0.5299970835447312,0.00107421875,-0.9995819509029389,-4.170168565368656,-4.167790782539724,6400.0,0.0,0.19903692287004043,0.0,1500.0,-1.5146032397977252,-5.39243502286401,1800000.0,-0.013251317664980888,-4.1410504353995465,-0.05759033039212227,5.317287904980903,-0.7070785731382785,0.0,0.0,-15.0,1600.0,0.0,0.33318838477134705,0.0,0.242829517647624,-5.314863473795308,0.06614654650911689,375.0,5.401797508614462,-14.999999999999343,-0.06331723146140575,-4.175321461312953,0.003254009532975033,0.0041748046875,-0.03161939997226,-4.175321461312953,-0.9906566634774208,0.0,0.46824862584471705
-5.598056524565484,64,5.211537571459084,0.532319986820221,0.00078125,-0.9995955944061279,-4.211781703582738,-4.212060796883106,6500.0,0.0,0.19680446438690263,0.0,1500.0,-1.531323855950177,-5.368418484627134,1828125.0,-0.013251317664980888,-4.182293163705614,-0.058534459117799996,5.289564381861673,-0.7065116595440486,0.0,0.0,-15.0,1625.0,0.0,0.33318838477134705,0.0,0.24285002276301385,-5.287858583785773,0.056625372543931005,375.0,5.431439057028419,-15.0,-0.06527454014867544,-4.211544540940917,0.0031877831963356583,0.0044189453125,-0.03161829123273492,-4.211544540940917,-0.9926037654280663,0.0,0.47168915942311285
-5.693536073604714,65,5.284510456879756,0.5327030688524246,0.00087890625,-0.9996336445212364,-4.286340591964724,-4.287022524534426,6600.0,0.0,0.19897256770059737,0.0,1500.0,-1.5272399864341424,-5.458852651797027,1856250.0,-0.013251317664980888,-4.231838648548559,-0.05932169016450643,5.375767429956096,-0.7100707184341445,0.0,0.0,-15.0,1650.0,0.0,0.33318838477134705,0.0,0.24289098531007766,-5.3739889491307355,0.052393303345888854,375.0,5.412057884163252,-14.999999999812022,-0.06564409807324409,-4.2842010218682045,0.0030030084133613856,0.005908203125,-0.031616085674613714,-4.2842010218682045,-0.9934692353010177,0.0,0.4758212961256504
-5.754089048500701,66,5.26679353352621,0.5341422617435455,0.000927734375,-0.9996411189436912,-4.267800032523985,-4.268285264392663,6700.0,0.0,0.20135771036393563,0.0,1500.0,-1.5222839939553523,-5.518101477054242,1884375.0,-0.013251317664980888,-4.304046060519599,-0.060052364505827426,5.438357635512422,-0.7114416552554758,0.0,0.0,-15.0,1675.0,0.0,0.33318838477134705,0.0,0.2428810853511095,-5.437306286251529,0.053228380624204874,375.0,5.39996955036941,-14.99999999567906,-0.06623436361551285,-4.266605586534473,0.002966583735542372,0.005224609375,-0.03161661755293608,-4.266605586534473,-0.9932984605431556,0.0,0.47881877720355986
-5.659173405869671,67,5.179236803945329,0.5356845512986184,0.001025390625,-0.9996048733592033,-4.182191435131011,-4.180540273861727,6800.0,0.0,0.19671481578305755,0.0,1500.0,-1.5030562422711227,-5.426268046435533,1912500.0,-0.013251317664980888,-4.252210375620607,-0.06017419286072254,5.351561607192577,-0.7061745078783133,0.0,0.0,-15.0,1700.0,0.0,0.33318838477134705,0.0,0.24283175878226756,-5.349609892395115,0.06721264012157917,375.0,5.337374980603859,-14.999999999999343,-0.06690314654260873,-4.179274129557028,0.0031426567933522166,0.00478515625,-0.031619278527796266,-4.179274129557028,-0.9904386594891548,0.0,0.4820056617259979
-5.704593355755942,68,4.974283647242359,0.5368780598044396,0.0007080078125,-0.9995511591434478,-3.9764269568921713,-3.9749686929556534,6900.0,0.0,0.2003371560198107,0.0,1500.0,-1.4923952204400848,-5.4702017187930165,1940625.0,-0.013251317664980888,-4.08203759763141,-0.06127550350502133,5.396070087614939,-0.7072340789003647,0.0,0.0,-15.0,1725.0,0.0,0.33318838477134705,0.0,0.2427145976573229,-5.395851179812494,0.07919286079704761,375.0,5.296845484527499,-15.0,-0.06743046939373017,-3.9741787899915906,0.0034035447693895548,0.0049072265625,-0.031625666189938784,-3.9741787899915906,-0.9879886850714683,0.0,0.4853213429450989
-5.650180115058286,69,4.910382328591664,0.539748951792717,0.0009765625,-0.9995596200227738,-3.9016366754040086,-3.902956942456349,7000.0,0.0,0.19564064737805387,0.0,1500.0,-1.4834612741600721,-5.417428927539516,1968750.0,-0.013251317664980888,-3.9621082698472723,-0.06296060774475336,5.348519568653319,-0.7041865501189022,0.0,0.0,-15.0,1750.0,0.0,0.33318838477134705,0.0,0.24267799146473407,-5.347309603162991,0.08287809323519468,375.0,5.2890221050041415,-15.0,-0.06838149558752775,-3.9108098982866366,0.0033624617382884024,0.0044189453125,-0.03162768241018057,-3.9108098982866366,-0.9872350603342056,0.0,0.48916527107357977
-5.672802729959801,70,4.848888931155811,0.5430845364928245,0.0010498046875,-0.9995320901274681,-3.8551168110596374,-3.858029161458778,7100.0,0.0,0.19732871027592686,0.0,1500.0,-1.4891808838932774,-5.439841986872305,1996875.0,-0.013251317664980888,-3.876099435679614,-0.06390957608819008,5.36530667462889,-0.7052347959994222,0.0,0.0,-15.0,1775.0,0.0,0.33318838477134705,0.0,0.24264173731207847,-5.363802529211242,0.09009476080536842,375.0,5.259147964713138,-15.0,-0.06917353440076113,-3.84840088331048,0.003496192756574601,0.0038330078125,-0.03162968847900629,-3.84840088331048,-0.9857592314481736,0.0,0.4923659272491932
-5.61855893788749,71,4.8503952010258145,0.5457121342420578,0.0011962890625,-0.9995168700814248,-3.8522861565915942,-3.851416499526912,7200.0,0.0,0.1961553202301955,0.0,1500.0,-1.4983081019126985,-5.3866528044108835,2025000.0,-0.013251317664980888,-3.8311587036945407,-0.0649380685761571,5.319507045354419,-0.7020533580791379,0.0,0.0,-15.0,1800.0,0.0,0.33318838477134705,0.0,0.2426428973674774,-5.318175026524356,0.09347310736775398,375.0,5.316836843497373,-15.0,-0.0692449415102601,-3.85039035479175,0.003570124285761267,0.0040771484375,-0.03162962421774864,-3.85039035479175,-0.9850683510303497,0.0,0.4952692359685898
-5.702383008019796,72,4.813485799468323,0.5480260774493217,0.000830078125,-0.9995502024888993,-3.8219938973375576,-3.819344594958964,7300.0,0.0,0.19631935191939395,0.0,1500.0,-1.4911157290815027,-5.466137178849172,2053125.0,-0.013251317664980888,-3.819808180312026,-0.0648286420851946,5.400858632632854,-0.7045114235224901,0.0,0.0,-15.0,1825.0,0.0,0.33318838477134705,0.0,0.2426210854202509,-5.398865392568051,0.08955723773688078,375.0,5.274597149271043,-15.0,-0.06993408314883709,-3.8130124936170136,0.003408280125586316,0.0041259765625,-0.03163083512336016,-3.8130124936170136,-0.9858691617846489,0.0,0.4987837187945843
-5.697872448000029,73,4.77102620736025,0.5501081496477127,0.0008056640625,-0.9995722934603691,-3.763831758118966,-3.76225840877962,7400.0,0.0,0.1943980245474827,0.0,1500.0,-1.4854355103059789,-5.463025125422247,2081250.0,-0.013251317664980888,-3.806461576213675,-0.06379442736506462,5.388136821514123,-0.7037290220912837,0.0,0.0,-15.0,1850.0,0.0,0.33318838477134705,0.0,0.2425967626273632,-5.388119651552487,0.08374607767909766,375.0,5.296058216331934,-15.0,-0.07190050333738326,-3.771481679708619,0.0033008762169629336,0.0042724609375,-0.031632190477102994,-3.771481679708619,-0.9870575442910194,0.0,0.503178459405899
-5.640387270876584,74,4.73462395851061,0.5521357178688049,0.0010498046875,-0.9995377629995346,-3.742395804279333,-3.749694009420316,7500.0,0.0,0.19277703904427668,0.0,1500.0,-1.4860248102253535,-5.408857955349104,2109375.0,-0.013251317664980888,-3.7540694119617437,-0.06444053445011377,5.346887312388061,-0.7004524734002189,0.0,0.0,-15.0,1875.0,0.0,0.33318838477134705,0.0,0.24257491976022721,-5.344470451143093,0.09039866272360086,375.0,5.229663209090241,-15.0,-0.07321745604276657,-3.7343278872023005,0.0034686672152020037,0.0039306640625,-0.031633411161601545,-3.7343278872023005,-0.9856970623135567,0.0,0.5082416430115699
-5.67593769720869,75,4.675811294755488,0.5548366338014603,0.0011474609375,-0.9995263814926147,-3.686160484885449,-3.6893371395148096,7600.0,0.0,0.1915643856948793,0.0,1500.0,-1.488979608137015,-5.442676224659233,2137500.0,-0.013251317664980888,-3.689765250923967,-0.06406899597495794,5.383857618945462,-0.6997387751551287,0.0,0.0,-15.0,1900.0,0.0,0.33318838477134705,0.0,0.24254012070596218,-5.381626088331094,0.0992262128740549,375.0,5.248734314909184,-15.0,-0.07384078819304704,-3.675418476580609,0.0035239489283412696,0.0041259765625,-0.03163536284118891,-3.675418476580609,-0.9838918387889862,0.0,0.5124305188655853
-5.699968506975155,76,4.6217580585016425,0.5562329709529876,0.000732421875,-0.9995393753051758,-3.6253394504988052,-3.622804325215982,7700.0,0.0,0.19372368697669565,0.0,1500.0,-1.4742362546676304,-5.4628303534500215,2165625.0,-0.013251317664980888,-3.661833533245253,-0.06437149345874786,5.404271561682355,-0.699647616330185,0.0,0.0,-15.0,1925.0,0.0,0.33318838477134705,0.0,0.2425082366913557,-5.403761486538629,0.09812496267259121,375.0,5.226590680543502,-15.0,-0.07556811701506376,-3.621755600607277,0.003460824390640482,0.005419921875,-0.031637159362435344,-3.621755600607277,-0.984117041528225,0.0,0.5162229180335999
-5.603748254680012,77,4.654630011576226,0.5578424841165542,0.00107421875,-0.9995225831866265,-3.646515551464947,-3.6443166884334417,7800.0,0.0,0.18928089244969698,0.0,1500.0,-1.4739720131110516,-5.372639260222473,2193750.0,-0.013251317664980888,-3.6328044887806925,-0.06562691479921341,5.311028262345731,-0.6962334567499056,0.0,0.0,-15.0,1950.0,0.0,0.33318838477134705,0.0,0.24252797178924085,-5.309254006358065,0.10357441902160644,375.0,5.258250976679905,-15.0,-0.07734814714640378,-3.6549347024826737,0.0035424092260655017,0.004931640625,-0.03163604643195868,-3.6549347024826737,-0.9830026313662529,0.0,0.5187543302774429
-5.65553283144133,78,4.788070389492596,0.5589676856994629,0.0007080078125,-0.9995253056287765,-3.7848161842077848,-3.7861239157203124,7900.0,0.0,0.19330928809806208,0.0,1500.0,-1.4798305589451046,-5.4212151999852765,2221875.0,-0.013251317664980888,-3.704450943788203,-0.0666062843054533,5.357303803289606,-0.6983222279690381,0.0,0.0,-15.0,1975.0,0.0,0.33318838477134705,0.0,0.2426064744591713,-5.355985066155293,0.1069252636283636,375.0,5.2586106427820996,-14.999999963052773,-0.07849336806684733,-3.788042359148703,0.003529110021190718,0.004296875,-0.03163164844736457,-3.788042359148703,-0.9823173671960831,0.0,0.5221932172775269
-5.677685439564399,79,4.6536385361781445,0.5603656679391861,0.000830078125,-0.9995331794023514,-3.645725954628411,-3.6495930361199327,8000.0,0.0,0.1914805422520507,0.0,1500.0,-1.4578484305624442,-5.442666608916154,2250000.0,-0.013251317664980888,-3.709597008902867,-0.06810597181320191,5.380406799603824,-0.6996445215721906,0.0,0.0,-15.0,2000.0,0.0,0.33318838477134705,0.0,0.24252733513712882,-5.378962155543659,0.10689850207418203,375.0,5.179573772982396,-14.999999999916783,-0.07896102853119373,-3.6538638750835775,0.0034908915811683984,0.0048095703125,-0.03163608238101005,-3.6538638750835775,-0.9823228344321251,0.0,0.524648965895176
-5.6192601633497565,80,4.710293400690135,0.5628407165408135,0.0009033203125,-0.9995091021060943,-3.7224198760490146,-3.719337660842251,8100.0,0.0,0.19208321884610657,0.0,1500.0,-1.4773235206164828,-5.38814633033609,2278125.0,-0.013251317664980888,-3.676857108656496,-0.06915783416479826,5.326459400770381,-0.6990099201146223,0.0,0.0,-14.999999998341936,2025.0,0.0,0.33318838477134705,0.0,0.24256048686802387,-5.322383664525103,0.10183673948049546,375.0,5.215790565835602,-14.99999992661457,-0.08043039217591286,-3.7098531804446297,0.003607886657118797,0.0054931640625,-0.03163421973586082,-3.7098531804446297,-0.983357971906662,0.0,0.5278980553150177
-5.674781775219834,81,4.725012458127181,0.5659784972667694,0.000830078125,-0.9995116025209427,-3.7281331554904367,-3.728801012143214,8200.0,0.0,0.1937357566345303,0.0,1500.0,-1.4670472266559955,-5.440723602888443,2306250.0,-0.013251317664980888,-3.7361346734539342,-0.06925705764442683,5.375146884058384,-0.7018798260491167,0.0,0.0,-15.0,2050.0,0.0,0.33318838477134705,0.0,0.24256932251155378,-5.372706652851238,0.10384643878787755,375.0,5.19175965914164,-14.999999998897017,-0.08131041377782822,-3.724829129827981,0.003595708147622645,0.0046142578125,-0.031633724458515644,-3.724829129827981,-0.9829469949007035,0.0,0.5309157177805901
-5.598894303672545,82,4.937800251675966,0.5676687061786652,0.001171875,-0.9994780004024506,-3.946478807531107,-3.9461659988400797,8300.0,0.0,0.19392630437445157,0.0,1500.0,-1.4746625884879905,-5.367702777649931,2334375.0,-0.013251317664980888,-3.831132598127498,-0.07015296332538128,5.298100111484141,-0.7010573593557637,0.0,0.0,-14.99999999999416,2075.0,0.0,0.33318838477134705,0.0,0.24269334301352502,-5.296268240074061,0.10840084627270699,375.0,5.2102406469425375,-14.999999999993417,-0.08269278947263956,-3.937339998267248,0.003758942027343437,0.0050048828125,-0.03162683611735702,-3.937339998267248,-0.9820156097412109,0.0,0.5338454261422158
-5.634611896404032,83,5.1803746878075625,0.5704604804515838,0.0010498046875,-0.9995014742016792,-4.182598460454351,-4.183377473505405,8400.0,0.0,0.1944616257246063,0.0,1500.0,-1.5057679211953654,-5.402012279393945,2362500.0,-0.013251317664980888,-4.048996537005968,-0.06957978196442127,5.321590339529752,-0.7032663650927133,0.0,0.0,-14.999999999999973,2100.0,0.0,0.33318838477134705,0.0,0.24283230528235436,-5.318844038083973,0.10814431440085173,375.0,5.3412937478522675,-14.999999873583599,-0.0838760519400239,-4.180237565631304,0.0036448883824050427,0.00478515625,-0.031619249191135165,-4.180237565631304,-0.9820680603384971,0.0,0.5369883030653
-5.7017345426927495,84,5.556558904017954,0.5727799847722054,0.0013427734375,-0.9994566649198532,-4.562458317359974,-4.570736034084144,8500.0,0.0,0.19948329109250906,0.0,1500.0,-1.5026091200154041,-5.468875284420945,2390625.0,-0.013251317664980888,-4.335003531961947,-0.06912736222147942,5.36866636583527,-0.7086516757553909,0.0,0.0,-15.0,2125.0,0.0,0.33318838477134705,0.0,0.243042429164052,-5.364583430092561,0.1097881069406867,375.0,5.308562976425579,-14.999999419561908,-0.08525998909026385,-4.555930623187182,0.0038625414716079833,0.006005859375,-0.03160802600905299,-4.555930623187182,-0.9817319065332413,0.0,0.5403658047318458
-5.679796901147617,85,5.633796018748614,0.5744745209813118,0.0010009765625,-0.999466535449028,-4.6402903631980985,-4.642683927287776,8600.0,0.0,0.2013910886689793,0.0,1500.0,-1.5181649930804269,-5.447456280207789,2418750.0,-0.013251317664980888,-4.620105927274753,-0.06973924748599529,5.36387357708812,-0.7062518261511286,0.0,0.0,-15.0,2150.0,0.0,0.33318838477134705,0.0,0.2430851548910141,-5.363038664743127,0.1161945566534996,375.0,5.376613502242234,-14.999999999989983,-0.08678949605673551,-4.6334071548549485,0.0038145935453940184,0.0062744140625,-0.031605778355151416,-4.6334071548549485,-0.9804217845201493,0.0,0.5439443960785866
-5.669217847662786,86,5.716813461309544,0.576758137345314,0.0007568359375,-0.9994914457201958,-4.717515931219454,-4.71627578758122,8700.0,0.0,0.19593074332631982,0.0,1500.0,-1.513144277268293,-5.43641137573207,2446875.0,-0.013251317664980888,-4.673324242104421,-0.07000698540359736,5.360690865111368,-0.7049215045350138,0.0,0.0,-15.0,2175.0,0.0,0.33318838477134705,0.0,0.24313071593642235,-5.358300922215696,0.1176626218482852,375.0,5.4004827310590375,-15.0,-0.08740235343575478,-4.71638531716748,0.0036936266405973583,0.0057861328125,-0.031603395193815234,-4.71638531716748,-0.9801215633749962,0.0,0.5467172622680664
-5.685551563570968,87,5.578090704658717,0.5784283757209778,0.000830078125,-0.999547490477562,-4.574085252155108,-4.5778093381653,8800.0,0.0,0.1962635163115123,0.0,1500.0,-1.4923784460581373,-5.449257744162569,2475000.0,-0.013251317664980888,-4.642941059962342,-0.07125771827995778,5.386037965499777,-0.7010799009942275,0.0,0.0,-15.0,2200.0,0.0,0.33318838477134705,0.0,0.24305473119020463,-5.385040200941563,0.11744019649922847,375.0,5.336347818108685,-15.0,-0.08851119261234999,-4.5782009471658025,0.0034213638107758017,0.0060546875,-0.03160737780854106,-4.5782009471658025,-0.980167044699192,0.0,0.5495158895850182
-5.651046456136597,88,5.30302413649376,0.5794342637062073,0.0008544921875,-0.9995433107018471,-4.297672026629714,-4.305899026590607,8900.0,0.0,0.19210257678577322,0.0,1500.0,-1.491215876960632,-5.418484689920413,2503125.0,-0.013251317664980888,-4.438564937297231,-0.07274527363479137,5.357277396746026,-0.6992345418279001,0.0,0.0,-15.0,2225.0,0.0,0.33318838477134705,0.0,0.2429016064852476,-5.356712089293923,0.11937869805842638,375.0,5.30368273746093,-15.0,-0.08941764123737812,-4.303101354329774,0.003441738500259817,0.0063720703125,-0.03161551542580128,-4.303101354329774,-0.9797706082463264,0.0,0.5524851083755493
-5.635591288490815,89,5.144898810349392,0.5831687763333321,0.00087890625,-0.9995803013443947,-4.14831572799879,-4.14927545595683,9000.0,0.0,0.18863318369438437,0.0,1500.0,-1.485598566878616,-5.4024772502905405,2531250.0,-0.013251317664980888,-4.23940869265624,-0.07510347347706556,5.329949401925752,-0.6966285247086489,0.0,0.0,-15.0,2250.0,0.0,0.33318838477134705,0.0,0.2428119856864214,-5.3270599120302915,0.11927962191402912,375.0,5.271747525204592,-15.0,-0.09065972175449133,-4.144428984355035,0.0032620686339214443,0.00537109375,-0.03162035020068288,-4.144428984355035,-0.9797908723354339,0.0,0.555555047094822
-5.626057845765051,90,4.96938360160317,0.5862407997250557,0.0009521484375,-0.9995416656136513,-3.9675068654127803,-3.958925522921075,9100.0,0.0,0.19040370796234926,0.0,1500.0,-1.469222408119822,-5.393329668178505,2559375.0,-0.013251317664980888,-4.070829878973587,-0.07534309811890125,5.330753082922828,-0.6968167323990201,0.0,0.0,-15.0,2275.0,0.0,0.33318838477134705,0.0,0.24271188378334047,-5.32961327937325,0.11970163322985172,375.0,5.253903879008448,-15.0,-0.09143678080290556,-3.9694667635449186,0.0034496807085815815,0.00556640625,-0.03162581529468298,-3.9694667635449186,-0.9797045737504959,0.0,0.5580940619111061
-5.628815123567106,91,4.8483381560502155,0.5898748964071274,0.0010498046875,-0.9995729595422744,-3.8625364841511685,-3.8630030578700243,9200.0,0.0,0.19426930060332817,0.0,1500.0,-1.4862988937355113,-5.396764774051108,2587500.0,-0.013251317664980888,-3.899029095498621,-0.0765488788485527,5.330278645871399,-0.6978089342897874,0.0,0.0,-15.0,2300.0,0.0,0.33318838477134705,0.0,0.24264142997562885,-5.328980740485442,0.1181609071791172,375.0,5.236646996966906,-15.0,-0.09390179775655269,-3.8478745059747097,0.0032977457623928784,0.00546875,-0.03162970552220941,-3.8478745059747097,-0.980019673705101,0.0,0.5607459992170334
-5.648594002390427,92,4.7067965427784975,0.592588460445404,0.0011474609375,-0.9995649367570877,-3.7162165618491234,-3.718776324687094,9300.0,0.0,0.19478041048042685,0.0,1500.0,-1.4755950829698121,-5.414241222296779,2615625.0,-0.013251317664980888,-3.7955909349531174,-0.07847769502550364,5.333230081702974,-0.6997702543056221,0.0,0.0,-15.0,2325.0,0.0,0.33318838477134705,0.0,0.24255859442055225,-5.331557597073115,0.11396532692015171,375.0,5.2047174132325695,-15.0,-0.09603466223925353,-3.706647825059645,0.003336721519008279,0.0055419921875,-0.031634325813502076,-3.706647825059645,-0.9808776617050171,0.0,0.5636006444692612
-5.735519385730146,93,4.685109908554274,0.5952443540096283,0.0010986328125,-0.999573615193367,-3.668056901262275,-3.6620234673689582,9400.0,0.0,0.19482429902819812,0.0,1500.0,-1.4632643210374225,-5.498051242466129,2643750.0,-0.013251317664980888,-3.6999633711147695,-0.07937998864799738,5.428193696357918,-0.7027897339183256,0.0,0.0,-15.0,2350.0,0.0,0.33318838477134705,0.0,0.24254639446735382,-5.4263691831535334,0.11254895739257335,375.0,5.2566355092292225,-15.0,-0.09714513588696719,-3.686020215986251,0.003294529882259667,0.0053466796875,-0.03163501070812345,-3.686020215986251,-0.9811673298478126,0.0,0.5667925611138344
-5.7255336633915395,94,4.6811379077851685,0.5976224467158318,0.001416015625,-0.9995573073625564,-3.672686257785744,-3.676162197222111,9500.0,0.0,0.19854718789866194,0.0,1500.0,-1.4685257625525991,-5.489294044931055,2671875.0,-0.013251317664980888,-3.667029308403649,-0.08005735464394093,5.420637713297157,-0.703697111565998,0.0,0.0,-15.0,2375.0,0.0,0.33318838477134705,0.0,0.24254358261823655,-5.420112157395552,0.11099491231143474,375.0,5.22432687044626,-14.999999999282025,-0.09908820558339357,-3.6812615167839366,0.003373703098623082,0.0042236328125,-0.031635168567299844,-3.6812615167839366,-0.9814851343631744,0.0,0.5694267630577088
-5.700817384260519,95,4.8381252658350835,0.5996458113193512,0.0010498046875,-0.9995631292462349,-3.8487882944960607,-3.8496358501348618,9600.0,0.0,0.19495412205232415,0.0,1500.0,-1.5030268345253717,-5.465392662280686,2700000.0,-0.013251317664980888,-3.76300056741504,-0.08138369619846345,5.400278342308307,-0.70385871420076,0.0,0.0,-15.0,2400.0,0.0,0.33318838477134705,0.0,0.24263548851013184,-5.399566302434925,0.11167207714170217,375.0,5.305606425225676,-15.0,-0.10021337457001209,-3.8376797680220713,0.0033454223826993256,0.0055419921875,-0.03163003521040082,-3.8376797680220713,-0.9813466385006905,0.0,0.5726884886622429
-5.669415649311719,96,4.778732900877562,0.6021884769201279,0.00087890625,-0.9995155990123749,-3.7728773486432994,-3.7663749062585268,9700.0,0.0,0.19561395135150966,0.0,1500.0,-1.4914388964236422,-5.436032836365314,2728125.0,-0.013251317664980888,-3.8285055871320406,-0.07966328579932451,5.370836034855104,-0.7026874920229602,0.0,0.0,-15.0,2425.0,0.0,0.33318838477134705,0.0,0.24260126277804375,-5.3691879774602,0.11851081363856793,375.0,5.336265063573514,-15.0,-0.1018973832949996,-3.7791512795593976,0.0035762589890509845,0.0054443359375,-0.031631939392536876,-3.7791512795593976,-0.9799481019377708,0.0,0.5756850615143776
-5.645933417062433,97,4.8314890033443225,0.6031913191080094,0.001220703125,-0.9995172768831253,-3.8239390284700225,-3.8227156551630435,9800.0,0.0,0.19328619527614951,0.0,1500.0,-1.4969869761807786,-5.414362969411798,2756250.0,-0.013251317664980888,-3.7810236942257545,-0.07958457916975022,5.347206515241524,-0.701662933651096,0.0,0.0,-15.0,2450.0,0.0,0.33318838477134705,0.0,0.2426319982856512,-5.346451739781412,0.12143586501479149,375.0,5.346262617919661,-15.0,-0.10346536543220282,-3.8316963992854496,0.0035681741836015137,0.004931640625,-0.03163022892549634,-3.8316963992854496,-0.9793499305844307,0.0,0.578692838549614
-5.651044267916295,98,4.832058393118456,0.6035824522376061,0.00146484375,-0.9994736909866333,-3.8463916252992125,-3.8497915189976544,9900.0,0.0,0.194756734320293,0.0,1500.0,-1.495679946650489,-5.419308279595027,2784375.0,-0.013251317664980888,-3.8519443325550613,-0.07923509441316127,5.345188105931941,-0.7027397790399845,0.0,0.0,-15.0,2475.0,0.0,0.33318838477134705,0.0,0.24263185411691665,-5.3446734326758545,0.1283686736598611,375.0,5.262605390553611,-15.0,-0.10518305283039808,-3.8314490610676915,0.003779832855798304,0.005029296875,-0.03163023693487048,-3.8314490610676915,-0.9779321640729904,0.0,0.5823788434267044
-5.6503200126969535,99,4.7124361188357025,0.6058646306395531,0.0017822265625,-0.9994598895311355,-3.7183751311599287,-3.722517418800765,10000.0,0.0,0.19558236455304423,0.0,1500.0,-1.5010106580644789,-5.415411104426923,2812500.0,-0.013251317664980888,-3.808729994762559,-0.08028938863426446,5.347767849658505,-0.7018661803806026,0.0,0.0,-15.0,2500.0,0.0,0.33318838477134705,0.0,0.24256178140640258,-5.34585539834589,0.1309125056490302,375.0,5.309675858430142,-15.0,-0.10628107283264399,-3.712046509630312,0.0038468625920359046,0.0049072265625,-0.031634146627038714,-3.712046509630312,-0.9774119406938553,0.0,0.5860198974609375
-5.676160028809561,100,4.677234664172245,0.6069725677371025,0.001416015625,-0.9994545444846153,-3.669461682752533,-3.669458973004603,10100.0,0.0,0.19803927401593469,0.0,1500.0,-1.4558672830338764,-5.44078036385006,2840625.0,-0.013251317664980888,-3.6935351030649,-0.08016523029655218,5.381288293790243,-0.7007892826004536,0.0,0.0,-15.0,2525.0,0.0,0.33318838477134705,0.0,0.2425413779914379,-5.379392442209261,0.13128800075501204,375.0,5.186697677608212,-15.0,-0.10676467139273882,-3.67754111427642,0.003872889030026272,0.004248046875,-0.03163529224693775,-3.67754111427642,-0.9773351565003395,0.0,0.5893923193216324
-5.687902780424679,101,4.741590218299315,0.6079269081354142,0.00166015625,-0.9994401186704636,-3.752327380816361,-3.7599699417874306,10200.0,0.0,0.1990518027160043,0.0,1500.0,-1.4939760647474032,-5.453007921347741,2868750.0,-0.013251317664980888,-3.69045929105365,-0.08035360928624868,5.386694448414731,-0.7032967206403555,0.0,0.0,-15.0,2550.0,0.0,0.33318838477134705,0.0,0.24257882833480834,-5.384624584491019,0.12676678635179997,375.0,5.2571171478521785,-15.0,-0.1074607152491808,-3.740966394521119,0.003942937182728201,0.00380859375,-0.03163319239392877,-3.740966394521119,-0.9782597467303276,0.0,0.5925173565745354
-5.637861544432478,102,4.630898918776376,0.6100025355815888,0.0009033203125,-0.9994594067335129,-3.6286058770863137,-3.6315891943644116,10300.0,0.0,0.19460919695208914,0.0,1500.0,-1.4711609249701723,-5.405584332604885,2896875.0,-0.013251317664980888,-3.7113092440886284,-0.08105235360562801,5.338909871429439,-0.7007673069849261,0.0,0.0,-15.0,2575.0,0.0,0.33318838477134705,0.0,0.2425136923789978,-5.335732021804867,0.13166344128549098,375.0,5.2213489475267965,-15.0,-0.10759619008749724,-3.6309158734926568,0.0038491986109875143,0.004248046875,-0.031636851746588944,-3.6309158734926568,-0.9772583782672882,0.0,0.5960840582847595
-5.661640049626759,103,4.768099149561185,0.6128047347068787,0.001416015625,-0.9994417801499367,-3.7644461805173703,-3.768769360814852,10400.0,0.0,0.19733101066297512,0.0,1500.0,-1.4766034413849412,-5.42769389343008,2925000.0,-0.013251317664980888,-3.6736778921197466,-0.08062222395092249,5.350807375195371,-0.7036149306077277,0.0,0.0,-15.0,2600.0,0.0,0.33318838477134705,0.0,0.24259477369487287,-5.348423235067285,0.13585966341197492,375.0,5.242606276952634,-15.0,-0.1089032132178545,-3.7680920572792616,0.003934900311287492,0.0050048828125,-0.03163230130448937,-3.7680920572792616,-0.9764002367854119,0.0,0.5987983733415604
-5.668473739789604,104,4.908193114182643,0.615043367445469,0.0009033203125,-0.9994300395250321,-3.9159047230837425,-3.910740614590604,10500.0,0.0,0.19850819448436482,0.0,1500.0,-1.4686839951878938,-5.435016981061887,2953125.0,-0.013251317664980888,-3.811012651552326,-0.0813973929733038,5.356589787560031,-0.7062579884019214,0.0,0.0,-15.0,2625.0,0.0,0.33318838477134705,0.0,0.24267627149820328,-5.353610143933018,0.14394918754696845,375.0,5.210219217305443,-14.999999999998856,-0.10889434292912484,-3.9078412309107593,0.003991905151633546,0.0048583984375,-0.03162777721881867,-3.9078412309107593,-0.9747459173202515,0.0,0.6011175855994224
-5.664794331283839,105,4.88761446621802,0.6171219915151596,0.0013916015625,-0.9994377225637436,-3.895148478996895,-3.8942423259166645,10600.0,0.0,0.19733687512616505,0.0,1500.0,-1.4647177503356943,-5.432781173303591,2981250.0,-0.013251317664980888,-3.862166156509703,-0.0827537963166833,5.352697779601207,-0.7068721773081051,0.0,0.0,-15.0,2650.0,0.0,0.33318838477134705,0.0,0.2426643744111061,-5.350378397232798,0.14370025619864463,375.0,5.183887585063706,-14.999999999999797,-0.10921248700469732,-3.887326774840557,0.003954629955114797,0.0046630859375,-0.03162843463942409,-3.887326774840557,-0.9747968256473541,0.0,0.6037702783942223
-5.663552738187919,106,4.830674176462135,0.6172040358185769,0.0011474609375,-0.9994552105665206,-3.8384284055282345,-3.8356639406511652,10700.0,0.0,0.19619004262649978,0.0,1500.0,-1.4479854608325695,-5.431651454082834,3009375.0,-0.013251317664980888,-3.8751111382363432,-0.08443308435380459,5.348693681018512,-0.707576721618534,0.0,0.0,-14.999999999980227,2675.0,0.0,0.33318838477134705,0.0,0.2426314704120159,-5.3451967323580885,0.14306860603392124,375.0,5.127302099975568,-14.999999998975172,-0.10918332114815713,-3.8307922360708546,0.0038696870789863167,0.0054931640625,-0.031630258448421954,-3.8307922360708546,-0.9749260127544404,0.0,0.605230237543583
-5.7058999872641305,107,4.829924520995393,0.6181398972868919,0.001123046875,-0.9994679406285286,-3.832385883108993,-3.833882297808521,10800.0,0.0,0.1968460318667388,0.0,1500.0,-1.4511697402071149,-5.471662163922359,3037500.0,-0.013251317664980888,-3.850700169259072,-0.08614374324679375,5.389284563931073,-0.7081934412257397,0.0,0.0,-15.0,2700.0,0.0,0.33318838477134705,0.0,0.2426308397203684,-5.386584103858628,0.14213071949779987,375.0,5.140909486285496,-14.999999999954177,-0.11043112762272358,-3.8297075419050883,0.003807817952474579,0.0056640625,-0.0316302933730185,-3.8297075419050883,-0.9751178026199341,0.0,0.6080084249377251
