ReemS3/reg_curious_hac/data/d4a6886/AntReacherEnv-v0/alg:chac|eta:0.75|fw:1|fwhidsiz:256,256,256|nlev:2|reg:False|rolbatsiz:1|timsca:27,27|101/progress.csv
test_1/n_subgoals,policy/steps,train_0/fw_bonus,epoch,train_1/current_q,train_0/q_loss,train_1/reward_-1.0_frac,train_0/next_q,train_0/avg_q,train_0/mu_grads,train_1/q_grads,train_0/current_q,test/success_rate,train_1/mu_grads_std,train_0/mu_grads_std,train_1/next_q,train_1/mu_grads,train_0/target_q,train_1/fw_loss,train_1/fw_bonus,train_1/target_q,train_1/subgoal_succ_rate,test_1/subgoal_succ_rate,train_0/reward_-1.0_frac,train_1/reward_-27.0_frac,test_0/avg_q,train_1/mu_loss,train_1/reward,train_0/mu_loss,train_1/avg_q,train/success_rate,train_1/q_loss,train_0/q_grads,train_0/reward_-0.0_frac,train_1/q_grads_std,train_1/reward_-0.0_frac,train_0/reward,train_0/q_grads_std,train/episodes,train_1/n_subgoals,test_1/avg_q,test/episodes,train_0/fw_loss
6137.0,91063.0,-0.9951434105634689,0,-5.31589845936692,0.6098569712029485,0.0060302734375,-9.179946498617614,-12.297677104043936,-0.01014575376175344,0.021550290239974856,-9.229281278853438,0.0,0.11817348767071963,0.1549884218722582,-3.4327823529679735,0.0013489010598277673,-9.372378224105685,0.08440011274069548,-0.9912352830171585,-5.291323999904945,0.0022222222222222222,0.9242300798435718,0.0025390625,0.0,-2.8898317898201045,3.4680426210611714,-2.6645446602396987,9.190763282425923,-9.719298822544149,0.0,1.3520930351398968,0.018720265291631222,0.0,0.11748228576034307,0.0,-0.6283451798644819,0.11481472067534923,100.0,2700.0,-5.092080467106321,25.0,0.0344445105176419
2284.0,181521.0,-0.9971611350774765,1,-6.308238552975461,0.5178703299977686,0.0019287109375,-9.089117135715355,-24.8304888265725,-0.017809404572471977,0.019012814620509744,-9.153648637967667,0.0,0.1341935694217682,0.20580598562955857,-4.714459896278188,-0.000326513008621987,-9.309028899975411,0.10075795147567987,-0.9890916019678115,-6.278481345511048,0.012222222222222223,0.7324868651488616,0.0095458984375,0.0,-4.233162530459949,4.738314365224746,-2.691492869827198,9.084447128345639,-18.10572502052502,0.0,0.8165473986641263,0.016508680861443283,0.0,0.12910457141697407,0.0,-0.6291975119962444,0.12438043765723705,200.0,2700.0,-9.559677267607027,50.0,0.020533978566527368
4538.0,271933.0,-0.9975417330861092,2,-6.832491494228085,0.6662502316304773,0.00048828125,-9.221218353474413,-25.20625242269886,-0.022465462004765867,0.015373942931182683,-9.293482024391519,0.0,0.13825843371450902,0.2510934993624687,-5.402162832229164,-0.0019737929105758667,-9.406695176829121,0.12394482176750898,-0.9860529690980911,-6.8088470465938995,0.014444444444444444,0.884310268840899,0.01494140625,0.0,-4.502315399743174,5.417213989702975,-2.650010553635366,9.233082921598577,-18.932302883551746,0.0,0.7363433276190111,0.013348981062881649,0.0,0.13964783400297165,0.0,-0.6461200533132796,0.1330224506556988,300.0,2700.0,-11.633734778460886,75.0,0.01791009595617652
3900.0,360760.0,-0.997412234544754,3,-6.287480261128841,0.6620598145919963,0.000244140625,-8.144691310031503,-24.647975809467077,-0.02634142842143774,0.011779989395290614,-8.277710720543135,0.04,0.1422008778899908,0.2901573941111565,-4.611211932218279,-0.003720535174943507,-8.427305888931754,0.15713665783405303,-0.9817031770944595,-6.265695943520972,0.020965930363159864,0.8733333333333333,0.0187255859375,0.0,-7.892195599833942,4.62633556821657,-2.7081943477667663,8.117917614190569,-18.169855701249936,0.02,1.174571688496423,0.009136963216587902,0.0,0.15716008208692073,0.0,-0.6742309891607874,0.14494547471404076,400.0,2671.0,-10.962186606142756,100.0,0.018802879378199577
2709.0,449316.0,-0.9973412424325943,4,-5.659081756297417,0.9721848020596443,4.8828125e-05,-9.260982070652528,-23.058309025977653,-0.030936249950900673,0.007570214394945651,-9.423361723687133,0.0,0.14949978329241276,0.3202270992100239,-3.721802424088382,-0.006085848261136562,-9.501098144552703,0.17890550568699837,-0.9788503676652909,-5.618182929214733,0.028690071725179313,0.7818383167220376,0.0308349609375,0.0,-7.226577455622211,3.734029194087627,-2.7081220160580415,9.28311442877727,-16.25900741619395,0.05,1.8328899311548146,0.008250346151180565,0.0,0.17423087321221828,0.0,-0.7072088438930223,0.1660912401974201,500.0,2649.0,-6.409759058624278,125.0,0.019292385876178743
1077.0,537650.0,-0.9972217857837677,5,-5.84076255621999,1.1555241950766315,0.0,-9.442746526764413,-23.721821963729028,-0.03592567220330238,0.0035104928188957273,-9.621538337980123,0.08,0.16164168789982797,0.34483600705862044,-3.9408732001512234,-0.008044035290367901,-9.714766102321764,0.1987998392432928,-0.9762432217597962,-5.801419537555726,0.02623688155922039,0.41875580315691735,0.025048828125,0.0,-8.745236772918004,3.9588813332019512,-2.683483413146314,9.459570203954565,-15.815336919876415,0.04,2.2208165447873207,0.007288553239777684,0.0,0.18878621459007264,0.0,-0.7371899672911241,0.17818230018019676,600.0,2668.0,-3.591461445514401,150.0,0.020115903858095408
1212.0,622038.0,-0.9968808606266976,6,-5.576190828533468,1.3549790061788396,0.0,-9.698840530307626,-23.01221252210417,-0.04157842192798853,0.0003496972614811966,-9.92748828451478,0.28,0.1697475254535675,0.36739256605505943,-3.5730281617122204,-0.010456568421795964,-10.009464352846157,0.21683975718915463,-0.9738790974020958,-5.553538317411551,0.036218070911170415,0.5668316831683168,0.0173828125,0.0,-6.70377008797739,3.598967122726278,-2.678680956079188,9.737288755228501,-15.99830266366708,0.08,2.742361037135789,0.007396571442950517,0.0,0.2014867603778839,0.0,-0.7786330550388811,0.1886281494051218,700.0,2623.0,-7.730870305873946,175.0,0.02246633330360055
1542.0,701198.0,-0.996611824631691,7,-5.534284010119679,1.2022721908021772,0.0,-9.649305287681258,-22.61587245287911,-0.046004431787878275,-0.0010232529413769953,-9.93669939490852,0.6,0.17965820245444775,0.38217876106500626,-3.475840205196062,-0.012762163300067186,-10.00716165303794,0.23316247761249542,-0.971740011870861,-5.504893252269608,0.049677664012135005,0.8093385214007782,0.0225830078125,0.0,-8.161935500440302,3.5142902547894144,-2.6850309495919644,9.696700121305877,-15.4970897401397,0.08,3.246033977919109,0.005035408667754382,0.0,0.21246423125267028,0.0,-0.8077528101479402,0.19855488501489163,800.0,2637.0,-1.8638907677145764,200.0,0.024321040650829674
1027.0,777053.0,-0.9963946744799614,8,-5.333935638971341,1.1550884922164317,2.44140625e-05,-9.495126820804355,-22.0781418639095,-0.05003179842606187,-0.0035770392743870614,-9.809067430073446,0.72,0.18843295201659202,0.39675990045070647,-3.2813633954345844,-0.014284289116039873,-9.878462819852993,0.24207072667777538,-0.9705725893378258,-5.29843136772728,0.07027027027027027,0.7643622200584226,0.0186767578125,0.0,-8.65553442494095,3.3128308376936473,-2.591922930493456,9.559560698701329,-14.708660127941458,0.11,3.6593238265542767,0.0035747296293266117,0.0,0.22274182587862015,0.0,-0.8205342144188762,0.20869951657950878,900.0,2590.0,-7.234813325645478,225.0,0.025818151934072376
755.0,847242.0,-0.9961855009198188,9,-5.067137380065748,1.240654965885478,0.0,-9.426695850362126,-21.115878463807903,-0.05306680593639612,-0.005821923341136426,-9.742031211328479,0.68,0.19554688669741155,0.41050623580813406,-2.9219740048031007,-0.016285832971334457,-9.818042891971263,0.24926097504794598,-0.9696302980184555,-5.028426693893754,0.0960735171261487,0.6410596026490066,0.015087890625,0.0,-8.56356275493618,2.957900091535772,-2.6191531818440126,9.513713607833662,-14.924997178314772,0.32,3.3653332781435368,0.003393311914987862,0.0,0.2346048943698406,0.0,-0.8206467189142131,0.2187659002840519,1000.0,2394.0,-1.9698532621490041,250.0,0.027260149596258998
294.0,911977.0,-0.9959948182106018,10,-4.74009602682937,1.0839632660628102,0.0,-9.354667236565245,-20.761359657024,-0.05514187905937433,-0.007756918692030013,-9.69711905266534,0.76,0.20103998705744744,0.4233394719660282,-2.6197584157118934,-0.017895355867221952,-9.76238658520785,0.2553222082555294,-0.9688359811902046,-4.717567610855239,0.13009198423127463,0.25510204081632654,0.0130859375,0.0,-12.590205556248081,2.64922259949582,-2.5183747661496456,9.438534825910676,-13.777916115909877,0.35,3.9244477525203463,0.0032221471425145864,0.0,0.2462532188743353,0.0,-0.8229794190880056,0.22827278189361094,1100.0,2283.0,-2.7677727758570723,275.0,0.028574750991538167
312.0,971830.0,-0.9959006637334824,11,-4.76845149082228,1.0690376258502305,0.0,-9.215676902941109,-20.177272780831178,-0.057951224781572816,-0.010666471836157144,-9.586368043834245,0.76,0.20734724029898643,0.4360727332532406,-2.5973646895957097,-0.019281926285475492,-9.646988855140227,0.25552726425230504,-0.9688091099262237,-4.71824671485097,0.12213740458015267,0.34294871794871795,0.0161376953125,0.0,-8.508291252292354,2.636329745001286,-2.5304530082339625,9.31219280823924,-12.936018514776752,0.51,3.8289731623390084,0.0022907352773472666,0.0,0.2579068996012211,0.0,-0.8306829294368072,0.23800031654536724,1200.0,2096.0,-2.379571957665572,300.0,0.02922391747124493
319.0,1023514.0,-0.9958137050271034,12,-4.527030203726672,0.9889993882090679,0.0,-9.259695190935188,-19.514530006147805,-0.06025913199409842,-0.012785854772664607,-9.628733797945966,0.84,0.21368979029357432,0.44636116698384287,-2.362730284444649,-0.021295574912801384,-9.695899628463838,0.251150643825531,-0.9693826556205749,-4.468729720798095,0.14540540540540542,0.5047021943573667,0.0124755859375,0.0,-7.532235168763118,2.415226883061058,-2.4699701763980557,9.357985056175869,-12.935164657028889,0.67,3.869531181378039,0.002851770998677239,0.0,0.2692406065762043,0.0,-0.8341768145382957,0.2466495044529438,1300.0,1850.0,-2.002499255037096,325.0,0.02982343346811831
198.0,1071418.0,-0.9956780731678009,13,-4.345333808375985,1.088014344895374,0.0,-9.335021306452205,-19.00485835708566,-0.06165239699184895,-0.014756955462507904,-9.706704585825785,0.92,0.21929280869662762,0.4563841328024864,-2.1904207112841334,-0.022459124540910126,-9.77719148669404,0.25960214287042616,-0.9682750970125198,-4.303080681166394,0.15042735042735042,0.43434343434343436,0.012939453125,0.0,-10.477462944875601,2.2380804669563146,-2.4391879134203918,9.452926257560978,-12.163164858206349,0.66,3.7082574542103437,0.002821912302169949,0.0,0.28026043996214867,0.0,-0.8410276731134217,0.25555970817804335,1400.0,1755.0,-2.9046345877074193,350.0,0.030758470203727482
2528.0,1120784.0,-0.9954925239086151,14,-4.165491478980465,1.0135255422434177,0.0,-9.551207490480609,-19.482628688129225,-0.06399112362414598,-0.01751292929984629,-9.939530772767986,0.8,0.22399497851729394,0.46625459343194964,-2.048010837945105,-0.023473250772804023,-9.998669305028077,0.25908666625618937,-0.9683426409959793,-4.116985764078832,0.13631221719457012,0.9727056962025317,0.0072998046875,0.0,-7.038357080369106,2.091104883417444,-2.358144010588876,9.683464295846974,-12.08875077404537,0.71,3.877876717679102,0.0021752807631855832,0.0,0.29122633412480353,0.0,-0.8488914410165307,0.2627036176621914,1500.0,1768.0,-1.0626074380137478,375.0,0.03203770485706627
838.0,1171173.0,-0.9953719973564148,15,-3.9387474382516054,1.0351825279375082,0.0,-9.561335549742427,-19.52022799745481,-0.06549192927777767,-0.019578874018043278,-9.981399128589377,0.8,0.22992248497903348,0.47498711571097374,-1.7869566655895561,-0.024910559644922614,-10.039391687379691,0.27749537527561186,-0.9659301832318306,-3.905913898221557,0.15593784683684794,0.8281622911694511,0.005615234375,0.0,-10.638162311950115,1.8340814017148268,-2.376821902517986,9.700381036068137,-12.131946685465799,0.72,4.0641863876426,0.0011738595028873533,0.0,0.30169247314333913,0.0,-0.8619350420562114,0.2694100372493267,1600.0,1802.0,-1.5070789954290942,400.0,0.03286857609637082
220.0,1214427.0,-0.9954073980450631,16,-3.738437850789699,1.0723521000576037,0.0,-9.670332337180072,-19.047460145539514,-0.06799729820340872,-0.02331654876470566,-10.076601222081726,0.84,0.23634163439273834,0.48269455060362815,-1.5848180100686422,-0.026229468081146477,-10.13344302901688,0.27287444695830343,-0.9665357545018196,-3.700419646325095,0.1519639407598197,0.38181818181818183,0.00478515625,0.0,-9.50887202680287,1.617888161614792,-2.3409930696056107,9.794697742581798,-12.03977765669253,0.77,3.8850777924287825,-0.0001599789673491614,0.0,0.3139200329780579,0.0,-0.8658623492319748,0.27492189183831217,1700.0,1553.0,-1.7194533171656814,425.0,0.032624520687386395
182.0,1260087.0,-0.9953898966312409,17,-3.5902739317815096,0.9894708500789605,0.0,-9.501159291917483,-19.007159427610677,-0.07048830147832633,-0.02667160644195974,-9.932579100357088,0.92,0.24305022470653057,0.48975093588232993,-1.428183274308561,-0.02821421273984015,-9.99871038124515,0.27186796739697455,-0.9666676461696625,-3.5658681088482047,0.1705014749262537,0.36813186813186816,0.004541015625,0.0,-9.739535822559265,1.4648144009175035,-2.339176680674427,9.665957495027884,-11.811493057121359,0.74,3.5456148749529506,-0.0006865576287964359,0.0,0.3259223081171513,0.0,-0.8704539191712684,0.28078492879867556,1800.0,1695.0,-1.6781584531868878,450.0,0.03274523010477424
141.0,1305074.0,-0.9953382432460784,18,-3.4704920445714316,0.9380727478391184,0.0,-9.607697277208306,-19.4662136845105,-0.07180273681879043,-0.0290981309954077,-10.043566257016582,0.96,0.2500052943825722,0.49633816480636594,-1.3017469191944575,-0.030684879701584577,-10.10840910851822,0.2817382074892521,-0.9653741553425789,-3.4514487334786255,0.1303827751196172,0.48226950354609927,0.0048828125,0.0,-12.0886149723342,1.3135903828444444,-2.3452436869887605,9.757412848707409,-12.362794293292225,0.74,3.427593698739505,-0.0019398522097617387,0.0,0.3380584746599197,0.0,-0.8729312400781055,0.28598819971084594,1900.0,1672.0,-1.586012368407244,475.0,0.03310134126804769
158.0,1348607.0,-0.9953023701906204,19,-3.361896668640843,0.9052614194737609,0.0,-9.572382596262207,-19.47068643709587,-0.07273779585957527,-0.032011127565056086,-10.00986850534284,0.92,0.2566127337515354,0.5028244525194168,-1.2111053584564626,-0.031604702956974505,-10.074127272725836,0.2812978200614452,-0.96543188393116,-3.346313945962875,0.14745972738537794,0.310126582278481,0.0032958984375,0.0,-11.442351074709125,1.1977352483898742,-2.325317930169331,9.727223637134736,-11.904723252331962,0.8,3.2224227867107245,-0.0036305657995399088,0.0,0.349968446791172,0.0,-0.8744237363222055,0.2911604464054108,2000.0,1614.0,-3.067512561172046,500.0,0.03334866631776094
185.0,1389398.0,-0.995300655066967,20,-3.3364093317323986,0.9317060568517714,0.0,-9.48438941075393,-18.535284549165254,-0.07517120670527219,-0.03443005681037903,-9.925626867736355,0.92,0.26253301873803137,0.5096023172140122,-1.2071915693135087,-0.03221940193325281,-9.998151135025214,0.276340115070343,-0.9660815820097923,-3.3296296614581875,0.15580926796507724,0.41081081081081083,0.0026611328125,0.0,-8.548465493144068,1.2040224085955284,-2.3089642433340485,9.65315906812592,-11.458313877437158,0.82,3.3190935346246726,-0.005022880982141942,0.0,0.36151200234889985,0.0,-0.8765839512798266,0.29578370302915574,2100.0,1489.0,-1.5028874360718587,525.0,0.03336051246151328
131.0,1435351.0,-0.995272408425808,21,-3.2463771975381177,0.8963218350138268,0.0,-9.462525778660908,-19.81629195962117,-0.07557051852345467,-0.03650171076878905,-9.903208661878262,0.96,0.26815572902560236,0.5158594593405723,-1.125431783419756,-0.0334452573210001,-9.987442412502812,0.2928451284766197,-0.9639186039566994,-3.2484059444978124,0.12296037296037296,0.3511450381679389,0.003076171875,0.0,-12.105421036278074,1.1011362355925,-2.299945714891874,9.637342634197369,-12.36202538875806,0.73,3.1754965395071992,-0.006386356567963958,0.0,0.3704990081489086,0.0,-0.8728232286339335,0.30083879008889197,2200.0,1716.0,-1.297293981965955,550.0,0.03355521759949624
127.0,1477724.0,-0.995279823243618,22,-3.221573882198766,0.9230678476919596,0.0,-9.972240519085373,-19.52234567086581,-0.07686750460416078,-0.038906009215861556,-10.410885407976675,0.96,0.2731457225978374,0.5214499592781067,-1.099489634042261,-0.03489590622484684,-10.471917869606283,0.3007186256349087,-0.962886793911457,-3.2323267226773793,0.12563131313131312,0.4251968503937008,0.0029296875,0.0,-7.749180118616868,1.0763851064984618,-2.3126882484310043,10.136341183933926,-12.080678226419602,0.76,3.4031773512488277,-0.007742326287552714,0.0,0.3797725006937981,0.0,-0.8763223977068264,0.3058307833969593,2300.0,1584.0,-1.0183179138572638,575.0,0.033504072297364476
160.0,1517902.0,-0.9952206924557686,23,-3.1865104224702216,0.9521185106534172,0.0,-9.903462543615474,-19.823808152092134,-0.07690069805830717,-0.04134643841534853,-10.32870513801078,0.96,0.27947214618325233,0.5266056478023529,-1.0662329729251847,-0.03745458973571658,-10.397653068905885,0.2911540687084198,-0.9641402170062066,-3.1946522273461175,0.13473256601218686,0.425,0.0032470703125,0.0,-12.820387835070216,1.029151975197976,-2.3013560978939496,10.068834606575994,-11.970172674388794,0.79,3.3617703736107294,-0.009075257368385792,0.0,0.3887217968702316,0.0,-0.8730483365543478,0.3107461430132389,2400.0,1477.0,-1.6213391062095226,600.0,0.03391175945289433
166.0,1562405.0,-0.995211911201477,24,-3.1013772267931143,0.9080888877129061,0.0,-9.790730656500916,-19.882075499839825,-0.07791526280343533,-0.0436552282422781,-10.226726421807015,0.92,0.28469125330448153,0.5315145760774612,-1.0479401244422966,-0.039142456464469434,-10.279070744641896,0.2899904936552048,-0.9642926990985871,-3.120698691870918,0.14659367396593673,0.3493975903614458,0.0027099609375,0.0,-11.146286573236969,1.0214776995485093,-2.243972345934162,9.949738414087202,-11.877363542134512,0.79,3.4100063782580357,-0.009839731501415372,0.0,0.3968322493135929,0.0,-0.8712150843246491,0.3157288581132889,2500.0,1644.0,-2.0779611946111807,625.0,0.033972359634935854
200.0,1609202.0,-0.9953152298927307,25,-3.0941311178332542,0.8839145863993852,0.0,-9.838474095934341,-19.588140640768213,-0.07798820715397596,-0.046111464779824016,-10.272261310596566,0.88,0.2896303549408913,0.5365073204040527,-0.9602632112457549,-0.04019790105521679,-10.344914093038192,0.29794362336397173,-0.9632504478096962,-3.1376599042440034,0.10825358851674641,0.34,0.0035888671875,0.0,-10.42147267307945,0.9532459083424067,-2.339530873750482,9.986187394284991,-12.024073196500677,0.73,3.345197633275255,-0.010620938939973712,0.0,0.404630745947361,0.0,-0.871991647469622,0.31975781321525576,2600.0,1672.0,-1.222083733394042,650.0,0.03326003719121218
131.0,1648827.0,-0.9951920181512832,26,-2.929966641479909,0.9104958425761904,0.0,-9.862299719335573,-19.277677243429505,-0.0781453676521778,-0.0485190711915493,-10.29009316569603,0.96,0.29421885684132576,0.5409426912665367,-0.8592377941677445,-0.04113514050841331,-10.34168617712719,0.2986314117908478,-0.9631603106856346,-2.9830433019659925,0.12865895166780122,0.37404580152671757,0.002099609375,0.0,-7.246055025016424,0.8351914414932015,-2.270733926449611,10.014244954159537,-11.529584578250002,0.84,2.9648197830944927,-0.012213618285022676,0.0,0.4130575552582741,0.0,-0.8676029390888289,0.3243397749960423,2700.0,1469.0,-1.0617511567607423,675.0,0.03410934861749411
156.0,1691679.0,-0.9952003836631775,27,-2.8917433436388427,0.9250525302910871,0.0,-9.979429591312808,-19.412590690935833,-0.07903665024787188,-0.05100328316912055,-10.411373164281736,0.92,0.29873166680336,0.5456194743514061,-0.8171928018309738,-0.04198407176882028,-10.476272431787695,0.2922239013016224,-0.964000004529953,-2.9863232581312715,0.11337579617834395,0.33974358974358976,0.00302734375,0.0,-12.100980509718847,0.7994027579978088,-2.3059902387845796,10.148062979029714,-11.85337610500016,0.78,3.268182853637613,-0.012981535540893674,0.0,0.4217583782970905,0.0,-0.8728052241229307,0.32821568101644516,2800.0,1570.0,-1.116127507679913,700.0,0.03405172294005752
170.0,1734352.0,-0.9952597841620445,28,-2.8596626131518277,0.9428512214331818,0.0,-9.798482340841229,-19.35621390031361,-0.08033461403101683,-0.053369282931089404,-10.228989725875017,0.88,0.30364964380860326,0.5503889814019203,-0.756978680279592,-0.04286534758284688,-10.315265228940481,0.2962283715605736,-0.9634752333164215,-2.948716296254372,0.12419146183699871,0.27058823529411763,0.00263671875,0.0,-13.52998097405297,0.7271619728111289,-2.3161495695039775,9.956709767684227,-11.936551369318154,0.79,2.96319970188861,-0.01291026605758816,0.0,0.4300271198153496,0.0,-0.8728383843361371,0.33236285895109174,2900.0,1546.0,-1.1928263565287456,725.0,0.033642212161794305
126.0,1777522.0,-0.9953298613429069,29,-2.802136632629259,0.9353384967633029,0.0,-10.094331066449751,-19.794006050579736,-0.07960381209850312,-0.05539540098980069,-10.520680481288915,0.96,0.30783103629946706,0.5542375236749649,-0.7592021087878823,-0.04434428447857499,-10.593352624908547,0.3005282260477543,-0.9629117339849472,-2.9166114732468578,0.11910669975186104,0.3333333333333333,0.0034423828125,0.0,-13.782070223304524,0.7378623462908134,-2.290630276864249,10.247058286857023,-11.65351742597243,0.75,2.9418682780795367,-0.013925609085708857,0.0,0.4380564443767071,0.0,-0.8706769465003162,0.3370264761149883,3000.0,1612.0,-1.9199258201755198,750.0,0.033159151952713725
160.0,1818577.0,-0.9953041508793831,30,-2.780229217003432,0.9376257036729454,0.0,-9.993827146718633,-20.024388533877588,-0.08018463607877493,-0.057178919203579426,-10.416192321750428,0.92,0.31220284923911096,0.5581862613558769,-0.7405439365226285,-0.04494654322043061,-10.493480232274607,0.30637798011302947,-0.9621451139450073,-2.905898276486638,0.10551075268817205,0.30625,0.0032470703125,0.0,-12.500061841917493,0.7081675949256756,-2.295712063128667,10.146101026000242,-11.78617546971946,0.77,3.1016772200341682,-0.014811032987199723,0.0,0.4449467837810516,0.0,-0.8654886372471082,0.34128620773553847,3100.0,1488.0,-1.164349388968105,775.0,0.033336311532184484
739.0,1860543.0,-0.9953267976641655,31,-2.7229784396055847,0.9230667055898488,0.0,-10.079521320497152,-20.01680799898423,-0.08004569076001644,-0.059138450771570206,-10.509680962797123,0.96,0.3162061467766762,0.5627844989299774,-0.6931203212778575,-0.04575440688058734,-10.557295205462541,0.30537419840693475,-0.9622766703367234,-2.8722684570316623,0.11382636655948553,0.9336941813261164,0.0031005859375,0.0,-7.0257915862862985,0.6574644450915748,-2.3048269806407915,10.233688271079497,-11.586604916179096,0.74,2.760112018044137,-0.015262556774541736,0.0,0.4523284398019314,0.0,-0.8660069904362899,0.34600295275449755,3200.0,1555.0,-0.2638866034644078,800.0,0.033180288039147854
218.0,1905371.0,-0.9953383564949035,32,-2.7367803820526064,0.8986757265296639,0.0,-9.944966012999682,-20.34316813478296,-0.08095502573996782,-0.061546461284160615,-10.37022762982745,0.88,0.32065359950065614,0.5673765867948533,-0.7552699230813823,-0.047273652907460925,-10.44022704233376,0.31272814199328425,-0.9613129302859307,-2.8961416101980233,0.111875,0.41743119266055045,0.0031982421875,0.0,-8.518754224568777,0.7191861852436826,-2.2766258408162683,10.101988928806446,-11.64163465734503,0.71,3.050509681478542,-0.015676638530567288,0.0,0.45975273549556733,0.0,-0.8631900583874085,0.34992595911026003,3300.0,1600.0,-0.6727533794508521,825.0,0.03310053418390453
178.0,1949251.0,-0.9953141301870346,33,-2.726310167618151,0.9239943443949123,0.0,-10.00626903226316,-20.006448261906744,-0.08246462158858776,-0.06389659531414509,-10.42922708448923,0.88,0.3251813255250454,0.5719035863876343,-0.7269021374794302,-0.04835637053474784,-10.50507109790993,0.3223103806376457,-0.9600571930408478,-2.868551197448947,0.10956301456618113,0.3258426966292135,0.001904296875,0.0,-10.390259579880805,0.6824465192238058,-2.2723568268538656,10.151812645911223,-11.349470278529681,0.74,2.784876018710505,-0.015427606599405407,0.0,0.46630355194211004,0.0,-0.8639347358828673,0.35397443249821664,3400.0,1579.0,-1.159238377849971,850.0,0.03326751226559281
220.0,1991273.0,-0.9953649446368218,34,-2.745403441308757,0.9345652360528437,0.0,-10.079849391374836,-20.238668350350345,-0.08418814614415168,-0.06625376548618078,-10.485283240371022,0.84,0.3285858049988747,0.5763803422451019,-0.7253929619246877,-0.04948602262884379,-10.56361970665715,0.3168576993048191,-0.9607717633247376,-2.882156248966789,0.11948404616429056,0.2636363636363636,0.0018310546875,0.0,-14.680548128981023,0.6773516558868262,-2.296449043261964,10.234673131215175,-11.302833853825287,0.73,2.9352910465849615,-0.015830902196466923,0.0,0.47258752435445783,0.0,-0.8588204856059747,0.35861963480710984,3500.0,1473.0,-0.7842443599861568,875.0,0.032917205384001134
135.0,2034926.0,-0.995348097383976,35,-2.677324847765843,0.9864544800057317,0.0,-10.12286254539582,-20.819065498895576,-0.08437019363045692,-0.06844450961798429,-10.521228065190252,0.96,0.3331760369241238,0.5816575214266777,-0.698037873241928,-0.05084099266678095,-10.588694642155883,0.3238715291023254,-0.9598525896668434,-2.824657326010307,0.09719626168224299,0.45925925925925926,0.0011962890625,0.0,-11.73831378853939,0.6623822649632821,-2.2523471829968913,10.262394908573617,-11.789881687133649,0.72,2.921305065392678,-0.016823298018425702,0.0,0.477895500510931,0.0,-0.8605191534192272,0.3626618131995201,3600.0,1605.0,-1.0617661969307317,900.0,0.03303339113481343
340.0,2077940.0,-0.9953812435269356,36,-2.708460036593844,0.984191298414401,0.0,-10.203426234014781,-20.898794061958036,-0.0850774247199297,-0.07052522767335176,-10.607245403597329,0.88,0.33819957375526427,0.5863104000687599,-0.684621983609346,-0.05225164080038667,-10.675882383697864,0.33443993926048277,-0.958467610180378,-2.8516878057073938,0.10177281680892974,0.5941176470588235,0.001318359375,0.0,-14.691503673163629,0.655825236121305,-2.2892262785622735,10.352465533002825,-11.612911347532494,0.73,3.0856143196432035,-0.017589492816478015,0.0,0.4836095318198204,0.0,-0.8583484835988202,0.36704046428203585,3700.0,1523.0,-2.0757993767329115,925.0,0.03280491381883621
98.0,2115579.0,-0.995512068271637,37,-2.598675510812491,0.9184627350390435,0.0,-10.31056224861412,-20.92653302229635,-0.08648715130984783,-0.07316074576228856,-10.696406259477735,1.0,0.3440163865685463,0.5909681141376495,-0.6473792778595673,-0.05446369089186191,-10.768074321564447,0.33465149328112603,-0.9584398835897445,-2.7540036837813,0.09915014164305949,0.46938775510204084,0.001220703125,0.0,-9.526113262049366,0.6141890982915206,-2.2290508897134713,10.463285772467636,-11.069965333197416,0.76,2.85376117813624,-0.017838569777086376,0.0,0.48839383721351626,0.0,-0.852192227543128,0.3711824007332325,3800.0,1412.0,-0.872060590747466,950.0,0.03190291626378894
138.0,2156695.0,-0.9955080509185791,38,-2.602648531451739,0.9526431198129519,0.0,-10.46288310316068,-19.962558724351346,-0.08854490425437689,-0.07552811522036791,-10.860592083957396,0.92,0.3479793518781662,0.5948624923825264,-0.6413519382439652,-0.05585909839719534,-10.929104134392412,0.33015142008662224,-0.9590296238660813,-2.7749237061443006,0.112,0.2753623188405797,0.000732421875,0.0,-12.469444608951163,0.6084103489846647,-2.2578360182375037,10.59709594001439,-11.017016252481664,0.79,3.0155828963532336,-0.018154537351801992,0.0,0.49442279189825056,0.0,-0.858343566829717,0.3754065401852131,3900.0,1500.0,-0.7467148046167568,975.0,0.03193061579950154
240.0,2200794.0,-0.9954812288284302,39,-2.59773049677987,1.0105769731298664,0.0,-10.279951891003218,-20.57836524879845,-0.08967092726379633,-0.07770657911896706,-10.668830502413218,0.84,0.3529368132352829,0.5991016179323196,-0.588694469664248,-0.05776974204927683,-10.736335792797044,0.34401402845978735,-0.9572129249572754,-2.7660583904527885,0.09342783505154639,0.4125,0.000634765625,0.0,-15.49471545502867,0.5428891401748064,-2.2927944435617973,10.434630595555419,-11.151001845704196,0.73,2.7917787916274097,-0.01909673400223255,0.0,0.5003803431987762,0.0,-0.8575311959491956,0.3794974714517593,4000.0,1552.0,-1.4913440886892402,1000.0,0.032115563610568644
285.0,2244841.0,-0.9955767154693603,40,-2.56709840979322,0.9968590868469779,0.0,-10.519981638421912,-19.98412183958588,-0.09071799516677856,-0.07877784371376037,-10.908610287200164,0.72,0.35740589872002604,0.6030819028615951,-0.5537518733991507,-0.059133962448686364,-10.999121768590427,0.34195125550031663,-0.9574832588434219,-2.7394678546095106,0.12751677852348994,0.19649122807017544,0.000439453125,0.0,-18.912695517052832,0.5256643470079913,-2.294949427244501,10.650878942450017,-10.895840536606258,0.79,2.9778828853850023,-0.019147082511335612,0.0,0.5062566414475441,0.0,-0.8616932532182545,0.38420932441949845,4100.0,1490.0,-2.3822552315154932,1025.0,0.031457204231992365
128.0,2282985.0,-0.9956195786595344,41,-2.520283393594941,0.9438345353437054,0.0,-10.557235879027655,-20.434430287318317,-0.09061405900865793,-0.08069789726287127,-10.940044846116658,0.96,0.36269863322377205,0.6071218892931938,-0.5291023294807459,-0.06064874678850174,-11.033650848602472,0.33100789338350295,-0.958917373418808,-2.677554185189424,0.10357142857142858,0.4296875,0.000732421875,0.0,-8.756412194738019,0.4990342289292089,-2.2519302720778795,10.681793612094069,-10.71857740300312,0.77,2.777629072196274,-0.019242425821721552,0.0,0.51301029920578,0.0,-0.8618138322603045,0.3887618325650692,4200.0,1400.0,-0.4275858590708298,1050.0,0.03116170596331358
936.0,2318699.0,-0.9956049606204033,42,-2.4883779666067936,1.0179806087111478,0.0,-10.64175157135105,-20.36152184801751,-0.09192135278135538,-0.08300457708537579,-11.03611262860377,0.88,0.36744272112846377,0.6110470667481422,-0.48222428121909094,-0.0628404576331377,-11.122906634342371,0.32871051505208015,-0.9592184528708458,-2.638269366876981,0.10118577075098814,0.8985042735042735,0.000634765625,0.0,-12.512229485511503,0.4481897916219898,-2.2493871333328572,10.788431476872388,-11.131422108633274,0.86,2.3191981253511598,-0.01981172701343894,0.0,0.5203228667378426,0.0,-0.8682554882347177,0.39301917180418966,4300.0,1265.0,-1.721965250483133,1075.0,0.031262538861483335
106.0,2355046.0,-0.995620085299015,43,-2.5360782906324992,1.0765746440939803,0.0,-10.587378702627252,-20.838146416382006,-0.09265088047832251,-0.08470989782363177,-10.975223994484079,0.96,0.3711931236088276,0.61526640355587,-0.5069956750766268,-0.06409306842833758,-11.040155478776736,0.3347525462508202,-0.9584266513586044,-2.684218319581259,0.11544117647058824,0.3113207547169811,0.0007080078125,0.0,-9.885371396505874,0.4756469699620557,-2.27590426950992,10.722215202693473,-10.856805868118585,0.79,2.5215037508143494,-0.019845501193776725,0.0,0.5266767874360084,0.0,-0.8642675719824183,0.3974441416561604,4400.0,1360.0,-0.7149596882288521,1100.0,0.03115821606479585
138.0,2390495.0,-0.9957406014204025,44,-2.499642332044364,0.9729718578260664,0.0,-10.271763374379852,-20.111360030766377,-0.09475101009011269,-0.08627333529293538,-10.669513018331738,0.92,0.3743045412003994,0.6198281675577164,-0.47686299830502155,-0.06584724169224501,-10.744566308479369,0.338685168325901,-0.9579112648963928,-2.644568624015048,0.10861132660977502,0.2753623188405797,0.000830078125,0.0,-16.30440358163643,0.4435753889999708,-2.263891881134259,10.419340170850052,-10.684546892529127,0.81,2.517804073588607,-0.02037437870167196,0.0,0.5328370198607445,0.0,-0.8638948680320027,0.4018544368445873,4500.0,1289.0,-1.6206194170229131,1125.0,0.030327383801341055
129.0,2427824.0,-0.995727650821209,45,-2.487087275722896,0.9238971031489728,0.0,-10.40010926381718,-20.571570525872204,-0.09425114318728448,-0.08745579496026039,-10.795559013992838,0.96,0.3779414974153042,0.6242389932274819,-0.48792621333795194,-0.06719063874334097,-10.872358180759978,0.3361934654414654,-0.9582378044724464,-2.6480572582649864,0.10319767441860465,0.3953488372093023,0.00078125,0.0,-13.471803757418845,0.44123839059952896,-2.2588831847740947,10.544164682326052,-10.981248495020852,0.82,2.9240093999028467,-0.020744645688682794,0.0,0.5377618834376335,0.0,-0.8639648711152403,0.4060912184417248,4600.0,1376.0,-1.3755973067507117,1150.0,0.03041670904494822
184.0,2470706.0,-0.9958287194371224,46,-2.5155551297722676,0.9363994409478751,0.0,-10.408297086661335,-20.67771891121003,-0.09636553097516298,-0.08899412248283625,-10.81037403066712,0.84,0.3820596314966679,0.6280593410134315,-0.5367039598062282,-0.068859594874084,-10.88294227073047,0.3419221565127373,-0.9574870496988297,-2.690611069554058,0.10634081902245707,0.20108695652173914,0.001171875,0.0,-18.488447859303477,0.47871623730534535,-2.2641520393510293,10.541151997313094,-11.257246372848181,0.72,2.8819500369428024,-0.021493340935558082,0.0,0.5433467850089073,0.0,-0.8649239756621683,0.41024725064635276,4700.0,1514.0,-2.100847794170044,1175.0,0.029719940666109324
732.0,2513096.0,-0.9958401501178742,47,-2.471976893261214,0.9098975632076194,0.0,-10.390653400047139,-20.397111853902825,-0.09732933100312949,-0.09141032360494136,-10.794057362582581,0.88,0.3860515668988228,0.6314991697669029,-0.48656165701209586,-0.07053322847932578,-10.86708545924903,0.3404335580766201,-0.9576821535825729,-2.6448979589441253,0.10439921208141825,0.8565573770491803,0.001416015625,0.0,-10.213988464353859,0.4457221434679277,-2.250889043213101,10.544637978243909,-11.124261811625285,0.76,2.8840797940498915,-0.021468400582671167,0.0,0.5497442215681076,0.0,-0.8655127719321172,0.414552703499794,4800.0,1523.0,-2.937481116204546,1200.0,0.02964110393077135
89.0,2544216.0,-0.9958376705646514,48,-2.5359231206536217,0.9540496867258778,0.0,-10.638395241329897,-20.196844803530624,-0.09718999061733484,-0.09422364663332701,-11.029344247437226,1.0,0.39097175374627113,0.6355931133031845,-0.508388340490784,-0.07143620178103446,-11.113191761962756,0.33453803732991216,-0.9584547594189644,-2.7108015364775,0.10539845758354756,0.39325842696629215,0.0009521484375,0.0,-11.104852214076105,0.4593931134452359,-2.305171548464932,10.787158444251881,-10.662162073247467,0.84,2.8581101420930195,-0.020804658718407153,0.0,0.5567486315965653,0.0,-0.8665558555796451,0.41862956881523133,4900.0,1167.0,-0.3233660033536878,1225.0,0.029658137634396554
115.0,2583630.0,-0.995899786055088,49,-2.553744294827829,0.9169392403444119,0.0,-10.345191259444967,-20.333757241493746,-0.09811108130961657,-0.09725256022065878,-10.7332181682973,0.96,0.395454790443182,0.6394039005041122,-0.5174939198052158,-0.07291428185999393,-10.828058004328284,0.3391841843724251,-0.9578458651900291,-2.7248005031653766,0.11491108071135431,0.28695652173913044,0.00126953125,0.0,-9.162740612576895,0.47056765716726856,-2.317818404853824,10.481782082338086,-10.597191906818876,0.79,2.858679152304608,-0.021215926529839634,0.0,0.5631147190928459,0.0,-0.8633487223425618,0.4227103516459465,5000.0,1462.0,-1.2676653061218648,1250.0,0.029230058658868074
159.0,2619857.0,-0.995935583114624,50,-2.5961516781724665,0.9447448798635207,0.0,-10.518990753924134,-20.086661256261173,-0.09736371878534555,-0.09957397729158401,-10.90635320518952,0.88,0.3994540758430958,0.6431697070598602,-0.5607062145234979,-0.07452273964881898,-10.981066380138197,0.3321410357952118,-0.958768892288208,-2.765964124431626,0.11344211344211344,0.1761006289308176,0.001708984375,0.0,-15.006072632585761,0.5059235780054092,-2.3192210283355963,10.65268180753001,-11.0152369995738,0.82,2.9365855650960184,-0.021713278954848647,0.0,0.5677200153470039,0.0,-0.8633576723870646,0.4269081182777882,5100.0,1287.0,-2.1089750753535625,1275.0,0.028983248956501485
131.0,2656821.0,-0.995964626967907,51,-2.530381541381675,0.9144139457806439,0.0,-10.47153052117589,-20.314966560649765,-0.09865249954164028,-0.10188895761966706,-10.858745713566089,0.92,0.4029986418783665,0.6469818085432053,-0.586225098650106,-0.07631584238260984,-10.937938535185559,0.32999307960271834,-0.9590503692626953,-2.706433165985703,0.11864406779661017,0.21374045801526717,0.0015625,0.0,-17.270196824491233,0.5221029476275156,-2.240318013560318,10.613712509674922,-10.777910563553938,0.79,3.0294720309387775,-0.021959803067147732,0.0,0.5727326035499573,0.0,-0.863017035980738,0.4305835247039795,5200.0,1357.0,-1.1029446171762183,1300.0,0.028782929852604867
152.0,2694990.0,-0.9960257768630981,52,-2.594935183608455,0.9727297588636208,0.0,-10.675678055998622,-21.2071460279991,-0.09873519781976939,-0.10381757263094187,-11.05317721961871,0.92,0.40755384787917137,0.6507083445787429,-0.5808397090755263,-0.07863772884011269,-11.126349399605791,0.3417462266981602,-0.957510131597519,-2.757044633423683,0.09513435003631082,0.2565789473684211,0.0015869140625,0.0,-12.095370893244993,0.545760702653292,-2.2947913490097562,10.79528481929467,-11.828886520642016,0.77,2.9439788190603777,-0.02234764429740608,0.0,0.5766364634037018,0.0,-0.8591138664007303,0.4345783174037933,5300.0,1377.0,-1.5634033463699415,1325.0,0.02836135681718588
412.0,2734648.0,-0.9960298091173172,53,-2.567273230286546,0.9009401972749057,0.0,-10.39151731688536,-20.97181871939522,-0.09873337130993605,-0.10524098724126815,-10.778245718413508,0.88,0.4113119341433048,0.6541872531175613,-0.5766892923489071,-0.08024898394942284,-10.848807516881049,0.3445327259600163,-0.9571449533104897,-2.73142592529256,0.09929577464788733,0.7233009708737864,0.0013916015625,0.0,-14.59864589627852,0.528697110462369,-2.274155622852413,10.536445572888761,-11.182901483640146,0.76,2.8990506129145004,-0.0228052640799433,0.0,0.5810632318258285,0.0,-0.8617882176476996,0.4379947856068611,5400.0,1420.0,-2.6184122479605754,1350.0,0.02833346384577453
109.0,2772404.0,-0.9960198536515236,54,-2.5341764972667846,0.9588508521822316,0.0,-10.751764326081101,-20.494077133257548,-0.09882837813347578,-0.10693879462778569,-11.127499494252493,0.96,0.4150025315582752,0.6577776297926903,-0.5300069631683785,-0.08150206468999385,-11.220768123077576,0.3422927476465702,-0.9574385076761246,-2.7118655832555567,0.11071682044002838,0.3302752293577982,0.0012451171875,0.0,-14.284287173553539,0.4995690069787477,-2.2918071357227747,10.887710412571241,-10.779340422242095,0.8,2.740361827484713,-0.02298627463169396,0.0,0.5855667501688003,0.0,-0.8618406556925038,0.44146115332841873,5500.0,1409.0,-2.680201179497146,1375.0,0.02840223181992769
86.0,2807688.0,-0.9960183784365654,55,-2.5476713705665337,0.9118002333188068,0.0,-10.525257625799355,-21.2829839472521,-0.09873541332781315,-0.10886884406208992,-10.913711301124298,1.0,0.41834994703531264,0.6608440905809403,-0.5924556948490247,-0.0833065751940012,-10.998473149440695,0.34084310159087183,-0.9576284766197205,-2.7204660679102792,0.08974358974358974,0.43023255813953487,0.0011962890625,0.0,-10.315607737120038,0.5411669561913437,-2.2463712308202957,10.660238929943855,-11.415298606663816,0.81,3.147818176140592,-0.02305228589102626,0.0,0.5899089813232422,0.0,-0.8619867734993022,0.4446563184261322,5600.0,1326.0,-0.9508353882054235,1400.0,0.028412341699004175
177.0,2846606.0,-0.9959881722927093,56,-2.595293615569143,0.8760231050479597,0.0,-10.26429900947349,-20.70223124993349,-0.0986826304346323,-0.11120403259992599,-10.660483546925088,0.84,0.42140295580029485,0.6642253264784813,-0.6074670698297658,-0.08439405895769596,-10.746882779744222,0.34799875915050504,-0.9566907286643982,-2.771555484127422,0.09197939661515821,0.13559322033898305,0.0012939453125,0.0,-20.87965729039243,0.5667805118503404,-2.2836184826541284,10.411633783645634,-11.25248170724071,0.79,3.086801260994874,-0.02321024634875357,0.0,0.5953305259346962,0.0,-0.8585917689706548,0.4481152296066284,5700.0,1359.0,-4.209400382444772,1425.0,0.028620632085949182
282.0,2890782.0,-0.9960411176085472,57,-2.580033878488892,0.968616521912417,0.0,-10.553893920998235,-20.323907693340182,-0.09974507540464402,-0.11350587327033282,-10.94181303231915,0.72,0.42379122227430344,0.6674587294459343,-0.6143770101469797,-0.0853840958327055,-11.00146267250052,0.35171241164207456,-0.956204055249691,-2.7540431548612374,0.10268456375838926,0.21631205673758866,0.0012451171875,0.0,-11.420253007922831,0.565160207882764,-2.2643989158426847,10.681381134808396,-10.757376457685938,0.79,2.9617759061349274,-0.022690302738919855,0.0,0.6001572772860527,0.0,-0.8591543217389699,0.451338279992342,5800.0,1490.0,-2.2692112491090883,1450.0,0.02825562171638012
82.0,2927924.0,-0.9960510343313217,58,-2.6696863217081273,1.0889938067714262,0.0,-10.591150345162417,-19.280849814458982,-0.09965272080153227,-0.11531291976571083,-10.97202734476279,1.0,0.4273861192166805,0.6710648268461228,-0.661828508973439,-0.08694556374102831,-11.033502865157356,0.3507212348282337,-0.9563339471817016,-2.836761807317854,0.07753050969131371,0.36585365853658536,0.0013916015625,0.0,-10.95560624988376,0.6250334787868475,-2.3069484770621784,10.746514024616237,-10.985971406884149,0.78,3.2971258748135996,-0.02484339871443808,0.0,0.6048967242240906,0.0,-0.8623611496521335,0.4533024147152901,5900.0,1393.0,-1.097962450191748,1475.0,0.02818716671317816
107.0,2965897.0,-0.9961110934615135,59,-2.7156017689052225,0.913792342343607,0.0,-10.514204400211275,-20.63930935738294,-0.09957555048167706,-0.11695787459611892,-10.88629189512885,0.96,0.4314209409058094,0.6738305509090423,-0.7048892868004966,-0.0884589534252882,-10.967381799633475,0.3537177570164204,-0.9559412598609924,-2.8638542670154132,0.0920114122681883,0.27102803738317754,0.0021728515625,0.0,-12.728606344564593,0.6483558408713842,-2.2965231556561774,10.661859493248988,-10.765711087144073,0.78,3.2438875233069226,-0.023025461519137026,0.0,0.6091087877750396,0.0,-0.8579816321020189,0.4544406428933144,6000.0,1402.0,-0.7719870701308875,1500.0,0.027773142280057072
210.0,3006704.0,-0.996102599799633,60,-2.7585504445363154,1.0081315808747555,0.0,-10.629592549028093,-21.4354469641534,-0.10067669209092855,-0.11894408464431763,-11.007019797442215,0.8,0.43607954159379003,0.676962035894394,-0.7453304375783798,-0.09072024319320918,-11.081670284884108,0.3621179111301899,-0.954840412735939,-2.9089385509005172,0.07296137339055794,0.11428571428571428,0.0012939453125,0.0,-16.14348969749077,0.693864984264049,-2.3108231413418254,10.773026567078457,-11.809188298630644,0.76,3.4551767481474385,-0.022431948967278004,0.0,0.6124993801116944,0.0,-0.8539145648581326,0.4570122443139553,6100.0,1398.0,-3.8033723174204592,1525.0,0.027831763681024312
106.0,3041428.0,-0.9962218046188355,61,-2.768009725382425,0.9032637953750402,0.0,-10.530763280691849,-20.37281165485177,-0.1011417742818594,-0.12047835141420364,-10.90246340968992,0.96,0.4398380026221275,0.6799598500132561,-0.7421762693807195,-0.09131634403020143,-10.99843025672628,0.3562437638640404,-0.9556102156639099,-2.9096831072560616,0.09005481597494126,0.20754716981132076,0.002001953125,0.0,-14.443282897619921,0.6865838342921877,-2.3151354647758127,10.657119122363449,-10.935526552302187,0.85,3.444190019784885,-0.021673616487532854,0.0,0.6156800866127015,0.0,-0.8520217611247063,0.46006748974323275,6200.0,1277.0,-2.565916567975465,1550.0,0.027009879238903522
193.0,3081871.0,-0.9961401939392089,62,-2.708646601303321,1.0555920498161087,0.0,-10.565027226021414,-20.609451152945002,-0.10180813893675804,-0.12237189244478941,-10.947661189915408,0.84,0.44345489591360093,0.6838821187615395,-0.7020580816982674,-0.09200060367584229,-11.024824202463439,0.357805834710598,-0.9554055154323577,-2.846239661147708,0.0930888575458392,0.17616580310880828,0.002392578125,0.0,-12.154054516837213,0.6656633072408173,-2.2778223258817887,10.694970184097803,-11.180846790748896,0.81,3.3721414263539815,-0.021104843681678177,0.0,0.6198444366455078,0.0,-0.8544549715243193,0.4633507288992405,6300.0,1418.0,-3.717638445342589,1575.0,0.02757251407019794
140.0,3119384.0,-0.996185103058815,63,-2.7187854693739633,0.9933184045630735,0.0,-10.60802533104637,-21.181971878190545,-0.10422141533344983,-0.12369629349559545,-10.982666936277928,0.92,0.44641597643494607,0.6875038206577301,-0.7031786327353563,-0.09289950970560312,-11.06111333655806,0.3536359779536724,-0.9559519767761231,-2.846068110268514,0.07606263982102908,0.2714285714285714,0.002392578125,0.0,-14.646071722751454,0.6584300393812572,-2.2761278865891654,10.753869198616595,-12.050418502076118,0.8,3.3980093690212185,-0.021074443636462093,0.0,0.6237069517374039,0.0,-0.857615612706286,0.466150239109993,6400.0,1341.0,-1.5884791536581857,1600.0,0.027262913575395942
163.0,3157876.0,-0.9962083995342255,64,-2.7391754988351424,0.9843040165173088,0.0,-10.642340859874613,-21.24303243035532,-0.10520731434226036,-0.12570917867124082,-11.026295126356597,0.88,0.44995363503694535,0.6907253623008728,-0.6924802690591062,-0.09485547747462988,-11.107987799214245,0.3544618278741837,-0.9558437466621399,-2.866453002469393,0.10334788937409024,0.20245398773006135,0.002685546875,0.0,-14.704899914641091,0.6407908168029337,-2.3097189945907304,10.761624377573156,-11.72378955825664,0.8,3.258345070894331,-0.02080616788007319,0.0,0.6281859681010247,0.0,-0.8549664059410134,0.46926228776574136,6500.0,1374.0,-1.8999435485857974,1625.0,0.02710234965197742
160.0,3195289.0,-0.9962009951472283,65,-2.765657851643281,0.9304179857109073,0.0,-10.57084990261483,-21.404963667861615,-0.10570308938622475,-0.12798576056957245,-10.937281975214674,0.92,0.4536326602101326,0.6941913291811943,-0.7127247490162075,-0.09643486980348825,-11.02138973897244,0.354031378030777,-0.9559001594781875,-2.8853439779748538,0.07025411061285501,0.35625,0.0020263671875,0.0,-14.676762027369262,0.6591471055126523,-2.310080995181488,10.704252032381088,-11.901920060110323,0.77,3.2378681097747046,-0.021246648393571377,0.0,0.632158662378788,0.0,-0.8532799864391564,0.47267057150602343,6600.0,1338.0,-2.7123899519458603,1650.0,0.027153344312682747
136.0,3230537.0,-0.9961724326014518,66,-2.7301017617764214,0.9215076766814772,0.0,-10.575178080889513,-20.177144257001693,-0.10661667902022601,-0.13000257983803748,-10.959884846263819,0.92,0.457059882581234,0.6976999461650848,-0.6907698905018845,-0.09769773930311203,-11.045729345226496,0.3539606176316738,-0.9559094354510307,-2.861028027831701,0.09929632525410477,0.27941176470588236,0.0021728515625,0.0,-16.190441650401773,0.6451145218635878,-2.3015322887502405,10.726841350880523,-11.360734403977705,0.81,2.9661079798264813,-0.021264523826539518,0.0,0.6359556451439857,0.0,-0.8569166383709671,0.4759929522871971,6700.0,1279.0,-3.0841886483409886,1675.0,0.02735043000429869
86.0,3266438.0,-0.9961695417761802,67,-2.6905036927862755,1.000483097047581,0.0,-10.415923693266683,-20.268682384913856,-0.10716041326522827,-0.1320767853409052,-10.799432974427491,1.0,0.4608212739229202,0.7007802188396454,-0.6781230258670945,-0.0991045942530036,-10.896220594536757,0.3715030297636986,-0.9536105021834373,-2.8247679176139586,0.1105379513633014,0.4069767441860465,0.00224609375,0.0,-10.06623463367576,0.6152009492787143,-2.2713860227613623,10.563738059670126,-10.846875766836302,0.81,2.9829300323944636,-0.020975993340834977,0.0,0.6404528707265854,0.0,-0.8581976590525301,0.47903793677687645,6800.0,1357.0,-0.5493259831347386,1700.0,0.027370214043185116
160.0,3305003.0,-0.9961261227726936,68,-2.702768674885579,0.9239209010311278,0.0,-10.717428127664004,-21.01899363509661,-0.10725481193512679,-0.13432173244655132,-11.099797277371374,0.88,0.4639912433922291,0.7037050440907479,-0.6736672259189043,-0.10098234731703996,-11.180329632473235,0.36814822554588317,-0.9540501445531845,-2.8296943791811104,0.09724238026124818,0.24375,0.00185546875,0.0,-16.867605527349923,0.6145534176741717,-2.2887444700805646,10.853192545598436,-11.283150517857313,0.8,2.7659686725583894,-0.02093026153743267,0.0,0.6438117325305939,0.0,-0.8565022358350689,0.48262240961194036,6900.0,1378.0,-2.815093418264432,1725.0,0.027669508010149002
287.0,3342492.0,-0.9961709454655647,69,-2.7171779113937378,0.9070692532683953,0.0,-10.551929218112345,-20.87519511974891,-0.10720103532075882,-0.13677624501287938,-10.936563499403945,0.84,0.46668618097901343,0.7065591469407082,-0.7327908822170184,-0.10173842627555132,-11.016325005416405,0.3649547971785069,-0.9544686481356621,-2.8405628743907236,0.08986175115207373,0.4843205574912892,0.0017333984375,0.0,-17.392373179384915,0.6858288557841931,-2.251092746800714,10.685755363265395,-11.655711902508642,0.79,3.0093489851730655,-0.021186336036771537,0.0,0.6476971074938774,0.0,-0.8554880480493011,0.4862224437296391,7000.0,1302.0,-3.953634406645414,1750.0,0.027360573783516882
151.0,3380085.0,-0.9961899489164352,70,-2.75482772144412,0.9932532870359235,0.0,-10.693800946537477,-21.404947909584394,-0.10848702006042003,-0.13939485214650632,-11.073258965634093,0.92,0.46924187168478965,0.7098042607307434,-0.7644819770969018,-0.1032985521480441,-11.146885005874164,0.36594429761171343,-0.9543389767408371,-2.883600022542715,0.09057706355003653,0.33774834437086093,0.0017333984375,0.0,-14.524608022383402,0.7062581572993911,-2.273893581653101,10.846031856233594,-12.08389526056842,0.75,3.330160957946744,-0.021825351379811765,0.0,0.6520974904298782,0.0,-0.8589901150775404,0.4889684647321701,7100.0,1369.0,-2.859099636933705,1775.0,0.02722951122559607
195.0,3419406.0,-0.9961844325065613,71,-2.8194215315125852,0.9810189154549676,0.0,-10.589412707594594,-20.92772394758747,-0.1087933037430048,-0.14279698431491852,-10.966863784566817,0.84,0.47166570723056794,0.7126771196722984,-0.8226661168616065,-0.10507294330745935,-11.040736958598975,0.37357326671481134,-0.9533391922712326,-2.944361467474559,0.08821402747650037,0.23076923076923078,0.0015380859375,0.0,-15.401696680802473,0.7671839512433807,-2.2902879227724044,10.71734227218261,-11.416209251958465,0.82,3.184641995158085,-0.0220862437505275,0.0,0.6567193284630776,0.0,-0.8610212038442114,0.4919261746108532,7200.0,1383.0,-3.0907659794937876,1800.0,0.027267616288736463
140.0,3456913.0,-0.9961480975151062,72,-2.840073053062779,0.9594074454440455,0.0,-10.895490637102665,-21.080107178588925,-0.10993804801255465,-0.1453160174190998,-11.270407044519867,0.92,0.47598044499754905,0.7153368011116982,-0.8235562081474426,-0.10717871263623238,-11.360910476953567,0.3739007204771042,-0.9532962784171104,-2.9596555773665,0.09204712812960236,0.24285714285714285,0.0014892578125,0.0,-16.429107671076455,0.7677273782859223,-2.3095948228532506,11.04697873667109,-11.518731108469186,0.78,3.332967782806402,-0.021707935072481633,0.0,0.6611708462238312,0.0,-0.8615980596598092,0.4949204444885254,7300.0,1358.0,-3.703585555436576,1825.0,0.0275180630851537
128.0,3494544.0,-0.9961748272180557,73,-2.879614883009274,0.8832106633764102,0.0,-10.655128552256539,-20.677630531781585,-0.10924122240394354,-0.14783614538609982,-11.041285730587523,0.92,0.4806382104754448,0.7179950550198555,-0.8452577185579695,-0.10911514908075333,-11.122759248109622,0.372236567735672,-0.9535143703222275,-2.9761556822440647,0.09288824383164006,0.2265625,0.0012939453125,0.0,-17.800409999705565,0.7832123368092244,-2.3162045195687826,10.811834188840269,-11.805227064322711,0.85,2.9469071962040347,-0.022015211917459965,0.0,0.6662426516413689,0.0,-0.8596821329621889,0.49813205301761626,7400.0,1378.0,-2.912029557224888,1850.0,0.027333835884928704
411.0,3533515.0,-0.9960952132940293,74,-2.847106178235299,0.9816542652213471,0.0,-10.798991958104967,-21.54417869978881,-0.1105340862646699,-0.14939948692917823,-11.18803314879525,0.88,0.4845361053943634,0.7208697542548179,-0.87713078636553,-0.11089856009930373,-11.26689963268059,0.38279807269573213,-0.9521302968263626,-2.9519879267839415,0.07013738250180766,0.7274939172749392,0.0013916015625,0.0,-12.939061627276745,0.8138239330872798,-2.2518631380175065,10.935045145658874,-12.443699295251236,0.81,3.1407306354068414,-0.02209674883633852,0.0,0.6704004898667335,0.0,-0.8638736551034526,0.5012333214282989,7500.0,1383.0,-4.787216714674851,1875.0,0.027882701996713877
180.0,3572182.0,-0.9961674198508262,75,-2.8895936667771687,0.876849799495524,0.0,-10.84912632155039,-20.844872236632384,-0.11032290309667588,-0.15231836549937725,-11.237466161572403,0.84,0.48722038194537165,0.7233539938926696,-0.8847593168661196,-0.11097616013139486,-11.325681067280481,0.3743264742195606,-0.9532404839992523,-3.0028208723167817,0.09104367135455219,0.15555555555555556,0.0011474609375,0.0,-18.841738940696978,0.8507951117687448,-2.2976240873278586,11.002060288720347,-11.813811904385362,0.8,3.5211683351074283,-0.022305444255471228,0.0,0.6752152815461159,0.0,-0.8658326253174892,0.5040050476789475,7600.0,1351.0,-3.315035170219811,1900.0,0.027384882047772407
136.0,3612177.0,-0.9961883574724197,76,-2.914998615072996,0.962274293526366,0.0,-10.660324552527516,-21.475631772905555,-0.11121248677372933,-0.1546097680926323,-11.042379093084033,0.92,0.491537594050169,0.7260213419795036,-0.8891586834895222,-0.11250075120478868,-11.136251935660999,0.38254689499735833,-0.9521632000803948,-3.0140233732213995,0.09116022099447514,0.22794117647058823,0.000927734375,0.0,-8.959790567415517,0.8241299104784272,-2.3225134558746503,10.795371119563594,-12.372986095193683,0.77,3.0852610175196644,-0.022073978185653688,0.0,0.6795922562479972,0.0,-0.8635490432505322,0.5069581508636475,7700.0,1448.0,-2.4466407779224797,1925.0,0.027240488911047578
174.0,3647614.0,-0.9961898729205132,77,-2.9497391334881216,0.8802513447825584,0.0,-10.655695362055535,-21.121592008406463,-0.11168456263840199,-0.15672325007617474,-11.040164571057014,0.88,0.49495147839188575,0.7285635456442833,-0.9355828589852141,-0.11404768377542496,-11.119732225989901,0.3776383772492409,-0.9528064548969268,-3.046381287283302,0.08340016038492382,0.25287356321839083,0.000830078125,0.0,-14.184959881196818,0.8671427226334675,-2.3171811084357614,10.789477010604507,-12.58555960106629,0.81,3.3618373454737216,-0.022658495558425785,0.0,0.6828596413135528,0.0,-0.8597042087705631,0.5098086908459664,7800.0,1247.0,-2.484275277950791,1950.0,0.027230000076815485
110.0,3683448.0,-0.9961547702550888,78,-2.923804222054416,0.864391306595863,0.0,-10.821615210564127,-20.534334860808478,-0.11226006504148245,-0.15968779735267163,-11.212007222084942,0.96,0.4981617569923401,0.7309200748801231,-0.9158205656343503,-0.11529815196990967,-11.279373913425049,0.38192630261182786,-0.9522445350885391,-3.0197075688329442,0.09574468085106383,0.3,0.0011474609375,0.0,-8.718426177222431,0.8593327255937726,-2.306988134666608,10.951951529764106,-11.633846337162476,0.83,2.989473847128012,-0.022257411293685435,0.0,0.6871154233813286,0.0,-0.8614898619951419,0.5131299749016762,7900.0,1316.0,-0.8140160011559366,1975.0,0.02747212992981076
647.0,3718167.0,-0.9962158516049385,79,-2.9191111389220668,0.9387721959537139,0.0,-10.609295406494187,-20.62440410045009,-0.11428722739219666,-0.16211284473538398,-10.996322395327034,0.96,0.5010189041495323,0.7339342519640922,-0.9394586910729925,-0.11587915234267712,-11.071270006985353,0.39265149682760236,-0.9508390069007874,-3.0157937515544275,0.09182879377431907,0.9165378670788253,0.0009521484375,0.0,-8.62323388044812,0.8788423953080937,-2.2758750324519497,10.753452568429285,-11.912010306297146,0.81,3.4228264799711114,-0.022057387977838516,0.0,0.6914891466498375,0.0,-0.8629882901048405,0.5161118149757385,8000.0,1285.0,-3.86036912074239,2000.0,0.027050928259268404
100.0,3753803.0,-0.9961574882268905,80,-2.895989844927211,0.9517534760182264,0.0,-10.878799229574152,-19.96144096464467,-0.11502085439860821,-0.163871556147933,-11.275350631402388,0.96,0.5040421321988106,0.737202575802803,-0.9189642173096061,-0.11667818166315555,-11.348619983198256,0.38766791075468066,-0.9514920949935913,-2.980831097755403,0.10022607385079126,0.26,0.0009765625,0.0,-13.757075171612433,0.8721198996101045,-2.2547980725965315,11.021509445132818,-11.515476444283966,0.84,3.187012007749721,-0.02173906988464296,0.0,0.6957789093255997,0.0,-0.8661048022244359,0.5196208760142327,8100.0,1327.0,-2.091941065729343,2025.0,0.027453310368582607
96.0,3790186.0,-0.9961923360824585,81,-2.8304121544190446,0.903063374680066,0.0,-10.884268854981164,-20.64485319181266,-0.11587812714278697,-0.1667054131627083,-11.271258422457706,0.96,0.5071625903248786,0.740394939482212,-0.85837187910351,-0.11851688325405121,-11.339304046014947,0.3840035505592823,-0.9519723072648049,-2.934819523019418,0.10611643330876934,0.3645833333333333,0.0013916015625,0.0,-9.241454073675833,0.8073767319715334,-2.2548082635395987,11.02482796440733,-11.743101875127772,0.8,3.2731116333247847,-0.02211970123462379,0.0,0.7001948401331901,0.0,-0.865985339134204,0.522305716574192,8200.0,1357.0,-0.533342268113683,2050.0,0.027213093545287847
133.0,3825310.0,-0.9961753875017166,82,-2.954134366414506,0.8723331465746504,0.0,-10.7607809597794,-20.588832952727003,-0.11652324367314577,-0.1687859557569027,-11.161350608323497,0.96,0.5098192140460014,0.7435321718454361,-0.9510606622626436,-0.11883337758481502,-11.232052997538437,0.389766538888216,-0.9512170627713203,-3.030865267099083,0.09069946195234435,0.47368421052631576,0.001220703125,0.0,-8.852664173361804,0.8944843466228957,-2.276280831174154,10.902006357322557,-11.729592358721442,0.83,3.23571871103036,-0.02239845655858517,0.0,0.7048446908593178,0.0,-0.8662008286897617,0.5254915982484818,8300.0,1301.0,-2.601982893260662,2075.0,0.027329942397773265
129.0,3865235.0,-0.996209979057312,83,-2.9507901255529077,0.9378294783774216,0.0,-10.865489402582401,-20.96850336654899,-0.1179418746381998,-0.1714952304959297,-11.25103984663998,0.92,0.5126026675105095,0.7463619157671928,-0.9282417615555886,-0.11999674085527659,-11.329655072576669,0.39502980262041093,-0.9505273267626763,-3.0458618874776944,0.11301369863013698,0.14728682170542637,0.0013427734375,0.0,-18.250170736369494,0.8592506861715254,-2.3211157168887437,11.007879739052578,-11.938169449161567,0.76,3.2458958509675755,-0.02266971687786281,0.0,0.7090993225574493,0.0,-0.8664841341880674,0.5281641691923141,8400.0,1460.0,-2.639087452922284,2100.0,0.027091475622728466
107.0,3902999.0,-0.9962499797344208,84,-2.9808634465125055,0.9504606396703856,0.0,-10.720813447758932,-21.251011036383723,-0.11947753485292197,-0.17394158020615577,-11.112915870396526,0.96,0.5154225111007691,0.7487473100423813,-0.9458188957691887,-0.12079930901527405,-11.184462567197334,0.38859198316931726,-0.9513709992170334,-3.069867996482599,0.09571428571428571,0.2616822429906542,0.0013427734375,0.0,-15.467998067058254,0.8756778762872894,-2.325245092276236,10.870458115053015,-12.291355447296633,0.79,2.8465446128481213,-0.02248150440864265,0.0,0.7130738452076912,0.0,-0.8665307588969882,0.5312752857804298,8500.0,1400.0,-2.054507264958819,2125.0,0.026815612334758043
110.0,3938015.0,-0.9962076753377914,85,-2.925755710857076,0.9248947207341212,0.0,-10.619252878066279,-20.49959145293905,-0.12030399516224861,-0.17606891952455045,-11.011981344483408,0.96,0.5186949849128724,0.7514233320951462,-0.9264467609986319,-0.12193327136337757,-11.09881178883982,0.3906482562422752,-0.9511015176773071,-3.0164179228930887,0.1111111111111111,0.2909090909090909,0.001318359375,0.0,-13.795069236194966,0.8804512728109234,-2.281232410793018,10.755423620975657,-11.919707896461968,0.84,3.0378888480603377,-0.022294215485453607,0.0,0.7171673864126206,0.0,-0.8678202238868835,0.5338759273290634,8600.0,1296.0,-1.052058578886751,2150.0,0.02710747914388776
102.0,3968033.0,-0.9962112843990326,86,-2.9177365608678896,0.9200335556247137,0.0,-10.636286952108136,-19.69102219148475,-0.12132079675793647,-0.1780619814991951,-11.0373187609752,1.0,0.5216295659542084,0.7541233316063881,-0.906785088356594,-0.12373583354055881,-11.109516155225213,0.3807267025113106,-0.9524017408490181,-2.9994721696625075,0.11978704525288376,0.4117647058823529,0.00166015625,0.0,-9.591772166953401,0.8570188549923244,-2.276027680159314,10.774401090845505,-10.952083775145534,0.92,3.1437480838653133,-0.02294376287609339,0.0,0.7215557768940926,0.0,-0.8703113654311891,0.5366563260555267,8700.0,1127.0,-1.3346635828538025,2175.0,0.027082458464428784
105.0,4005642.0,-0.9962306380271911,87,-2.9068234864959672,0.9297875655786612,0.0,-10.75113442553275,-20.794705240508527,-0.12094480041414499,-0.17964433431625365,-11.154532053092009,0.96,0.5254694446921349,0.7569190099835396,-0.84117102216705,-0.1254734542220831,-11.237038156745564,0.40558332204818726,-0.9491442710161209,-2.98659769437241,0.10135617416131334,0.29523809523809524,0.0019287109375,0.0,-8.78554640754066,0.7940371879071078,-2.322161558517837,10.887975733864964,-12.141019086183439,0.77,2.9519353987407886,-0.023665539221838117,0.0,0.7261160001158714,0.0,-0.8718726021768817,0.5392368793487549,8800.0,1401.0,-0.9237498024965446,2200.0,0.026948985923081637
120.0,4038770.0,-0.9962701931595802,88,-2.9272702354541513,0.9169465946881787,0.0,-10.660091896398738,-20.434311321343277,-0.12128643337637186,-0.18163506239652633,-11.070251313468255,0.96,0.5292474731802941,0.7597054541110992,-0.9555784760246793,-0.12777892053127288,-11.151371646868913,0.3973440207540989,-0.9502240404486656,-3.0081287304419986,0.11147540983606558,0.2916666666666667,0.00126953125,0.0,-13.083084549870026,0.8852919625043153,-2.25486558051889,10.78937829281228,-11.73488809555729,0.87,3.1719005930515403,-0.023884329944849014,0.0,0.730962447822094,0.0,-0.8733473342505021,0.5420750871300697,8900.0,1220.0,-2.3807854032954365,2225.0,0.0266762999817729
76.0,4070895.0,-0.9962866649031639,89,-2.853977957139018,0.9204982462182884,0.0,-10.543372733640412,-20.179095717094775,-0.12341081537306309,-0.183567887917161,-10.948170856823856,1.0,0.5325972124934196,0.7621968880295753,-0.8667974917483136,-0.12954993918538094,-11.019431106931625,0.3819868862628937,-0.9522365957498551,-2.9443580664823257,0.10828547990155865,0.3684210526315789,0.0017822265625,0.0,-11.544706081626199,0.8077411093847754,-2.259525212684457,10.698041499917442,-11.465188982705607,0.86,2.6209065816164427,-0.022894513327628374,0.0,0.7345683068037033,0.0,-0.8710992517411796,0.5453925386071206,9000.0,1219.0,-1.5397218935842687,2250.0,0.026562826335430147
72.0,4106800.0,-0.9962651565670967,90,-2.9274251270263525,0.9156664492070318,0.0,-10.66432022572242,-20.782381594546667,-0.12189569473266601,-0.18529509231448174,-11.053338064796725,1.0,0.5349760338664055,0.7650642216205596,-0.9403074403012912,-0.13052705191075803,-11.130950552464224,0.40395045801997187,-0.9493582755327225,-3.0006984804987624,0.10963944076526858,0.3055555555555556,0.0014404296875,0.0,-10.800380877525926,0.9002600782373109,-2.2596112959749006,10.803661439590957,-11.837547688811384,0.79,2.787772375130843,-0.02303794356994331,0.0,0.7378602147102356,0.0,-0.868292361226122,0.5478017374873161,9100.0,1359.0,-0.572890134715189,2275.0,0.026711101550608872
106.0,4141011.0,-0.9962824776768684,91,-2.9174387127062196,0.931699717548625,0.0,-10.689407088265735,-20.30691137231044,-0.12174014616757631,-0.18765029609203338,-11.081922100147452,0.96,0.538139283657074,0.7678084462881088,-0.9637957056757372,-0.13166288658976555,-11.162926718848777,0.395498614013195,-0.9504658877849579,-2.9992022204003943,0.1015748031496063,0.3018867924528302,0.0012451171875,0.0,-10.256268859106948,0.9109055107496344,-2.2380254064828478,10.835751699998607,-11.354302864323337,0.84,3.1340063594298657,-0.02329971403814852,0.0,0.7409535437822342,0.0,-0.8701460584212327,0.5499143213033676,9200.0,1270.0,-0.9339257982174662,2300.0,0.026591637544333933
68.0,4177389.0,-0.9962915107607841,92,-3.014185661912949,0.9363338284925602,0.0,-10.758219899385292,-20.792432451693696,-0.12170249577611685,-0.18961309269070625,-11.145427408760185,1.0,0.5420209109783173,0.7703220188617707,-1.0626656384399915,-0.1333086747676134,-11.226889220775147,0.40188167840242384,-0.9496293872594833,-3.101368818620614,0.09971098265895954,0.22058823529411764,0.0013671875,0.0,-10.906484842750496,1.0034458878821106,-2.256108516750828,10.88401921612755,-11.872064967279847,0.82,3.229878960198346,-0.023220560932531952,0.0,0.7444981202483177,0.0,-0.8723638929961453,0.552233612537384,9300.0,1384.0,-0.9750461942058382,2325.0,0.0265293603297323
80.0,4210575.0,-0.9962732136249542,93,-3.0569040558146883,0.9166330670330687,0.0,-10.66088041413025,-20.032514061708966,-0.12054300028830767,-0.19184955395758152,-11.051995702554231,1.0,0.5443497911095619,0.7731253042817116,-1.0508644916638292,-0.1345893569290638,-11.131369062621914,0.4000613264739513,-0.9498679399490356,-3.1339339675241833,0.11559778305621536,0.275,0.0018310546875,0.0,-10.56380699724593,0.9903919779164264,-2.308353215086754,10.786737910613962,-11.005177830373771,0.82,3.348945528448509,-0.02260044850409031,0.0,0.7479146793484688,0.0,-0.8703085384524456,0.5544901624321937,9400.0,1263.0,-1.61027174808831,2350.0,0.026655477890744805
110.0,4244716.0,-0.9962749689817428,94,-2.9583117693762992,0.8806908581326042,0.0,-10.766744274929568,-20.090588149142842,-0.12141308318823577,-0.19460496716201306,-11.163379251132152,0.96,0.5456716671586037,0.7755047023296356,-0.978500354133988,-0.13568241223692895,-11.238595381959094,0.4085826352238655,-0.9487512186169624,-3.0439472280632307,0.10317460317460317,0.3090909090909091,0.0014892578125,0.0,-14.401353977593148,0.9200981258208832,-2.2621878063262555,10.889715834011913,-11.265670794449592,0.83,3.52495886623133,-0.022323643043637275,0.0,0.7517664700746536,0.0,-0.8725245562160125,0.5569554537534713,9500.0,1260.0,-1.440214827222041,2375.0,0.026643295818939806
78.0,4276070.0,-0.9962538912892341,95,-2.9511086640278017,0.9166281578493137,0.0,-10.609467969732396,-20.082023457233838,-0.12305915281176567,-0.19690565168857574,-11.003708768767723,1.0,0.5473850309848786,0.7783193573355675,-0.9925486684579905,-0.1362342841923237,-11.091626275433555,0.3914326265454292,-0.9509987279772758,-3.0274038595064994,0.11205432937181664,0.2692307692307692,0.0013427734375,0.0,-10.921306418429072,0.9387788523363211,-2.239440357188505,10.743716607268462,-11.263383718688676,0.86,3.354102006583022,-0.02228122460655868,0.0,0.7549922674894333,0.0,-0.8731967741379776,0.5592894539237022,9600.0,1178.0,-1.1550757680449606,2400.0,0.026788693899288774
212.0,4313147.0,-0.9963003933429718,96,-2.9775094737450845,0.8567388558888173,0.0,-10.358333312970764,-20.657562900744168,-0.12322229500859976,-0.1987967699766159,-10.757562887390948,0.8,0.5488086894154549,0.7813152953982353,-1.007797958612382,-0.13746059723198414,-10.833552420888434,0.3945400632917881,-0.950591504573822,-3.0602306244789994,0.10258418167580266,0.20754716981132076,0.001611328125,0.0,-18.775691568531567,0.9570734012718296,-2.260084398300387,10.49510433897768,-11.841682279103507,0.8,3.4021406973620927,-0.022676646569743754,0.0,0.758463303744793,0.0,-0.8689237317063089,0.5615165442228317,9700.0,1277.0,-3.5287567803448505,2425.0,0.026468101190403104
80.0,4346480.0,-0.9963486596941948,97,-2.9109343089537525,0.8641085025714441,0.0,-10.794883316284437,-20.690791681923322,-0.12491224892437458,-0.20113025456666947,-11.189374297025362,1.0,0.5506733447313309,0.784250196814537,-1.0382613757260792,-0.13940141089260577,-11.262019674593372,0.39768277630209925,-0.9501796543598175,-3.0068087238962584,0.10873015873015873,0.3625,0.0013916015625,0.0,-10.5457388549172,0.98117820733939,-2.1803305564397304,10.937280314040635,-11.834640482239278,0.79,3.526702712493851,-0.022843424696475267,0.0,0.7620205104351043,0.0,-0.8666835989177344,0.5637629389762878,9800.0,1260.0,-1.4316079472942314,2450.0,0.02613540068268776
149.0,4386281.0,-0.9963618203997612,98,-3.041655125795389,0.8806834712051916,0.0,-10.578079029621405,-20.993576423190675,-0.12472618333995342,-0.20316135995090007,-10.961313050785293,0.88,0.5523383468389511,0.7869030997157097,-1.0891177364751445,-0.14083273969590665,-11.033107158903599,0.4104189172387123,-0.9485105857253074,-3.1371277981582453,0.11025819958129798,0.1476510067114094,0.0015625,0.0,-18.291527817106548,1.0326599134101098,-2.2693786217230807,10.705257111572632,-11.893686153071103,0.77,3.665019104221392,-0.02273383070714772,0.0,0.765945540368557,0.0,-0.8631895753725984,0.5663997501134872,9900.0,1433.0,-4.123139847564725,2475.0,0.026044650794938208
101.0,4420332.0,-0.9963316932320595,99,-2.9502605691395547,0.9412697207241155,0.0,-10.735066953524399,-19.567996980932207,-0.1252179078757763,-0.20428625121712685,-11.12165578096131,0.96,0.5552171096205711,0.7893274754285813,-1.001287722482505,-0.14194899126887323,-11.18517395634396,0.40876022800803186,-0.9487279459834099,-3.0383720898542377,0.12106918238993711,0.2079207920792079,0.0015869140625,0.0,-12.076860389766397,0.953944562930127,-2.240703716560165,10.885029032209815,-10.549028552913434,0.85,3.5658012398090575,-0.02334609949029982,0.0,0.7695859208703041,0.0,-0.8658553849494638,0.5685720890760422,10000.0,1272.0,-2.0427658547776697,2500.0,0.02625230518169701
