ReemS3/reg_curious_hac/data/d4a6886/AntFourRoomsEnv-v0/alg:chac|eta:0.5|fw:1|fwhidsiz:256,256,256|nlev:2|reg:True|rolbatsiz:1|timsca:27,27|109/progress.csv
train/episodes,train_0/q_loss,train_1/target_q,train_1/reward_-0.0_frac,train_1/q_grads,train_1/avg_q,train_0/fw_bonus,train_0/fw_loss,test_1/avg_q,train_0/mu_grads_std,train_1/q_grads_std,train_1/reward_-27.0_frac,policy/steps,train_0/reward_-0.0_frac,epoch,train_0/avg_q,train_0/reward_-1.0_frac,train_1/reward_-1.0_frac,test_0/avg_q,test_1/n_subgoals,train_1/fw_loss,test_1/subgoal_succ_rate,train_0/current_q,train_0/mu_grads,train_1/subgoal_succ_rate,train_1/mu_grads_std,train_1/next_q,train_0/target_q,train/success_rate,train_1/reward,train_1/current_q,train_0/mu_loss,test/success_rate,train_0/next_q,train_1/fw_bonus,train_0/q_grads_std,train_1/mu_grads,train_0/reward,train_1/n_subgoals,train_1/q_loss,train_1/mu_loss,train_0/q_grads,test/episodes
100.0,0.5737365049024648,-8.029738629997563,0.0,0.012817362998612225,-7.642833828040369,-0.9941377267241478,0.02815746869891882,-16.383731428245586,0.1696532867848873,0.10929977986961603,0.0,91093.0,0.0,0,-5.525177755755255,0.000341796875,0.00263671875,-22.056841813464622,675.0,0.05924187172204256,0.0,-5.932998392259668,-0.016861795913428068,0.0007407407407407407,0.1483385745435953,-7.732799505223232,-5.922502563097221,0.0,-2.1353133719465403,-8.016666344802035,5.90824454583886,0.0,-5.8119381323578665,-0.9896941319108009,0.10712484139949083,-0.015693963039666414,-0.7160019594761252,2700.0,1.9424584733374128,6.172715384015102,0.004669378616381436,25.0
200.0,0.4925774563105653,-8.34073393767817,0.0,0.003338217391865328,-14.484017084628846,-0.9969336465001106,0.015017704013735056,-10.463900216769856,0.2002023782581091,0.12418392226099968,0.0,182218.0,0.0,1,-20.117892177684425,0.0063720703125,0.001611328125,-10.516356949775377,675.0,0.07331491038203239,0.0,-7.977129704580113,-0.018769179889932274,0.0,0.17990585714578627,-8.10747930940999,-8.0456502983982,0.0,-2.159234942753392,-8.372242566345225,7.8952600146620595,0.0,-7.893113601418714,-0.9866339489817619,0.13285639211535455,-0.03347789561375976,-0.7146899709601712,2700.0,1.4773089929630565,5.894463233890252,0.004421663179527968,50.0
300.0,0.4798412443647274,-8.216955594315374,0.0,-0.005387376609724015,-13.193181944522156,-0.9974951043725013,0.01237911896314472,-14.014529724416196,0.23476673401892184,0.13927853479981422,0.0,273343.0,0.0,2,-18.205092948215007,0.0072998046875,0.0010498046875,-14.727719043945307,675.0,0.08311703782528639,0.0,-7.999729775929348,-0.017499989224597813,0.0,0.1979762066155672,-7.843637377570495,-8.05117688793632,0.0,-2.122646745410748,-7.967633554018311,7.889996354040238,0.0,-7.908422973722895,-0.9845024675130845,0.15103112049400808,-0.037882722541689874,-0.712382805908419,2700.0,2.611061220407975,5.817053575796172,0.002282497924170457,75.0
400.0,0.5099721173220835,-9.238231134159093,0.0,-0.017869357531890274,-14.254612631131426,-0.997816552221775,0.010868443944491445,-14.188064608643035,0.2592454172670841,0.154841136187315,0.0,364454.0,0.0,3,-23.710490690005805,0.01865234375,0.0007080078125,-23.360024151457058,675.0,0.0898244434967637,0.0,-8.681126758796758,-0.014586793119087815,0.00037037037037037035,0.21558163575828077,-8.986356278984687,-8.815319795675371,0.0,-2.1102963888268276,-9.243307694749655,8.577811779195285,0.0,-8.619489502265523,-0.9830439582467079,0.16323696933686732,-0.04214390506967902,-0.7099678469086939,2700.0,1.5354323941383436,6.452568791100873,0.005093478260096163,100.0
500.0,0.26271111897327826,-8.37997895646493,0.0,-0.02506476887501776,-14.099218010037717,-0.998005460202694,0.009980654180981218,-12.73921327775528,0.27580238580703736,0.16811705194413662,0.0,455451.0,0.0,4,-24.46451979176885,0.033447265625,0.000732421875,-26.992084288685483,675.0,0.09812704995274543,0.0,-9.246236036142884,-0.015276420512236655,0.0025925925925925925,0.22946208007633687,-7.900019279765547,-9.390426072594114,0.0,-2.1236881212003937,-8.386053918344086,9.218121697829373,0.0,-9.218297226727248,-0.9812385559082031,0.17582216076552867,-0.042842866480350496,-0.7122839806506818,2700.0,0.7169497718941449,5.816145168203459,0.006495884526520968,125.0
600.0,0.33849503563411143,-7.781178548899424,0.0,-0.035896651446819305,-13.776764713013367,-0.9981007725000381,0.009532748558558523,-12.216530145565258,0.2853360839188099,0.1787487596273422,0.0,546576.0,0.0,5,-26.924063212968722,0.0291259765625,0.000732421875,-26.999999999993932,675.0,0.09920108281075954,0.0,-9.205078074654457,-0.016417495254427195,0.0,0.23887793458998202,-7.359304834363526,-9.333463741411341,0.0,-2.101928281359869,-7.803281268349627,9.205190707814864,0.0,-9.19323614855394,-0.9810049965977669,0.18161002025008202,-0.0445200783200562,-0.7124537048475759,2700.0,1.0552322824435219,5.876381281372156,0.008202831028029323,150.0
700.0,0.5197872926028367,-8.875508588115602,0.0,-0.03935288963839412,-13.769610507994441,-0.9982453927397728,0.008853113930672406,-12.242564918159127,0.29348651096224787,0.19265689812600612,0.0,637255.0,0.0,6,-25.88596320373073,0.0437255859375,0.000927734375,-19.83227571363646,675.0,0.10017468966543674,0.0,-8.836388941323078,-0.018746140552684663,0.006666666666666667,0.24627028293907643,-8.761140959445484,-8.921515883176099,0.0,-2.0373326795182947,-8.920567817944809,8.82215091998361,0.0,-8.819857903677217,-0.9807932868599891,0.18804627209901809,-0.04756300011649728,-0.7084244504090748,2700.0,2.38735051963429,7.090354930066918,0.010444201878271997,175.0
800.0,0.3603946075368961,-8.544985560594828,0.0,-0.039565148670226334,-13.58312096927923,-0.9982329398393631,0.008911613980308175,-12.654354013645271,0.29827279075980184,0.20201372355222702,0.0,727222.0,0.0,7,-22.46011238753094,0.0535888671875,0.0010498046875,-24.111114724290708,675.0,0.09609752129763365,0.0,-8.882259497029159,-0.015819332422688605,0.017777777777777778,0.2631078973412514,-8.19805110001265,-9.033228197059923,0.0,-2.0889356374646013,-8.579807514503193,8.875821306554311,0.0,-8.870397826704757,-0.9816798880696297,0.19852650724351406,-0.04422484943643212,-0.7108596326645056,2700.0,1.3740856552510248,5.519088476997454,0.013291232287883759,200.0
900.0,0.3412048411720129,-8.478024107192118,0.0,-0.04151855260133743,-12.983349771195272,-0.9984070777893066,0.008093248051591218,-13.23386180461487,0.30267841294407843,0.21278554759919643,0.0,818322.0,0.0,8,-25.4808279653442,0.042626953125,0.001513671875,-26.999981449433477,675.0,0.08741790950298309,0.0,-9.513471475169167,-0.01726980130188167,0.00037037037037037035,0.28017881885170937,-8.125943655275691,-9.65981603941039,0.0,-2.0937367506288864,-8.49631771437407,9.510960730633782,0.0,-9.512989786048617,-0.9835672587156296,0.2022306352853775,-0.04262156318873167,-0.70922550911273,2700.0,0.7575353569846841,6.133363128239603,0.017024842742830514,225.0
1000.0,0.3656339360315107,-8.26153979118876,0.0,-0.0428959277458489,-13.908719437736169,-0.998455160856247,0.007867214793805033,-14.058179930140625,0.3077725939452648,0.21859454810619355,0.0,909301.0,0.0,9,-26.12707019832518,0.0477294921875,0.002001953125,-26.51474040942983,675.0,0.0858453031629324,0.0,-9.467141895410197,-0.016816779458895325,0.002962962962962963,0.28533449992537496,-7.834304286072732,-9.607333375931779,0.0,-2.0564565601387583,-8.27360518209754,9.463010361294883,0.0,-9.467645726534002,-0.9839092135429383,0.20780015252530576,-0.04454085025936365,-0.7067837370435882,2700.0,0.5584000963042477,6.253043147883703,0.018973037507385014,250.0
1100.0,0.356265779547136,-7.954898080059439,0.0,-0.04552495703101158,-13.999630273837091,-0.9985567525029182,0.007389768527355045,-13.981865726568584,0.31543743833899496,0.22642664127051831,0.0,999772.0,0.0,10,-26.140242663877014,0.0285888671875,0.002099609375,-26.999998562433507,675.0,0.08131941836327314,0.0,-9.33526854237309,-0.01247011220548302,0.013333333333333334,0.289792650192976,-7.463454660994961,-9.482758438384232,0.0,-2.0530057658012084,-7.951601114184733,9.318924702720995,0.0,-9.323740499400229,-0.9848933607339859,0.21456494517624378,-0.045119116082787514,-0.7069688112220319,2700.0,0.598715252134444,6.011083247351946,0.02125284718349576,275.0
1200.0,0.44059169753021976,-7.95278894022268,0.0,-0.04936491856351495,-13.941258283685144,-0.9986303374171257,0.007044047152157873,-14.230502648791827,0.32089963257312776,0.23527959771454335,0.0,1090604.0,0.0,11,-26.34955635286916,0.0419189453125,0.0018310546875,-27.0,675.0,0.08147574439644814,0.0,-9.33293680185217,-0.013983873929828406,0.005925925925925926,0.3035186342895031,-7.482167180548876,-9.495225888535549,0.0,-2.1017436513073333,-7.842380316244807,9.319620296004718,0.0,-9.328674779866045,-0.9848593875765801,0.2222245492041111,-0.049643308855593204,-0.7072741482115816,2700.0,0.8979094885743848,5.785371637873362,0.02516769589856267,300.0
1300.0,0.4584947579127709,-9.387984458606741,0.0,-0.05415916442871094,-14.056673448702647,-0.9988075330853462,0.006211301684379578,-14.346442002073621,0.32629276663064954,0.24362900108098984,0.0,1181729.0,0.0,12,-26.997286050589693,0.01494140625,0.0021728515625,-27.0,675.0,0.07744123991578818,0.0,-9.611545778661853,-0.014675398427061736,0.0,0.31135008335113523,-9.626766143132622,-9.755809353215765,0.0,-2.0965304477162134,-9.401039541103929,9.611477376097547,0.0,-9.61256202737029,-0.9857366681098938,0.228393217548728,-0.043306476715952155,-0.7059711443347624,2700.0,1.9770976802627545,6.0753440754455275,0.031190891144797207,325.0
1400.0,0.24223996404485462,-8.095610735691265,0.0,-0.05337208788841963,-14.185319953886301,-0.9988363683223724,0.006075761804822832,-14.031924335235992,0.3305092602968216,0.24550467282533645,0.0,1272854.0,0.0,13,-26.99999999999141,0.01015625,0.0030029296875,-27.0,675.0,0.07486454844474792,0.0,-9.439710726911207,-0.014138334337621928,0.0,0.314178341627121,-7.585246054762268,-9.572463322408652,0.0,-2.074154348010052,-8.109065168404536,9.43237498413034,0.0,-9.425984078496743,-0.9862969785928726,0.22969317063689232,-0.046523678675293924,-0.7041300960139779,2700.0,0.7360832519185516,5.889330192475053,0.028822037018835546,350.0
1500.0,0.30862159314864007,-7.4644054236773485,0.0,-0.052097327541559935,-14.174564025600159,-0.9988766208291053,0.005886578117497265,-13.765099675094998,0.33544325828552246,0.24529963061213494,0.0,1363979.0,0.0,14,-26.99999999996654,0.0135009765625,0.0025634765625,-27.0,675.0,0.07241432629525661,0.0,-9.19361247282184,-0.009695896063931286,0.0,0.3172408379614353,-7.0638174484245795,-9.349234711196932,0.0,-2.0929144006928255,-7.489992596190248,9.183915333601778,0.0,-9.181768817864842,-0.9868297770619392,0.23295077830553054,-0.049235157947987315,-0.7034788370299794,2700.0,0.4623801387394527,6.073172087350213,0.03146917298436165,375.0
1600.0,0.18229653412401764,-8.182836704249542,0.0,-0.053106305189430714,-13.863131093194658,-0.9988602295517921,0.005963606492150575,-13.793452733819475,0.3434426590800285,0.24909172132611274,0.0,1455078.0,0.0,15,-26.86046311034265,0.015185546875,0.0021728515625,-26.999282735329956,675.0,0.07025824096053838,0.0,-9.307671913732856,-0.008286728337407113,0.00037037037037037035,0.3212607279419899,-7.7766880844442285,-9.456856477850934,0.0,-2.1172943297468008,-8.178793243139754,9.29153567618701,0.0,-9.291534811437662,-0.9872986152768135,0.2371405404061079,-0.0497773127630353,-0.7033973993631661,2700.0,1.3003447609347145,5.772881445985817,0.031510943081229925,400.0
1700.0,0.1719436267194018,-8.635646627148457,0.0,-0.05299417525529861,-13.91964295380313,-0.9988644927740097,0.005943524336908012,-13.830195460579615,0.35211076512932776,0.2521372377872467,0.0,1546203.0,0.0,16,-26.74125470329869,0.01572265625,0.0022705078125,-26.999475507970807,675.0,0.06795098707079887,0.0,-9.363481102304709,-0.005689967016223818,0.0,0.32451847195625305,-8.563723220172758,-9.520167272421222,0.0,-2.1327307321291302,-8.660967450358537,9.343014777928337,0.0,-9.343979295269403,-0.9878003388643265,0.24270559065043926,-0.04955240758135915,-0.701360961971659,2700.0,3.766447274135923,6.838267675784711,0.02807975159958005,425.0
1800.0,0.21897644518624784,-7.805661824948396,0.0,-0.05414467519149184,-13.986007592874866,-0.9988501995801926,0.006010756245814264,-13.948121372020601,0.35918540358543394,0.25423949137330054,0.0,1637326.0,0.0,17,-25.527208792694754,0.0170166015625,0.001904296875,-26.88181261636163,675.0,0.07005210127681494,0.0,-9.369006947039463,-0.0026959928683936594,0.00037037037037037035,0.32367086708545684,-7.346289964750502,-9.515927874666499,0.0,-2.1092845156774276,-7.81261872131337,9.362921663523979,0.0,-9.36226463304852,-0.9873434454202652,0.2467158917337656,-0.05080391289666295,-0.7000476567736769,2700.0,0.557485665477825,6.145999622457916,0.02682984797284007,450.0
1900.0,0.17218637406630677,-7.683576992234893,0.0,-0.05428436324000359,-13.849068085459598,-0.9988647535443306,0.005942279659211636,-13.968975422271889,0.3654665522277355,0.2546344891190529,0.0,1728451.0,0.0,18,-26.920668194168442,0.0207275390625,0.0018310546875,-26.99499556585011,675.0,0.0650454112328589,0.0,-9.453918519130564,-0.0049690664513036605,0.0,0.32373339384794236,-7.163670735475797,-9.604421154502301,0.0,-2.076039804276661,-7.68676631674515,9.432820248268154,0.0,-9.431588584914866,-0.988432140648365,0.24908165596425533,-0.05098454300314188,-0.7027649028786982,2700.0,0.3546730492294562,6.245192073284133,0.028074756218120455,475.0
2000.0,0.1760395979867586,-8.071382339126497,0.0,-0.05512894382700324,-13.894212661791265,-0.9988026350736618,0.006234222569037229,-13.881198328715545,0.37087764516472815,0.2569863900542259,0.0,1819576.0,0.0,19,-26.991453950917933,0.0220703125,0.0026123046875,-26.999999990004696,675.0,0.06654796013608574,0.0,-9.398375355115064,-0.006845038151368499,0.0,0.3233879193663597,-7.571365191208976,-9.559933035014264,0.0,-2.129306615972746,-8.082700641692497,9.374165577273493,0.0,-9.373853687221347,-0.9881054267287255,0.25338859409093856,-0.05353210940957069,-0.7047480026536505,2700.0,0.49988025018655546,6.200770061207633,0.029187824809923768,500.0
2100.0,0.27446677936823705,-9.883731643556928,0.0,-0.05647349217906594,-13.99415088794912,-0.998863174021244,0.005949735292233527,-14.329739294952272,0.3795683585107327,0.2623440630733967,0.0,1910701.0,0.0,20,-25.648862683925625,0.021435546875,0.0024658203125,-17.508002104209698,675.0,0.06469261385500431,0.0,-9.194652537999751,-0.004967886942904442,0.0,0.3249192513525486,-9.561535647300845,-9.366733646766756,0.0,-2.1043618546253127,-9.82242889196176,9.166209783895887,0.0,-9.173190478223535,-0.9885088726878166,0.25842284560203554,-0.05487638069316745,-0.7041435042789089,2700.0,2.341463527040638,6.807293917375747,0.028551272582262754,525.0
2200.0,0.26069892637545766,-8.443189546287838,0.0,-0.0555261243134737,-14.121134572908028,-0.9988573729991913,0.005977059865836054,-13.89533214245821,0.3822373390197754,0.263219889998436,0.0,2001826.0,0.0,21,-23.073423325086594,0.0118408203125,0.0023193359375,-26.999999815580345,675.0,0.06296583143994212,0.0,-9.462722182946777,-0.006916759675368667,0.0,0.3285141967236996,-8.022467771636022,-9.630722293723291,0.0,-2.0804895394096095,-8.463796734007833,9.459088766646435,0.0,-9.460109894384086,-0.988884350657463,0.263324985653162,-0.05310796778649092,-0.7066430383594706,2700.0,0.6785919169306996,6.376285869076801,0.032559083122760055,550.0
2300.0,0.1980869821648112,-9.712497046473867,0.0,-0.056375426799058916,-14.08945554497054,-0.9988262176513671,0.006123451248276979,-13.492856592554244,0.3873273603618145,0.2678056091070175,0.0,2092951.0,0.0,22,-26.99974577737748,0.0258544921875,0.0020751953125,-27.0,675.0,0.06479622917249798,0.0,-9.46382514693193,-0.007945049996487796,0.0,0.33225297182798386,-9.64107154421682,-9.614585763282102,0.0,-2.1319995140933314,-9.703999378169915,9.438290151264948,0.0,-9.439994121533054,-0.9884863331913948,0.26693024188280107,-0.05378514900803566,-0.7086782448779558,2700.0,1.4238102733387208,6.577889301168019,0.03462099758908153,575.0
2400.0,0.1703702266612114,-8.94229678491676,0.0,-0.05652741314843297,-14.106501316865728,-0.9988915666937828,0.005816333880648017,-14.00112076365169,0.3931979775428772,0.2725576288998127,0.0,2184076.0,0.0,23,-26.999825925511573,0.0103759765625,0.0030029296875,-27.0,675.0,0.06491435505449772,0.0,-9.444874016684683,-0.0052328236517496405,0.0,0.33434427082538604,-8.586927664095048,-9.59908232774606,0.0,-2.102860693958064,-8.949156304279654,9.418551001987446,0.0,-9.417295752164344,-0.9884606450796127,0.26860125064849855,-0.05457235472276807,-0.7075390447382233,2700.0,0.7721473608731065,6.173731643685765,0.03484340170398355,600.0
2500.0,0.17077533844533727,-7.675288606699541,0.0,-0.05559065900743008,-14.00179898797569,-0.9989024251699448,0.005765274842269718,-14.171288562113677,0.39858398512005805,0.2762995459139347,0.0,2275201.0,0.0,24,-26.99995072829897,0.01220703125,0.002734375,-26.99999999962247,675.0,0.07026489451527596,0.0,-9.34143112956398,-0.005335272511001676,0.0,0.3356053106486797,-7.1698854181982385,-9.485646650015573,0.0,-2.1273766130616423,-7.681069709732026,9.313779779062589,0.0,-9.312803957285166,-0.9872971698641777,0.2721285030245781,-0.05403443528339267,-0.7063115671808191,2700.0,0.2976354307339723,6.05512341954847,0.03310901531949639,625.0
2600.0,0.18420202822055157,-8.067563056467463,0.0,-0.05814050901681185,-14.05591283245295,-0.9989014327526092,0.005769984680227935,-13.961272978116783,0.4024331301450729,0.280131583660841,0.0,2366326.0,0.0,25,-26.999570051246167,0.0087890625,0.00224609375,-26.99999999475195,675.0,0.07585170846432447,0.0,-9.471106914559376,-0.007763638976030052,0.0,0.33567751869559287,-7.667586196261084,-9.624152325701186,0.0,-2.0865470189884947,-8.072814458287855,9.442699490638525,0.0,-9.44086488912081,-0.9860823169350624,0.27358599230647085,-0.05487085860222578,-0.7095703434519237,2700.0,0.6140218358616987,6.068339045243081,0.03421587329357863,650.0
2700.0,0.1893442253155367,-8.106306425537639,0.0,-0.05770454192534089,-14.207560445957801,-0.9989501565694809,0.005540957709308713,-14.143269606173048,0.4037128910422325,0.285117793828249,0.0,2457451.0,0.0,26,-26.997103650499678,0.00927734375,0.0021240234375,-26.999997738874427,675.0,0.07895181179046631,0.0,-9.420906396177353,-0.012135646818205715,0.0,0.336810053139925,-7.619852884261675,-9.582722628873773,0.0,-2.116776367046259,-8.126565356570485,9.394538380662942,0.0,-9.392244314238525,-0.9854082062840461,0.27881563603878023,-0.05503297634422779,-0.7094604326615809,2700.0,1.1441394455310987,6.233423340197363,0.03602320197969675,675.0
2800.0,0.20275741370698325,-7.7906078245439785,0.0,-0.05796854393556714,-14.076200046395744,-0.9989376291632652,0.005599927867297083,-14.044443085286861,0.40615138709545134,0.2881632000207901,0.0,2548576.0,0.0,27,-26.99678898312977,0.0097412109375,0.00244140625,-27.0,675.0,0.08527380079030991,0.0,-9.599817920487672,-0.015267028636299074,0.0,0.33795063868165015,-7.241464566258887,-9.754168541511223,0.0,-2.0899049267529337,-7.787113747078837,9.58859471593561,0.0,-9.587390926882758,-0.9840334802865982,0.2847511187195778,-0.05542186200618744,-0.7139219320881238,2700.0,0.5998297189350774,5.903828656018047,0.0363766354508698,700.0
2900.0,0.22124230063838918,-7.876401304833616,0.0,-0.0587079799734056,-14.012111907652223,-0.9989138722419739,0.005711547925602645,-13.954165034335238,0.4069490574300289,0.29084900617599485,0.0,2639701.0,0.0,28,-26.999995330222333,0.011865234375,0.0021240234375,-27.0,675.0,0.08484424632042646,0.0,-9.460998902461906,-0.01824600948020816,0.0,0.3398936688899994,-7.360850734216234,-9.624980031277394,0.0,-2.104636689167819,-7.887774225793677,9.438810232131576,0.0,-9.437802664655095,-0.9841268926858902,0.28829932287335397,-0.056730262283235786,-0.7100892559756176,2700.0,0.41729809228934955,6.0253338906774205,0.03653023913502693,725.0
3000.0,0.24100662514861698,-8.618122677048415,0.0,-0.06056683491915464,-13.975024840613866,-0.9988853737711907,0.005845399515237659,-13.944420730954104,0.40691944137215613,0.2933450758457184,0.0,2730586.0,0.0,29,-26.83898575625466,0.012353515625,0.0019287109375,-25.058312690350498,676.0,0.08610083293169737,0.0014792899408284023,-9.495678664031656,-0.023612334625795484,0.003703703703703704,0.34037807434797285,-8.25072202980828,-9.646348809035372,0.0,-2.1295244810389704,-8.638608051145791,9.480273669641276,0.0,-9.473323318778657,-0.983853654563427,0.29224768951535224,-0.05672772377729416,-0.7122112455203023,2700.0,1.0853327842355172,6.607071121524899,0.036746278032660486,750.0
3100.0,0.36719191276325625,-9.412667235667408,0.0,-0.06128682978451252,-14.141913254950284,-0.9988218784332276,0.006143865152262151,-13.919887028863359,0.4117100201547146,0.2959403328597546,0.0,2821313.0,0.0,30,-25.472323218091688,0.0102294921875,0.0015625,-23.504424396779285,675.0,0.09405745752155781,0.0,-9.611432785485075,-0.02428070977330208,0.006666666666666667,0.34349601045250894,-9.207691505718767,-9.752604359536267,0.0,-2.0812961163661385,-9.328623807568942,9.61362722583066,0.0,-9.609733356564387,-0.9821234673261643,0.3003935404121876,-0.05591142699122429,-0.718527146957058,2700.0,1.2765903510260757,6.227474665232295,0.037164243403822184,775.0
3200.0,0.23907580548651958,-7.58446126210296,0.0,-0.06077146716415882,-13.952235808625764,-0.9987395286560059,0.0065308160032145676,-13.899328682651777,0.4171079620718956,0.29705354049801824,0.0,2912322.0,0.0,31,-26.82849795089222,0.0125244140625,0.0012939453125,-26.999828234187735,675.0,0.09455375354737043,0.0,-9.465333231650817,-0.0256861328613013,0.002962962962962963,0.34543041959404946,-7.094135099797446,-9.614923681564573,0.0,-2.0959272144027636,-7.574288223506954,9.409653037872559,0.0,-9.405251719312705,-0.9820155635476112,0.3039308600127697,-0.0573480567894876,-0.7213058029388776,2700.0,0.6936521711529997,6.12660856367444,0.03834530189633369,800.0
3300.0,0.259081772054094,-9.907537087408471,0.0,-0.061393468361347917,-14.13625327930069,-0.9986861065030098,0.0067819820018485185,-14.113879583186758,0.42034299597144126,0.2979808397591114,0.0,3003447.0,0.0,32,-26.994860430018438,0.01630859375,0.0014404296875,-27.0,675.0,0.09952962268143892,0.0,-9.44314887294924,-0.02671458930708468,0.0,0.34739903062582017,-10.024847994749962,-9.579856653534218,0.0,-2.0928471509083466,-9.92651735194834,9.397433162689733,0.0,-9.39063256493947,-0.9809335559606552,0.3078013211488724,-0.05793343000113964,-0.7229026157423505,2700.0,1.675263949708358,6.940683292765553,0.03967092158272863,825.0
3400.0,0.30436364891831025,-9.897519634339924,0.0,-0.06123377839103341,-14.192911039741361,-0.9984573781490326,0.007856831105891615,-13.893191724214255,0.42526681944727895,0.30097834542393687,0.0,3094572.0,0.0,33,-26.999997955395315,0.0148193359375,0.0018798828125,-26.999999999879133,675.0,0.10908139199018478,0.0,-9.504820198831334,-0.029638608917593956,0.0,0.3490371026098728,-9.90707928251822,-9.655620157766261,0.0,-2.1108516043612324,-9.893838033029093,9.449942177842397,0.0,-9.43982738373118,-0.9788565292954445,0.31162973642349245,-0.057238537911325695,-0.7334327910633874,2700.0,1.178914159644578,6.612486712571555,0.041044396348297596,850.0
3500.0,0.38496606940042977,-10.26069626915257,0.0,-0.06220506047829986,-13.992094421714583,-0.9982665285468102,0.008753793477080763,-13.403814136735996,0.4311075933277607,0.3051424026489258,0.0,3185557.0,0.0,34,-26.98813589007667,0.0182373046875,0.0015625,-26.98955666314004,675.0,0.12043599635362626,0.0,-9.45723766036412,-0.03205066993832588,0.0,0.35102603286504747,-10.286655268305749,-9.59240321055039,0.01,-2.130735239752539,-10.25206316378608,9.38567606260209,0.0,-9.371268434263541,-0.9763874650001526,0.3135589867830276,-0.05865581212565303,-0.7442138258134946,2695.0,1.3825144395182234,6.4970077409016,0.0390389927662909,875.0
3600.0,0.3707408096268024,-10.049291072428824,0.0,-0.06333114951848984,-13.930015172264921,-0.9980936720967293,0.009566071978770196,-14.301967662082639,0.43505425229668615,0.3098913714289665,0.0,3276682.0,0.0,35,-26.6167894592756,0.014208984375,0.001611328125,-26.999996639961505,675.0,0.13907314669340848,0.0,-9.75610959994444,-0.03281707977876067,0.0,0.3533963993191719,-10.020705115146558,-9.906164535255778,0.0,-2.078342705767864,-10.039640966054206,9.681269131639866,0.0,-9.668073124262103,-0.9723348304629326,0.3198100969195366,-0.05952088162302971,-0.7513295540280523,2700.0,1.4527108302098726,6.192695747506413,0.03734152773395181,900.0
3700.0,0.42074536580419597,-10.345258466809033,0.0,-0.06535540129989385,-14.090637062627014,-0.9980678901076316,0.009687317279167473,-14.156726349808377,0.4392682433128357,0.3133114747703075,0.0,3367807.0,0.0,36,-26.744984876309314,0.0137451171875,0.0009033203125,-26.99999476973478,675.0,0.14299524314701556,0.0,-9.76084761620154,-0.032194754015654324,0.0,0.35505944564938546,-10.14965991609301,-9.910130443539785,0.0,-2.0798327784556023,-10.373838077254984,9.703568038383539,0.0,-9.68886219789184,-0.971481965482235,0.32424838542938234,-0.060190612263977525,-0.7553449744984391,2700.0,1.6552435799439658,6.2135257943685485,0.037631109543144706,925.0
3800.0,0.5868827900515325,-9.678099808374848,0.0,-0.0654799135401845,-13.98646391727656,-0.9978840008378029,0.010551453498192132,-13.653878772145248,0.4430682100355625,0.3136825703084469,0.0,3458932.0,0.0,37,-26.99943041522903,0.0137939453125,0.000830078125,-26.999667055197982,675.0,0.15247219614684582,0.0,-10.017673633242698,-0.03203552793711424,0.0,0.35622203052043916,-9.237515142632935,-10.16645153272153,0.0,-2.113201811876934,-9.700293999871638,9.956436507996028,0.0,-9.941225546003713,-0.9694212004542351,0.32808473855257037,-0.06080874837934971,-0.7708536231722973,2700.0,0.8660542378059006,6.196773191234044,0.03936085607856512,950.0
3900.0,0.477186096764003,-9.894538431776448,0.0,-0.06521110236644745,-13.939099492622077,-0.9977401599287987,0.011227432801388205,-13.068486298491766,0.4455688983201981,0.31637840047478677,0.0,3549816.0,0.0,38,-26.58437954159179,0.017724609375,0.0007568359375,-25.621729271760096,669.0,0.16861529126763344,0.0014947683109118087,-9.978433358273406,-0.031000494863837956,0.0007407407407407407,0.357161808013916,-9.473781994581785,-10.125811501538609,0.0,-2.153817259283096,-9.879182443615436,9.861888514540187,0.04,-9.84168983834265,-0.9659108757972718,0.3328299343585968,-0.06135117150843143,-0.7873954734161088,2700.0,1.8911730901851562,5.972462498085035,0.039663606137037274,975.0
4000.0,0.5597964975023064,-7.531513673425539,0.0,-0.06637636721134185,-13.954020996639285,-0.9975591585040092,0.012078060419298708,-14.223920088221623,0.4502349466085434,0.3174552947282791,0.0,3640664.0,0.0,39,-26.363676096123584,0.0109619140625,0.000537109375,-26.992381793387253,675.0,0.19220067225396634,0.0,-10.200100536285529,-0.02933604046702385,0.0044444444444444444,0.3602427840232849,-6.828288284903801,-10.352242652401676,0.0,-2.1463335069827734,-7.351648366211165,10.078716594925309,0.0,-10.050693505604382,-0.9607822507619858,0.34259624481201173,-0.06083399150520563,-0.801806926086283,2700.0,1.0601220096545103,5.515746083934144,0.043682088144123554,1000.0
4100.0,0.4722605435823576,-8.830224747815333,0.0,-0.06607354339212179,-13.92338062503803,-0.9975826695561409,0.011967600788921118,-13.525293782123011,0.45270720645785334,0.31975590661168096,0.0,3731789.0,0.0,40,-26.914767968620477,0.0088623046875,0.0007568359375,-26.923233998887312,675.0,0.18018036261200904,0.0,-10.033288886471357,-0.03038241728208959,0.0,0.3621268801391125,-8.299109969898392,-10.182632667459671,0.0,-2.10682010206001,-8.841478063710804,9.882609980366263,0.0,-9.855460870022338,-0.9633960604667664,0.34645785167813303,-0.061843893770128486,-0.8042600846318237,2700.0,0.5278126413740439,6.274571774391679,0.04346789894625545,1025.0
4200.0,0.6173494354896532,-9.862658194999273,0.0,-0.06746950130909682,-13.922930493381374,-0.9974838122725487,0.012432167609222233,-12.589784274615193,0.4570182390511036,0.32384506314992906,0.0,3822863.0,0.0,41,-26.238743590498363,0.0092041015625,0.0005615234375,-25.281332164970507,678.0,0.17880950756371022,0.004424778761061947,-10.07988649329179,-0.03182932203635573,0.0007407407407407407,0.36277599930763244,-9.386931871815275,-10.2090071269389,0.0,-2.1296253988926765,-9.82938334565792,9.931214842148874,0.0,-9.911900614919324,-0.9636941477656364,0.35005337968468664,-0.06203279579058289,-0.8052116347222181,2700.0,1.2381351481356786,6.04734019488718,0.03968964600935578,1050.0
4300.0,0.48086922739217053,-9.404793244348841,0.0,-0.06745172273367643,-13.676134064411318,-0.9974309772253036,0.012680504377931357,-13.289668341209286,0.46142068058252333,0.3259801775217056,0.0,3913494.0,0.0,42,-25.798227677630607,0.0110107421875,0.0005859375,-26.97715031978945,666.0,0.18446155600249767,0.0,-10.120951002272175,-0.028937972523272036,0.003703703703703704,0.3638376951217651,-8.953772564079255,-10.266885806298262,0.0,-2.0802682046909466,-9.398499935361878,9.973341016984245,0.04,-9.950902355750191,-0.9624651163816452,0.354204823076725,-0.06346017681062222,-0.8046114829179715,2700.0,1.4124818876861238,6.867716781910644,0.042603990994393826,1075.0
4400.0,0.40266432368001037,-9.562294641788021,0.0,-0.06805268209427595,-13.853734765470811,-0.9974780291318893,0.01245936646591872,-13.62671023411045,0.4657259576022625,0.3271123364567757,0.0,4004408.0,0.0,43,-26.952581911111192,0.0130615234375,0.0008056640625,-26.999979652980766,675.0,0.17645727284252644,0.0,-10.016046196748253,-0.02936772131361067,0.0,0.36359642297029493,-9.146934213978657,-10.17144015018681,0.01,-2.0657454030530062,-9.572831631925842,9.881288778275819,0.0,-9.863057127449641,-0.9642056360840797,0.3599675498902798,-0.06305582895874977,-0.7900842290393484,2693.0,1.8181115344369594,6.601603071547709,0.04385949904099107,1100.0
4500.0,0.36666980526731896,-8.365260147054869,0.0,-0.06741358563303948,-13.767963413698332,-0.9976488679647446,0.011656453739851714,-13.042618196235608,0.46851263791322706,0.3301292844116688,0.0,4095533.0,0.0,44,-26.76550682305448,0.0113525390625,0.0008056640625,-26.999996163171808,675.0,0.17482369728386402,0.0,-9.833475771402508,-0.029688127944245933,0.0,0.3655377432703972,-7.7756515475245775,-9.982096537599457,0.0,-2.0955738924421894,-8.314342262170761,9.712091178921577,0.0,-9.69604522325732,-0.9645608782768249,0.3657403111457825,-0.06267089433968068,-0.7754235592226906,2700.0,1.4761316539630416,5.990978737429849,0.04574831081554294,1125.0
4600.0,0.3410349922863153,-11.448590229937041,0.0,-0.06705615743994713,-13.917966209012366,-0.9977633908390999,0.011118287942372263,-13.686173957377807,0.4718989171087742,0.3316266521811485,0.0,4186658.0,0.0,45,-26.98802743289205,0.013134765625,0.000439453125,-26.99999998444261,675.0,0.17989290952682496,0.0,-9.945758799079092,-0.027347486419603228,0.0,0.365740355104208,-11.259495423104493,-10.099037657114607,0.0,-2.1099153215916884,-11.452862365062867,9.827099872773221,0.0,-9.811687928079015,-0.9634585723280906,0.36946224197745325,-0.06347740981727838,-0.7722703668521718,2700.0,2.274245813966119,6.806630554804039,0.046890970692038535,1150.0
4700.0,0.3259542223765687,-12.714550953793427,0.0,-0.06692025568336249,-14.404479443088196,-0.9977031499147415,0.011401373357512058,-14.254495976616663,0.47541837096214296,0.333502958714962,0.0,4277783.0,0.0,46,-26.993040584665273,0.01103515625,0.0004638671875,-26.999999999340474,675.0,0.18507533557713032,0.0,-9.837197370194541,-0.027998729888349772,0.0,0.3679002456367016,-12.826576879155056,-9.989353167590295,0.0,-2.1123547916744427,-12.696849036735586,9.705760884746566,0.0,-9.688814076222865,-0.9623316496610641,0.3722947873175144,-0.06502398867160082,-0.773094740765373,2700.0,3.1476733249577133,6.87816690286863,0.04723359057679773,1175.0
4800.0,0.3220313526070513,-7.070300528581049,0.0,-0.06823766976594925,-14.279314016035388,-0.9976434424519539,0.011682029278017581,-14.527927806864941,0.47957364544272424,0.3349670432507992,0.0,4368908.0,0.0,47,-26.997277878601377,0.011767578125,0.0006103515625,-27.0,675.0,0.1874128807336092,0.0,-9.906682833392114,-0.031310612056404355,0.0,0.37078356742858887,-6.3444853223844095,-10.062085424631075,0.0,-2.094156304716307,-6.610721767577982,9.781525946578569,0.0,-9.763008888753344,-0.9618233501911163,0.3755673684179783,-0.06519732140004635,-0.7732479865735513,2700.0,2.1421676261088147,4.969715743219951,0.04759489465504885,1200.0
4900.0,0.317764602510711,-11.69508982227246,0.0,-0.07036919705569744,-13.886393913804254,-0.9978222891688346,0.010841487813740969,-14.141398998969445,0.48344684541225436,0.33565801084041597,0.0,4460033.0,0.0,48,-26.99997190608488,0.013818359375,0.0006591796875,-26.999999999136648,675.0,0.1819654442369938,0.0,-9.832883833297966,-0.033617292810231444,0.0,0.3718285284936428,-11.960022727050397,-9.988266039909382,0.0,-2.15730961365407,-11.64432155698879,9.71169427150841,0.0,-9.697430516327032,-0.9630079001188279,0.37892288342118263,-0.06607367936521769,-0.765158702993358,2700.0,1.9059851205476008,7.812409219748747,0.04744951408356428,1225.0
5000.0,0.3047364741272043,-10.48108093029135,0.0,-0.06979942470788955,-14.05599186314201,-0.9979360416531563,0.010306858364492655,-13.034111860169634,0.48794259801506995,0.3390694119036198,0.0,4551158.0,0.0,49,-26.99995294857639,0.0118896484375,0.000439453125,-27.0,675.0,0.18140488490462303,0.0,-9.762007498097546,-0.03553303638473153,0.0,0.37485925406217574,-10.506468611403193,-9.911850249116648,0.0,-2.107932082886691,-10.473773885077794,9.644771593940494,0.0,-9.630048633100085,-0.9631297960877419,0.38246538788080214,-0.06620801668614149,-0.763201423350256,2700.0,1.0244261362904366,6.952805097815992,0.04756300467997789,1250.0
5100.0,0.4541083593414662,-11.040012280813713,0.0,-0.06998652443289757,-13.905456372260186,-0.9979632556438446,0.010179015249013901,-14.148962370928158,0.4944394566118717,0.3432891696691513,0.0,4642283.0,0.0,50,-24.999210237426944,0.013525390625,0.0005615234375,-26.962863049814562,675.0,0.1639147076755762,0.0,-9.570898192690466,-0.03426134902983904,0.0,0.3767537407577038,-11.085124257714037,-9.740139162933614,0.0,-2.1487863391703286,-10.901100709873937,9.54774275250752,0.0,-9.542472782185047,-0.9669330313801765,0.38235127851366996,-0.06654226966202259,-0.7608224470342975,2700.0,2.5907339568641112,6.949488402117611,0.03489836435765028,1275.0
5200.0,0.31901091013998983,-11.51229207361757,0.0,-0.07155238389968872,-14.121763696982622,-0.9981712609529495,0.009201465407386422,-14.310755227766602,0.49467468410730364,0.3475606955587864,0.0,4733408.0,0.0,51,-26.97916634430669,0.014453125,0.000927734375,-26.99999952537176,675.0,0.1584406614303589,0.0,-9.598321879980213,-0.03351330915465951,0.0,0.3780537135899067,-11.729250158946021,-9.752670693370556,0.0,-2.080301914822485,-11.504074476737058,9.543573410544155,0.0,-9.536202576048963,-0.9681233540177345,0.3825052224099636,-0.06716172713786364,-0.7479259627099963,2700.0,3.4314806213329647,6.9586516145463495,0.03583555882796645,1300.0
5300.0,0.28458370519211373,-9.942693814376474,0.0,-0.07089640945196152,-14.104604181985703,-0.9983180180191994,0.008511763857677579,-13.491956247516645,0.4959350794553757,0.3481406144797802,0.0,4824533.0,0.0,52,-26.99957726835019,0.012060546875,0.001123046875,-26.992348185392647,675.0,0.15645268708467483,0.0,-9.674257955932799,-0.033656613621860745,0.0,0.3794572904706001,-10.135242334639008,-9.823955138152376,0.0,-2.1252690333225472,-9.754048984816606,9.609442242287068,0.0,-9.601276908929492,-0.968555648624897,0.3832372136414051,-0.06769741084426642,-0.7417493418950472,2700.0,1.7347311040701119,6.0875862044898685,0.03615403454750776,1325.0
5400.0,0.28700415678886937,-3.3942369288434797,0.0,-0.07005545012652874,-13.325213267810195,-0.9982022687792778,0.009055792307481169,-2.684534658192258,0.49951362833380697,0.3514945313334465,0.0,4915643.0,0.0,53,-26.998203095442708,0.0116455078125,0.000927734375,-26.999746995018278,675.0,0.15922217555344104,0.0,-9.72329625680887,-0.03322623651474714,0.0,0.378279972076416,-1.6921390024682252,-9.875071865734766,0.01,-2.1069259276504453,-2.6879281094437157,9.633795023692048,0.0,-9.625225617588047,-0.9679534077644348,0.3844385229051113,-0.06899064686149359,-0.7446455628305557,2700.0,2.0125208936711623,1.7795606741243746,0.03738976884633303,1350.0
5500.0,0.29390105219239687,-7.897559814224314,0.0,-0.07046973202377557,-12.971181108745363,-0.9982576549053193,0.008795453794300556,-15.237871828300065,0.5028076618909836,0.35104009285569193,0.0,5005770.0,0.0,54,-26.11277659532331,0.0134521484375,0.00166015625,-26.97499603163151,675.0,0.1460684545338154,0.0,-9.686507241346488,-0.034488558676093815,0.015185185185185185,0.3791149914264679,-7.382419625815731,-9.83564830230922,0.0,-2.1019839958469673,-7.8131168234738535,9.593429322294897,0.0,-9.585264444356179,-0.9708136916160583,0.3880465097725391,-0.0699053704738617,-0.745662030265521,2700.0,1.3834058610960298,6.540393765953643,0.040896630939096214,1375.0
5600.0,0.28705254570910765,-14.542486082946889,0.0,-0.07245187032967806,-15.34995105208952,-0.9983543828129768,0.008340868109371513,-16.200047618864065,0.5078333973884582,0.35444953888654707,0.0,5096895.0,0.0,55,-26.842480410359304,0.0107421875,0.0009033203125,-26.999933274068898,675.0,0.14311198219656945,0.0,-9.653223035760934,-0.036804816126823424,0.0,0.3793318085372448,-16.159507445706407,-9.812121610378592,0.0,-2.1023420595622158,-14.559645386238618,9.559183212673709,0.0,-9.549496277763835,-0.9714565813541413,0.38987568989396093,-0.06979356873780489,-0.748945257980813,2700.0,2.6296738837321967,16.13408716755787,0.042417262122035025,1400.0
5700.0,0.2799003976075477,-12.834244687836456,0.0,-0.0727303646504879,-14.779234475988881,-0.9984245404601098,0.008011114271357655,-13.953772610694648,0.5114764094352722,0.35827297419309617,0.0,5188020.0,0.0,56,-26.999977651128628,0.0100830078125,0.00126953125,-26.999999999999805,675.0,0.13248369935899973,0.0,-9.690655325427503,-0.03770257914438844,0.0,0.3795791782438755,-13.913415686502066,-9.848391136724235,0.0,-2.104986875675968,-12.806630371972403,9.591478581748012,0.0,-9.58178589418795,-0.9737676873803138,0.3912084370851517,-0.06938112266361714,-0.7535213569273764,2700.0,1.099838058566823,13.78501305543669,0.042448180448263886,1425.0
5800.0,0.28344595376365717,-12.831413958785015,0.0,-0.07359015718102455,-15.001921643821365,-0.9983956068754196,0.008147175214253366,-13.980870099535581,0.5145368263125419,0.36186864525079726,0.0,5279145.0,0.0,57,-26.999999996360803,0.010498046875,0.0013427734375,-27.0,675.0,0.13012835048139096,0.0,-9.718977947935498,-0.03781278375536203,0.0,0.38012775778770447,-13.91355350265473,-9.868186203235343,0.0,-2.121148724066006,-12.786040538224345,9.62473328414973,0.0,-9.613072613780137,-0.974279873073101,0.39363662600517274,-0.07072681710124015,-0.7525425255458685,2700.0,0.9994171830139177,13.906510292419247,0.04271597377955914,1450.0
5900.0,0.25762511639985386,-12.811040987477913,0.0,-0.07392088454216719,-13.968352666852228,-0.9985461860895157,0.007439498964231461,-13.846419334319904,0.5180701285600662,0.36532912850379945,0.0,5370270.0,0.0,58,-27.0,0.0106689453125,0.0013916015625,-27.0,675.0,0.12015216797590256,0.0,-9.66870237685373,-0.03633623588830233,0.0,0.38012394309043884,-13.954324928336376,-9.825107311757293,0.0,-2.1041547705091945,-12.764069831468847,9.576219873761692,0.0,-9.565168009551126,-0.9764491826295852,0.39781835600733756,-0.07072360813617706,-0.7457452586022555,2700.0,0.9707300393872856,13.95122450784304,0.044831930007785556,1475.0
6000.0,0.23183747875351784,-12.810368225386217,0.0,-0.07507933396846056,-13.955114860747504,-0.9986663401126862,0.006874786701519042,-14.184818143890181,0.5195786520838738,0.3690018758177757,0.0,5461395.0,0.0,59,-27.0,0.012548828125,0.0021240234375,-27.0,675.0,0.11542147435247899,0.0,-9.729690692884942,-0.03619136409834027,0.0,0.3803877666592598,-13.998099585916265,-9.887466528097647,0.0,-2.1205870839723504,-12.7469008351997,9.633516782378285,0.0,-9.624012069484106,-0.9774778753519058,0.3988983377814293,-0.07065890096127987,-0.741764812204201,2700.0,0.7860181458596479,14.003592202830905,0.04435825124382973,1500.0
6100.0,0.21117895138089054,-12.763075646805019,0.0,-0.07588843014091254,-14.068891516143648,-0.9987122297286988,0.006659170822240412,-14.01123562685808,0.5211985021829605,0.3721541233360767,0.0,5552520.0,0.0,60,-27.0,0.0112060546875,0.0027099609375,-27.0,675.0,0.1141341557726264,0.0,-9.60717372045507,-0.0356895400211215,0.0,0.3806990087032318,-13.982697665984873,-9.76009029393487,0.0,-2.1223627902232693,-12.694752981993622,9.51179578181445,0.0,-9.506179251037267,-0.9777578040957451,0.3999457977712154,-0.07018683850765228,-0.7355865801677283,2700.0,0.9422655528118018,13.9807674948175,0.043960573803633454,1525.0
6200.0,0.19786614587564588,-12.679778869461526,0.0,-0.07683139145374299,-14.03418386715196,-0.9987349286675453,0.006552451394964009,-14.096903238720929,0.5223961412906647,0.3754307508468628,0.0,5643645.0,0.0,61,-27.0,0.0115478515625,0.002197265625,-27.0,675.0,0.1215952519327402,0.0,-9.674406079760569,-0.036169597506523134,0.0,0.3806823492050171,-13.964367845372323,-9.827955438172477,0.0,-2.106707832541724,-12.608977340083129,9.581126853953146,0.0,-9.57349914416021,-0.9761353924870491,0.4007508583366871,-0.07021131366491318,-0.7371726414799923,2700.0,0.9946298323498943,13.96509932700729,0.042876276560127734,1550.0
6300.0,0.1919355181380314,-12.733855500066005,0.0,-0.07815533448010684,-14.019641711922644,-0.998832818865776,0.0060924265184439715,-13.961064129942955,0.5228942155838012,0.37986068055033684,0.0,5734770.0,0.0,62,-27.0,0.01044921875,0.002001953125,-27.0,675.0,0.11421540845185518,0.0,-9.730303151656637,-0.03681382322683931,0.0,0.3806823492050171,-14.000384570204535,-9.88491856527492,0.0,-2.0886869628979183,-12.67506511572203,9.641534541659468,0.0,-9.633964462231429,-0.9777401342988015,0.4014605112373829,-0.07021131366491318,-0.7357933620965923,2700.0,0.8927765410053409,13.999758970697496,0.04234351385384798,1575.0
6400.0,0.19004864490488088,-12.679994621755913,0.0,-0.07936029881238937,-13.991648546253165,-0.9988362848758697,0.006076108885463327,-14.042373632660148,0.5224754571914673,0.3853213094174862,0.0,5825895.0,0.0,63,-27.0,0.010791015625,0.002099609375,-27.0,675.0,0.11276293192058802,0.0,-9.619252139958082,-0.03789615174755454,0.0,0.3806823492050171,-14.000672661556479,-9.772611543481862,0.0,-2.1057150013788486,-12.621713663317088,9.529149099623277,0.0,-9.522901589139908,-0.9780559837818146,0.40243793874979017,-0.07021131366491318,-0.7326700982885086,2700.0,0.8079458920977147,14.000601722384957,0.041640504729002714,1600.0
6500.0,0.181812172439332,-12.667017166559328,0.0,-0.0806068131700158,-14.088752628772248,-0.9988577783107757,0.005975146032869816,-14.000937562813792,0.5207196548581123,0.3910421222448349,0.0,5917020.0,0.0,64,-27.0,0.0087646484375,0.002294921875,-27.0,675.0,0.11145062744617462,0.0,-9.566112596042458,-0.03749919719994068,0.0,0.3806823492050171,-13.973157391061275,-9.718075057550427,0.0,-2.1105818021896994,-12.642428138347086,9.47067432014837,0.0,-9.46371896244193,-0.9783413335680962,0.40305581167340276,-0.07021131366491318,-0.7313502732591587,2700.0,0.6396489864255575,13.971734058475011,0.0411404138430953,1625.0
6600.0,0.19551495611150496,-12.74299072069697,0.0,-0.08090796787291765,-14.05145444734957,-0.998821584880352,0.006145254103466868,-14.5750347639223,0.5214155569672585,0.39373346120119096,0.0,6008145.0,0.0,65,-27.0,0.00966796875,0.0020263671875,-27.0,675.0,0.11516675688326358,0.0,-9.57316628992896,-0.038800699170678854,0.0,0.38069450855255127,-14.100852600737355,-9.722653222909527,0.0,-2.0875215159292564,-12.74508553588101,9.472394134192383,0.0,-9.46387730561544,-0.9775332763791085,0.40438142567873003,-0.07019215822219849,-0.7341519995745329,2700.0,0.7320309416704956,14.066390368927335,0.04037524908781052,1650.0
6700.0,0.21003682444542177,-13.37868694271495,0.0,-0.08191187214106321,-14.182809515817032,-0.99865602850914,0.0069232900394126775,-13.075864719680926,0.52256388515234,0.3967409856617451,0.0,6099270.0,0.0,66,-27.0,0.0100830078125,0.0017333984375,-27.0,675.0,0.12244777660816908,0.0,-9.53973481880519,-0.040005773026496175,0.0,0.3807031810283661,-14.785932558880821,-9.686970095887947,0.0,-2.0837757852787036,-13.418105992243298,9.435749459792312,0.0,-9.425794052342784,-0.9759500026702881,0.40530084893107415,-0.07018385082483292,-0.7398675621960138,2700.0,1.6393583211038423,14.762522412357772,0.03984686303883791,1675.0
6800.0,0.2246124049569196,-12.794735322390348,0.0,-0.0838039018213749,-13.674619671339622,-0.9985329374670983,0.007501790428068489,-14.234331826044913,0.5244041472673416,0.3990617737174034,0.0,6190395.0,0.0,67,-27.0,0.0098876953125,0.00224609375,-27.0,675.0,0.14227229356765747,0.0,-9.653940964685896,-0.039398105815052986,0.0,0.3807080388069153,-14.010992198844558,-9.806149563845945,0.0,-2.097452885904204,-12.801399822564354,9.540699915889451,0.0,-9.53264857424799,-0.9716391742229462,0.4064112715423107,-0.07017771154642105,-0.7466297442995711,2700.0,0.7381378740384451,13.994375346061366,0.039691660180687906,1700.0
6900.0,0.23430434200579225,-12.925355892951774,0.0,-0.08515343666076661,-14.018273511766257,-0.9984919711947441,0.007694297446869313,-14.250504763452067,0.5263149380683899,0.4004999965429306,0.0,6281520.0,0.0,68,-27.0,0.0092041015625,0.0019287109375,-27.0,675.0,0.15006062313914298,0.0,-9.723971013325563,-0.039984884206205606,0.0,0.3809160590171814,-14.117881989602102,-9.88200173131482,0.0,-2.136022603278252,-12.915514270162891,9.61231523727433,0.0,-9.602384797036358,-0.969945602118969,0.4073344022035599,-0.06989063322544098,-0.7533475442229246,2700.0,0.6735526248394306,13.971852233743414,0.03937065955251455,1725.0
7000.0,0.21885860448421432,-12.92122969788264,0.0,-0.08634645529091359,-14.12169548044559,-0.9985191822052002,0.00756641001207754,-13.750193685127867,0.5283511742949486,0.40371841117739676,0.0,6372645.0,0.0,69,-27.0,0.0096435546875,0.0021728515625,-27.0,675.0,0.1555331364274025,0.0,-9.69402204442965,-0.03930626148357987,0.0,0.3809811472892761,-14.174341252543849,-9.844993245538792,0.0,-2.1154202811019784,-12.924518352159144,9.57899714490008,0.0,-9.571248299191337,-0.9687555953860283,0.40832222923636435,-0.0698043629527092,-0.7511272640316747,2700.0,0.5776971975285687,13.99148706275609,0.03909494671970606,1750.0
7100.0,0.22051241703182273,-12.883640501853415,0.0,-0.08724500499665737,-13.93280723177796,-0.9985504299402237,0.0074195844936184585,-13.692141680421898,0.5295573502779007,0.40687004551291467,0.0,6463770.0,0.0,70,-27.0,0.0089599609375,0.002099609375,-27.0,675.0,0.15918766036629678,0.0,-9.548442589393252,-0.03953285235911608,0.0,0.3809811472892761,-14.100821429995653,-9.696839569735184,0.0,-2.093074701025762,-12.874249798696436,9.434668237419887,0.0,-9.426594284487106,-0.9679609388113022,0.4092296354472637,-0.06980433315038681,-0.7477981585507223,2700.0,0.5198581848951189,13.919895191152511,0.03886161064729095,1775.0
7200.0,0.21065629207141062,-12.946830583314247,0.0,-0.08734750412404538,-13.910753160918073,-0.9985566481947898,0.007390337542165071,-13.974653025204558,0.5304992154240609,0.40939109176397326,0.0,6554895.0,0.0,71,-27.0,0.00859375,0.0019287109375,-27.0,675.0,0.1565841492265463,0.0,-9.650420013889649,-0.039416953641921285,0.0,0.3809811472892761,-14.139474952005866,-9.805758285620206,0.0,-2.143528665591293,-12.947534908369553,9.538788674063415,0.0,-9.52858917596539,-0.9685270667076111,0.4099154002964497,-0.06980433315038681,-0.7480332035287575,2700.0,0.5828563483622042,13.99735399438843,0.03768286434933543,1800.0
7300.0,0.21670191786085366,-12.98035406118467,0.0,-0.08690846543759108,-14.019083601881759,-0.9985743001103401,0.007307351473718882,-13.78603207424649,0.5325144991278649,0.411055625975132,0.0,6646020.0,0.0,72,-27.0,0.0103515625,0.0024658203125,-27.0,675.0,0.15803896002471446,0.0,-9.558729601077598,-0.03757505863904953,0.0,0.3809811472892761,-14.135220524301198,-9.70869290350372,0.0,-2.0534046704990034,-12.984246091055109,9.443503980209897,0.0,-9.436223184286012,-0.9682107031345367,0.4110292121767998,-0.06980433315038681,-0.747211954757222,2700.0,0.697212669322833,14.032983183834924,0.03709384063258767,1825.0
7400.0,0.21666192067077192,-12.961383742871174,0.0,-0.08821625988930464,-13.96802668731472,-0.9985389515757561,0.007473474985454231,-14.098946284980979,0.53518947660923,0.41414581909775733,0.0,6737145.0,0.0,73,-27.0,0.009521484375,0.002001953125,-27.0,675.0,0.15571178868412971,0.0,-9.670365469082501,-0.03768721958622336,0.0,0.3809813857078552,-14.048964006823109,-9.826610896282606,0.0,-2.0734819124852946,-12.958928797397155,9.557237890989109,0.0,-9.54692010884951,-0.9687167599797248,0.4121645264327526,-0.06980396062135696,-0.7500263118250586,2700.0,0.6095625477015473,13.984367462287299,0.03650913015007973,1850.0
7500.0,0.2398757483665896,-13.017756456721354,0.0,-0.08935474567115306,-14.03433019814268,-0.9982715144753456,0.008730284357443451,-13.842729946972726,0.5376296952366829,0.41817198395729066,0.0,6828270.0,0.0,74,-26.999999999999986,0.009130859375,0.0021728515625,-27.0,675.0,0.17780631892383097,0.0,-9.854166973381933,-0.03739178199321032,0.0,0.3810422420501709,-14.045497423920427,-10.007800005254575,0.0,-2.0796001924849405,-13.018762962906559,9.729322942295738,0.0,-9.72038707182529,-0.9639123052358627,0.4136550985276699,-0.0697656199336052,-0.7597192566383455,2700.0,0.5310326615148908,13.984272984922836,0.035569214075803754,1875.0
7600.0,0.26053966776902476,-13.027888736562517,0.0,-0.09053940828889609,-13.90268845580121,-0.9981823861598969,0.00914914885070175,-14.06243723464012,0.5397275373339653,0.4214965723454952,0.0,6919395.0,0.0,75,-26.99999999701156,0.0081787109375,0.0019775390625,-26.999999999999922,675.0,0.19041621014475824,0.0,-9.917889088609275,-0.03818726595491171,0.0,0.3810422420501709,-14.015958862896005,-10.071910606877612,0.0,-2.101373714381771,-13.02793914102763,9.7867021845959,0.0,-9.775729677377964,-0.9611702755093574,0.4162545226514339,-0.0697656199336052,-0.7670233256678329,2700.0,0.5098639271618668,13.952090469547448,0.0351899023167789,1900.0
7700.0,0.282883280423635,-13.070102419254425,0.0,-0.09139082096517086,-13.966567629703768,-0.9979268625378609,0.010350049403496087,-14.388575050317382,0.5416897267103196,0.4247930683195591,0.0,7010520.0,0.0,76,-26.99999911978373,0.0094970703125,0.001611328125,-27.0,675.0,0.20199447497725487,0.0,-9.870441676139793,-0.037843940686434506,0.0,0.38103628158569336,-14.103662203490995,-10.024211817133033,0.0,-2.0665577392894194,-13.071800495648239,9.735185282775655,0.0,-9.723223002926858,-0.9586525812745095,0.4186425760388374,-0.0697726458311081,-0.7694590352279193,2700.0,0.6179311083301791,14.010564559072293,0.03552984166890383,1925.0
7800.0,0.2675398002173889,-13.080490979001166,0.0,-0.0920514116063714,-14.175020156830918,-0.9977344274520874,0.011254404066130519,-13.96986310436421,0.5433594733476639,0.42771405577659605,0.0,7101645.0,0.0,77,-27.0,0.0078125,0.0015380859375,-27.0,675.0,0.22121820785105228,0.0,-9.833599833117367,-0.03838448682799935,0.0,0.381172776222229,-14.090641991651037,-9.98671415748591,0.0,-2.0937767209819866,-13.083066084721187,9.694004906474085,0.0,-9.677775270427007,-0.9544724017381668,0.4204790160059929,-0.06958930194377899,-0.7725854749623977,2700.0,0.3872322068148672,13.991835506942829,0.035614396911114454,1950.0
7900.0,0.29699108868951896,-13.040724577997509,0.0,-0.09297164510935545,-14.028130296814824,-0.9975334241986274,0.012199044111184776,-13.890474644719331,0.545964066684246,0.4302490472793579,0.0,7192770.0,0.0,78,-27.0,0.0102294921875,0.0015869140625,-27.0,675.0,0.2360281113535166,0.0,-9.894002887139617,-0.03983693448826671,0.0,0.381172776222229,-14.059796048183983,-10.046401165929248,0.0,-2.0855991328637176,-13.046208137380892,9.742611984500135,0.0,-9.73145322311808,-0.9512519747018814,0.4224920153617859,-0.06958930194377899,-0.7811885857045127,2700.0,0.5983329932667827,13.932866489167827,0.03491658577695489,1975.0
8000.0,0.29509630496531974,-13.076666006266919,0.0,-0.0937143413349986,-13.968934466473378,-0.997582359611988,0.011968999868258834,-14.133497153542882,0.5489734813570977,0.43300537914037707,0.0,7283895.0,0.0,79,-26.99999999999089,0.0086669921875,0.0013916015625,-27.0,675.0,0.22401295602321625,0.0,-9.993327436561577,-0.04030104205012321,0.0,0.38136613368988037,-14.095897913387159,-10.148682585525833,0.0,-2.1053380961464425,-13.075036505580636,9.855384077314152,0.0,-9.840982295291017,-0.9538646712899208,0.42387695163488387,-0.06935884058475494,-0.7759152090809949,2700.0,0.4888799201477575,13.971261209627485,0.03431212930008769,2000.0
8100.0,0.26680092218440027,-13.155235056824859,0.0,-0.09405602179467679,-14.11685898027714,-0.997689999639988,0.01146318402606994,-13.949740942336701,0.5521017372608185,0.435692723095417,0.0,7375020.0,0.0,80,-27.0,0.00771484375,0.00185546875,-27.0,675.0,0.21804376132786274,0.0,-9.762649352930222,-0.04007449448108673,0.0,0.38136613368988037,-14.225820240925978,-9.915400090101658,0.0,-2.126128699634137,-13.159444228620156,9.619758532494663,0.0,-9.605889754668794,-0.95516267567873,0.42495947927236555,-0.06935884058475494,-0.7711472467461136,2700.0,0.38032540613570776,13.984724523310044,0.03346542017534375,2025.0
8200.0,0.2532889981444024,-13.164185674084166,0.0,-0.09445445723831654,-14.016983158037117,-0.997833751142025,0.010787615203298628,-13.731975498825742,0.5546440824866294,0.43776271492242813,0.0,7466086.0,0.0,81,-27.0,0.0080322265625,0.0012939453125,-27.0,675.0,0.2121063396334648,0.0,-9.876438917298804,-0.040094407927244904,0.0,0.38136613368988037,-14.104738977402935,-10.02665977284144,0.01,-2.127250319189625,-13.15903519344786,9.72658077144419,0.0,-9.71696099947668,-0.9564537569880486,0.4263997867703438,-0.06935884058475494,-0.771182501079602,2698.0,0.6592723066080355,13.957261505027066,0.03251831438392401,2050.0
8300.0,0.24521428775525117,-13.115328877993102,0.0,-0.09487840551882983,-13.973816204454499,-0.9981023102998734,0.009525526384823024,-13.857953560164757,0.5569400653243065,0.4408155709505081,0.0,7557211.0,0.0,82,-27.0,0.007568359375,0.00146484375,-27.0,675.0,0.20024614818394185,0.0,-9.69721077837187,-0.04006251767277717,0.0,0.38136613368988037,-14.040513250055682,-9.848455804499336,0.0,-2.0995725329747073,-13.116292969922487,9.557759362630957,0.0,-9.543573186654452,-0.9590327709913253,0.4277931697666645,-0.06935884058475494,-0.7653475396189606,2700.0,0.336587760453433,13.988320707423588,0.03165763225406408,2075.0
8400.0,0.24419673324823502,-13.103554068850542,0.0,-0.09535066988319159,-13.97876757103745,-0.9982991650700569,0.008600400516297669,-14.021433465821717,0.5592948108911514,0.44369944632053376,0.0,7648336.0,0.0,83,-27.0,0.007568359375,0.0010986328125,-27.0,675.0,0.1872306026518345,0.0,-9.896688113955815,-0.040047965571284296,0.0,0.38136613368988037,-14.057980208487123,-10.052829650799804,0.0,-2.0857044441516335,-13.09752819363971,9.760667268885674,0.0,-9.749734557441077,-0.961862999200821,0.4282357953488827,-0.06935884058475494,-0.7620035833104339,2700.0,0.38073201000977985,13.977308848127667,0.03173576220870018,2100.0
8500.0,0.23807527056578923,-13.002435241645827,0.0,-0.09605657234787941,-14.026838778241252,-0.9983886823058128,0.008179725590161979,-13.406784118718438,0.5624289438128471,0.4468287698924541,0.0,7739461.0,0.0,84,-27.0,0.00791015625,0.00205078125,-27.0,675.0,0.1904195725917816,0.0,-9.724000508676713,-0.03992745950818062,0.0,0.3815130293369293,-13.965715468242706,-9.877076976936468,0.0,-2.114032038895675,-12.98682200533934,9.592793686786132,0.0,-9.579962296081446,-0.9611695453524589,0.4289836294949055,-0.06928454339504242,-0.7581420900336525,2700.0,0.9543615112524737,13.922648418076795,0.030525395972654225,2125.0
8600.0,0.23929352039334031,-12.994241671731023,0.0,-0.09711643252521754,-13.784264823087495,-0.9983546003699303,0.008339805842842907,-13.818730012431388,0.5654455691576004,0.4501497268676758,0.0,7830586.0,0.0,85,-27.0,0.007568359375,0.0013916015625,-27.0,675.0,0.19747362956404685,0.0,-9.774055513005077,-0.03985539088025689,0.0,0.38177475333213806,-13.992539045668389,-9.925437545320694,0.0,-2.0896444830788825,-12.98795796616464,9.647222738203814,0.0,-9.633431318610196,-0.9596356466412544,0.4300172969698906,-0.0694231241941452,-0.7588330665108515,2700.0,0.6520568196387189,13.98246564872223,0.030463526817038657,2150.0
8700.0,0.23360393062337065,-13.016128790846688,0.0,-0.0970191102474928,-13.962748519181659,-0.9983610093593598,0.008309748442843556,-14.174384038531452,0.5681688517332077,0.45423632860183716,0.0,7921451.0,0.0,86,-27.0,0.008447265625,0.0015380859375,-27.0,675.0,0.20170130021870136,0.0,-9.71756986828612,-0.04021617379039526,0.0,0.38177475333213806,-14.02802179039892,-9.87062758894526,0.01,-2.064465590546024,-13.015535751684894,9.587539809546822,0.0,-9.576061359904653,-0.9587163284420968,0.43123736679553987,-0.0694231241941452,-0.7579573578295822,2691.0,0.41547083874020974,13.995544142020725,0.029799143644049765,2175.0
8800.0,0.26148886693540074,-12.99843707932239,0.0,-0.09762650579214097,-14.087092070155478,-0.9980499133467674,0.009771776269190013,-14.13054569659374,0.570770862698555,0.45692554861307144,0.0,8012397.0,0.0,87,-27.0,0.007275390625,0.0013671875,-27.0,675.0,0.22006147280335425,0.0,-9.810312508658763,-0.039691900555044415,0.0,0.381774365901947,-14.075315879451011,-9.96346563704471,0.01,-2.127447408734588,-12.996817583717586,9.672894399799205,0.0,-9.66012280392319,-0.9547239229083061,0.4322694294154644,-0.06942346692085266,-0.7650161645949993,2694.0,0.5375063945196884,13.979695939858066,0.02923900745809078,2200.0
8900.0,0.24934391882209606,-12.960804077661106,0.0,-0.09774200823158026,-14.08777794282726,-0.9980984807014466,0.009543494204990566,-13.9215685035043,0.5725140824913979,0.460124858468771,0.0,8103522.0,0.0,88,-27.0,0.0076904296875,0.001904296875,-27.0,675.0,0.2166627675294876,0.0,-9.820654078516597,-0.03902672231197357,0.0,0.38177379965782166,-14.044158078559423,-9.974043131462384,0.0,-2.1012422262683685,-12.960339930418268,9.680084760588644,0.0,-9.67119381719468,-0.9554629638791085,0.43343936577439307,-0.06942403316497803,-0.7660780499012617,2700.0,0.4732015690966131,13.965113407300976,0.028507743822410704,2225.0
9000.0,0.26367711113586884,-13.157189519188126,0.0,-0.09850252959877252,-14.020943272025615,-0.9980700388550758,0.009677186445333063,-13.911777048690322,0.57463488727808,0.46544093564152716,0.0,8194647.0,0.0,89,-27.0,0.0077880859375,0.0015625,-27.0,675.0,0.20770002007484437,0.0,-9.881677447790633,-0.038660017494112256,0.0,0.3817675709724426,-14.211513804384335,-10.030846827876156,0.0,-2.1256786150326663,-13.148967176393512,9.733685150162824,0.0,-9.724641700752027,-0.9574119195342063,0.4346025101840496,-0.06943203508853912,-0.7711785721185151,2700.0,0.6614624192008153,14.02214786280596,0.02732448894530535,2250.0
9100.0,0.24995977145500667,-14.340615251350533,0.0,-0.09928497038781643,-14.04778104484269,-0.9981909841299057,0.009108784329146146,-13.78444277056111,0.5758407667279244,0.4753171421587467,0.0,8285772.0,0.0,90,-27.0,0.0066162109375,0.0016357421875,-26.999999999999993,675.0,0.194024708122015,0.0,-9.901647910856601,-0.03927104854956269,0.0,0.3817675709724426,-15.801143121165595,-10.054710329078256,0.0,-2.09552483755906,-14.313318590937394,9.758698869040856,0.0,-9.749411519096084,-0.9603856071829796,0.4353061057627201,-0.06943203508853912,-0.7655505690447171,2700.0,1.5012286606445644,14.056750517436504,0.027114485390484333,2275.0
9200.0,0.2205423827863683,-13.92033812950576,0.0,-0.100497424043715,-14.028946397267587,-0.9982142433524132,0.008999503694940358,-13.884506638910382,0.5775029972195626,0.4837100826203823,0.0,8376897.0,0.0,91,-26.99999999999993,0.0065185546875,0.00185546875,-27.0,675.0,0.1908437941223383,0.0,-9.848328082729193,-0.03840315164998174,0.0,0.3817675709724426,-15.283244029812977,-10.00423884899468,0.0,-2.100167557172972,-13.93259367768788,9.69834213041545,0.0,-9.68863625306271,-0.9610773086547851,0.4363092087209225,-0.06943203508853912,-0.765110535830172,2700.0,1.4717291032565953,14.122404795047558,0.02597678145393729,2300.0
9300.0,0.2228947281598268,-13.314369240976564,0.0,-0.10089701134711504,-14.009899228810747,-0.9983713731169701,0.00826101521961391,-13.879010363453858,0.5797057583928108,0.48856273368000985,0.0,8468022.0,0.0,92,-26.9999999999992,0.0060791015625,0.00224609375,-27.0,675.0,0.18180364109575747,0.0,-9.806555396275431,-0.04004305610433221,0.0,0.3817675709724426,-14.432727506820331,-9.95849141121663,0.0,-2.081484919181821,-13.30377076418423,9.664961562538199,0.0,-9.653833482026219,-0.9630430743098259,0.4370930127799511,-0.06943203508853912,-0.7613316831178963,2700.0,1.1044859754464005,14.045555499626516,0.02590542649850249,2325.0
9400.0,0.22517714247034726,-13.227784209117061,0.0,-0.10098973028361798,-14.055985002273971,-0.9983184099197387,0.00850996260996908,-13.913989409118253,0.5818885579705239,0.49255389869213106,0.0,8559147.0,0.0,93,-26.99999999999996,0.007421875,0.00205078125,-27.0,675.0,0.18538639545440674,0.0,-9.84136035575737,-0.0398723628371954,0.0,0.3817675709724426,-14.325075047152652,-9.994973428935182,0.0,-2.093558762667817,-13.215687800008956,9.70651509937639,0.0,-9.698530677814329,-0.962263998389244,0.43748695179820063,-0.06943203508853912,-0.7566787325769837,2700.0,0.744026970548822,13.996533617232974,0.0254676581826061,2350.0
9500.0,0.24543103729240973,-13.169615978621147,0.0,-0.10170936696231365,-13.988555824334625,-0.9981850996613503,0.009136424167081714,-14.03063768522311,0.5845748394727707,0.49635592475533485,0.0,8650272.0,0.0,94,-27.0,0.0063232421875,0.001611328125,-27.0,675.0,0.1906975656747818,0.0,-9.76962229545397,-0.0408350694924593,0.0,0.3817675709724426,-14.356647366112332,-9.923508835472855,0.0,-2.0888309165769896,-13.169308040958333,9.64005225888047,0.0,-9.632178826538254,-0.9611091002821922,0.43826833963394163,-0.06943203508853912,-0.7555744839548424,2700.0,0.6867570994213091,13.996517929797474,0.02496921056881547,2375.0
9600.0,0.2506535253937626,-13.024365291340041,0.0,-0.10252771433442831,-14.011849528664072,-0.9979830533266068,0.010085993190295994,-14.26078501036341,0.5873429208993912,0.4990467756986618,0.0,8741397.0,0.0,95,-27.0,0.0072998046875,0.0019287109375,-27.0,675.0,0.217281549051404,0.0,-9.753859857740158,-0.0401714650914073,0.0,0.3817675709724426,-14.188778151357573,-9.906724290131622,0.0,-2.0866974106545966,-13.014199629946159,9.619772277259148,0.0,-9.60861512018984,-0.9553284183144569,0.43951293975114825,-0.06943203508853912,-0.7601121287982096,2700.0,0.730907858804628,14.013710484872956,0.024114236747846008,2400.0
9700.0,0.24421877590816168,-12.88357121420733,0.0,-0.10340792313218117,-14.097949526065939,-0.9979202374815941,0.010381132503971458,-13.847998646500367,0.5902176231145859,0.5022390529513359,0.0,8832522.0,0.0,96,-26.99999999999999,0.0076904296875,0.002001953125,-27.0,675.0,0.22379252985119819,0.0,-9.86007199281651,-0.04064551573246718,0.0,0.3817675709724426,-14.072095312068978,-10.016316671894195,0.0,-2.1170686059886066,-12.876115582333593,9.726335129751098,0.0,-9.710980243970164,-0.9539126038551331,0.44137553572654725,-0.06943203508853912,-0.7627784820462693,2700.0,0.6238531493449169,13.994593720238584,0.023503744322806597,2425.0
9800.0,0.23901167347142965,-12.958518997119535,0.0,-0.10453017950057983,-13.951879649628488,-0.9979833483695983,0.010084586939774454,-14.01565486996364,0.5931243404746056,0.5055528968572617,0.0,8923647.0,0.0,97,-26.99999999999949,0.00625,0.001953125,-27.0,675.0,0.22645411901175977,0.0,-9.738429849116887,-0.0420368236489594,0.0,0.3817675709724426,-14.169004606260676,-9.89199438296345,0.0,-2.142560474957281,-12.958097054277506,9.60254325826053,0.0,-9.587606656302878,-0.9533338487148285,0.44284839555621147,-0.06943203508853912,-0.7608813213868416,2700.0,0.6383578359832366,14.047586679988225,0.023323025926947592,2450.0
9900.0,0.24754067812579672,-12.93919864897975,0.0,-0.1049422511830926,-14.026579173342098,-0.9980558156967163,0.009744039876386524,-13.966876576916151,0.5960141986608505,0.5083206027746201,0.0,9014772.0,0.0,98,-26.99999999998395,0.0072509765625,0.001513671875,-27.0,675.0,0.21988031454384327,0.0,-9.885815233273698,-0.041965311765670775,0.0,0.3817675709724426,-14.055849291146538,-10.039132920583794,0.0,-2.1195691569191695,-12.94008892549461,9.754272472834359,0.0,-9.742694721117683,-0.9547633215785026,0.4448687508702278,-0.06943203508853912,-0.7607222407285008,2700.0,0.4969269320099225,13.984559439740291,0.02316329935565591,2475.0
10000.0,0.24386286104033789,-13.009037035345449,0.0,-0.10571208130568266,-14.053286579055337,-0.9981161937117576,0.009460245328955352,-14.00484279691629,0.5992773398756981,0.510570864379406,0.0,9105897.0,0.0,99,-26.999999999999993,0.007861328125,0.0018310546875,-27.0,675.0,0.2312700480222702,0.0,-9.775245039726816,-0.042390704061836,0.0,0.3817278742790222,-14.076806764368694,-9.92991562805253,0.0,-2.1383991673872513,-13.009607576767465,9.646554751960918,0.0,-9.632859480368385,-0.95228660851717,0.44665693789720534,-0.06944530457258224,-0.7590190358176188,2700.0,0.6700685448902836,14.03193071540025,0.022813602024689315,2500.0
