ReemS3/reg_curious_hac/data/d4a6886/CausalDependenciesMujocoEnv-o1-v0/alg:chac|eta:0.5|fw:1|fwhidsiz:256,256,256|nlev:2|reg:True|rolbatsiz:1|timsca:27,27|100/progress.csv
train_1/reward,train/episodes,train_1/n_subgoals,train_1/reward_-1.0_frac,train_1/target_q,train_0/q_loss,train_1/q_grads,test_1/avg_q,train_1/mu_grads,train_0/mu_grads_std,train_0/reward_-0.0_frac,train_0/fw_loss,train_0/target_q,train_1/next_q,test_1/subgoal_succ_rate,train_1/fw_bonus,epoch,test_0/avg_q,train/success_rate,train_1/mu_grads_std,train_1/q_grads_std,train_0/fw_bonus,train_0/reward,test_1/n_subgoals,train_1/mu_loss,train_0/current_q,train_1/current_q,train_0/reward_-1.0_frac,train_1/avg_q,train_0/q_grads,train_0/mu_grads,train_1/reward_-0.0_frac,train_1/reward_-27.0_frac,train_1/subgoal_succ_rate,train_0/next_q,train_1/fw_loss,train_1/q_loss,test/episodes,policy/steps,test/success_rate,train_0/mu_loss,train_0/avg_q,train_0/q_grads_std
-1.991788219990849,100.0,2699.0,0.0038818359375,-8.827437244424864,0.4834160771094701,0.012993130646646023,-14.148024872969634,0.00022074803164287004,0.1562439315021038,0.0,0.00020697544168797323,-3.2261960125700186,-8.66830257577541,0.0,-0.9959543660283089,0,-4.048687529690564,0.01,0.12240740526467561,0.209058029204607,-0.9992624819278717,-0.731589250498655,675.0,9.890992893164285,-3.2283068368875227,-8.84034025820126,0.0005615234375,-7.6678924690639025,0.02689939900301397,-0.0023682318336796016,0.0,0.0,0.11374583178955168,-3.036660033897223,0.0015331422357121483,4.692619526994887,25.0,84654.0,0.0,3.03786518454766,-1.277265458227941,0.15599226653575898
-1.8943761030772293,200.0,2649.0,0.0046142578125,-8.882465707551606,0.7020179470326385,0.010535829234868288,-11.50787257379206,0.0017845725786173716,0.18967484198510648,0.0,0.0001985251914447872,-2.205022113184394,-8.590485855490464,0.025974025974025976,-0.9959055230021476,1,-3.514193487490594,0.03,0.13917722404003144,0.23335427269339562,-0.999293477833271,-0.7281623660863261,693.0,9.804888829185327,-2.044243411916861,-8.877485966607912,0.00068359375,-12.738671003854348,0.024407033016905187,-0.005219327379018068,0.0,0.0,0.23103057757644394,-1.9375042795694433,0.0015447615645825864,5.100189327773327,50.0,161337.0,0.0,1.9443254213121643,-2.979394065362993,0.16639894619584084
-1.9416493957003695,300.0,2651.0,0.0040283203125,-2.3139384281117414,0.2920858719647338,0.006899028713814914,-14.924703227723642,0.008485960471443833,0.21070016138255596,0.0,0.0001589403716934612,-4.788144026102751,-0.5515880463093454,0.0,-0.9971171602606773,2,-27.0,0.02,0.14291046895086765,0.25979275405406954,-0.9994386956095695,-0.719934187104809,675.0,1.5423113490137088,-4.79738930612043,-2.289468153194788,0.0013427734375,-12.196328720232627,0.025576693285256625,-0.008177477912977339,0.0,0.0,0.012070916635231988,-4.604617846446142,0.001256520746392198,3.5990958399765973,75.0,250318.0,0.0,4.616191591686736,-19.702242982924925,0.18351562805473803
-1.9373606678069337,400.0,2700.0,0.0035888671875,-18.475530707768947,0.3876496644025039,-0.0003290277367341332,-14.5759773151802,0.010630172095261514,0.21755571588873862,0.0,0.00013168674104235834,-3.6423934061767285,-26.98090718010921,0.0,-0.9974508285522461,3,-26.748116400134933,0.0,0.14399403035640718,0.29160037115216253,-0.999538654088974,-0.7174329030873196,675.0,27.981506832234096,-3.1368613954865534,-18.20949099447713,0.0030517578125,-14.286868321351829,0.021685055270791054,-0.00988959230016917,0.0,0.0,0.0,-3.1250125827486612,0.0011771403660532087,93.87519509162257,100.0,341443.0,0.0,3.127095569384257,-26.99999024431809,0.19440199956297874
-1.9442564258832136,500.0,2700.0,0.003125,-3.3060365394883844,0.4436629436705508,-0.001979285274865106,-13.907974970940733,0.009784355550073088,0.23027336709201335,0.0,0.0001171567315395805,-6.007134392871654,-1.8894538384651072,0.0,-0.9979122683405877,4,-23.603858610476504,0.0,0.14544912837445736,0.3176445096731186,-0.9995919495821,-0.7138706852623727,675.0,2.900943905799985,-5.904750147136724,-3.2980792575852433,0.0037353515625,-14.155740649722322,0.022444211691617966,-0.004629128612577915,0.0,0.0,0.00037037037037037035,-5.793685961640013,0.0010673659446183593,3.1777168054845406,125.0,432542.0,0.0,5.770435811273377,-23.05739811310008,0.20879985019564629
-1.972706656093942,600.0,2700.0,0.0032470703125,-1.9816675606513265,0.3005455482878704,-0.0036189233884215354,-13.965844300614316,0.013159297150559723,0.2318916566669941,0.0,8.891938141459832e-05,-7.050555886475145,-0.012002368033462175,0.0,-0.9978791266679764,5,-27.0,0.0,0.147909314930439,0.32969971671700476,-0.9996955424547196,-0.7139224751597795,675.0,1.011611636722647,-6.595310022058273,-1.9675394265618777,0.0095458984375,-13.659881752628378,0.025273944623768328,-0.0024598783464170994,0.0,0.0,0.0,-6.6015932780207915,0.0010752481699455529,1.4245712361642267,150.0,523667.0,0.0,6.6012093724757275,-26.116130512206112,0.22336647249758243
-1.9888919977827755,700.0,2700.0,0.0026611328125,-1.9888937501726958,0.16969323405003758,-0.005228526121936738,-13.71702133343288,0.013382145995274186,0.2327558398246765,0.0,5.461138525788556e-05,-9.0852892391527,-3.2557576606613883e-06,0.0,-0.9980964958667755,6,-27.0,0.0,0.14807098992168904,0.34099115058779716,-0.99982138723135,-0.7076377428689739,675.0,1.0000031339641318,-8.948252216847825,-1.9833491510302697,0.013818359375,-13.729599890340545,0.02697433903813362,-0.004777825472410768,0.0,0.0,0.0,-8.918131702135437,0.0010235384077532216,0.15909429749055767,175.0,614792.0,0.0,8.924050226693439,-27.0,0.2267669890075922
-2.0084446920562185,800.0,2700.0,0.0024658203125,-2.008444966287315,0.19380369366226674,-0.005467838619370014,-13.770536182337134,0.013383085606619716,0.23266155570745467,0.0,3.517242134876142e-05,-9.507711668296173,-4.007324200817209e-07,0.0,-0.9984323501586914,7,-27.0,0.0,0.1480717696249485,0.3416400529444218,-0.999892695248127,-0.7084912665683077,675.0,1.0000004326122582,-9.294408155556374,-2.0101616641314926,0.0731689453125,-13.893047570263027,0.029296984849497675,-0.0047740167239680885,0.0,0.0,0.0,-9.289784300247945,0.0009436391439521686,0.035860174451258664,200.0,705917.0,0.0,9.28820508848219,-27.0,0.23700954690575599
-2.008584503388556,900.0,2700.0,0.0025146484375,-2.0085886266845314,0.15762680367690834,-0.006975686165969819,-13.99412198879741,0.013819920760579408,0.2333729788661003,0.0,3.2933830425463384e-05,-9.56350191188408,-1.1844425606573913e-05,0.0,-0.9989805355668068,8,-27.0,0.0,0.1482612866908312,0.34511170238256456,-0.9999009028077126,-0.7103508413092641,675.0,1.0000123919835757,-9.411540459195342,-2.009603757008801,0.1156494140625,-13.936801495289837,0.029172940365970134,-0.004712136974558234,0.0,0.0,0.0,-9.383816629715426,0.0008132302275043913,0.024072139488182896,225.0,797042.0,0.0,9.386775174812934,-27.0,0.24031485691666604
-1.9912744958004622,1000.0,2700.0,0.00205078125,-1.9912748933842803,1.663647180192649,-0.0075125266914255915,-13.941659601966967,0.01669715838506818,0.2334316074848175,0.0,2.9132386225683148e-05,-10.254999371024743,-9.847359204428724e-07,0.0,-0.9991993814706802,9,-27.0,0.0,0.1512873038649559,0.34675944223999977,-0.9999148488044739,-0.7109437508377596,675.0,1.000001013167395,-10.141183395723498,-1.9918587401509107,0.13125,-14.017316519671912,0.029356598015874626,-0.004889328498393297,0.0,0.0,0.0,-10.948417865560941,0.0007611659602844156,0.021163200247497443,250.0,888167.0,0.0,10.985996515539378,-27.0,0.25264707803726194
-1.9931424314410833,1100.0,2700.0,0.00224609375,-1.993142562716238,3.252043690026519,-0.009324659197591244,-13.953606976226437,0.018273714184761047,0.23344150185585022,0.0,3.023189642590296e-05,-10.587106205393132,-3.388549113502558e-07,0.0,-0.9991754844784737,10,-27.0,0.0,0.15606364160776137,0.35377962589263917,-0.9999108105897904,-0.7106975936709204,675.0,1.0000003389794876,-10.314546983976623,-1.9941792891763324,0.0978271484375,-13.988393878647056,0.02934008468873799,-0.004914299119263887,0.0,0.0,0.0,-12.984786282430452,0.0007668503720196895,0.017872688146549763,275.0,979292.0,0.0,13.023304326268747,-27.0,0.26973473429679873
-1.963530389409425,1200.0,2700.0,0.0021240234375,-1.963530986465798,1.8276043804378523,-0.010564297181554138,-14.00021366123752,0.019692426733672618,0.23314708471298218,0.0,2.443741368551855e-05,-10.461278109557789,-1.5583259412146836e-06,0.0,-0.9990334346890449,11,-27.0,0.0,0.16258704103529453,0.36133146435022356,-0.9999320670962334,-0.708462127338862,675.0,1.000001549551885,-10.216252798243929,-1.9646816740595505,0.15625,-13.938791577517245,0.029320396156981586,-0.005767365917563438,0.0,0.0,0.0,-11.67795476078272,0.0008006441625184379,0.01322817566044201,300.0,1070417.0,0.0,11.739224483296079,-27.0,0.2768150046467781
-1.9847258996429447,1300.0,2700.0,0.00205078125,-1.9847259124928065,1.1330961187526978,-0.012350976816378534,-14.020178162452023,0.02092740931548178,0.23314708471298218,0.0,2.621622938931978e-05,-10.354809687713278,-4.113641501447247e-08,0.0,-0.998895151913166,12,-27.0,0.0,0.16786442771553994,0.36824026703834534,-0.9999255478382111,-0.7093133571041108,675.0,1.0000000390409434,-10.119464723750522,-1.9858624330326689,0.14716796875,-13.993122836484567,0.02886906252242625,-0.005767365917563438,0.0,0.0,0.0,-10.693931412609828,0.0008335395206813701,0.011090219874330806,325.0,1161542.0,0.0,10.738912112849528,-27.0,0.28204372599720956
-1.9683534380244965,1400.0,2700.0,0.0027099609375,-1.9683534388195725,0.7814585153383392,-0.014269424881786109,-14.123457823200566,0.021232885401695968,0.23314708471298218,0.0,2.577782292974007e-05,-10.38426853025191,-2.77795920953406e-09,0.0,-0.9989139109849929,13,-27.0,0.0,0.16858919523656368,0.3747828558087349,-0.9999271556735039,-0.7111208019166952,675.0,1.0000000025210685,-10.189361837569956,-1.9692906553450924,0.171484375,-14.003334003570602,0.02892442955635488,-0.005767365917563438,0.0,0.0,0.0,-10.25306354569815,0.0008290792407933623,0.027200414957231904,350.0,1252667.0,0.0,10.28698031367409,-27.0,0.28638939261436464
-1.9591667728374886,1500.0,2700.0,0.002099609375,-1.9591667742279193,0.6944153704911468,-0.015280129876919091,-14.005379451167666,0.02132538426667452,0.23314708471298218,0.0,2.039413284364855e-05,-10.231090061380888,-4.3927653963279415e-09,0.0,-0.9992417365312576,14,-27.0,0.0,0.16880000084638597,0.38259329944849013,-0.9999468997120857,-0.7082498166520963,675.0,1.0000000042188264,-9.96428093248943,-1.9593759396983763,0.2149658203125,-14.042155851076464,0.028533047810196877,-0.005767365917563438,0.0,0.0,0.0,-9.993809712102344,0.0007510870535043068,0.007806543907236024,375.0,1343792.0,0.0,10.025688092420882,-27.0,0.2906075596809387
-2.007695471969055,1600.0,2700.0,0.0021240234375,-2.0076954738124657,0.6595231113810665,-0.015467709279619157,-13.984195890644596,0.021836569625884296,0.23314708471298218,0.0,2.052729664683284e-05,-10.093273854522602,-4.753086332424468e-09,0.0,-0.9993753209710121,15,-27.0,0.0,0.1697868976742029,0.3850919879972935,-0.9999464109539986,-0.708847716809396,675.0,1.0000000046231408,-9.698361303477407,-2.008015341475071,0.2458984375,-14.010146299128227,0.028482201183214782,-0.005767365917563438,0.0,0.0,0.0,-9.736514104907094,0.0007193113124230877,0.006438616109354034,400.0,1434917.0,0.0,9.753241716431074,-27.0,0.2935899429023266
-1.988760445164371,1700.0,2700.0,0.0021240234375,-1.9887604521275855,0.6073257913498082,-0.01619223356246948,-13.98649720648061,0.025122362468391658,0.23314708471298218,0.0,1.6465219960082323e-05,-10.107638151209898,-1.8690779944727452e-08,0.0,-0.9997376918792724,16,-27.0,0.0,0.1761389896273613,0.3886585973203182,-0.999961319565773,-0.7084279211143439,675.0,1.0000000193408456,-9.691050270422577,-1.9884721085894128,0.294970703125,-13.985244277970226,0.028318990068510175,-0.005767365917563438,0.0,0.0,0.0,-9.722304769018418,0.0006331054159090854,0.006873488476972707,425.0,1526042.0,0.0,9.731906241006197,-27.0,0.296313414722681
-1.9955395931581734,1800.0,2700.0,0.0022705078125,-1.9955395947040881,0.6290345684048052,-0.016305591352283953,-14.041020474297644,0.02814299720339477,0.23314708471298218,0.0,1.785188883332012e-05,-10.21294036646503,-3.770789385829037e-09,0.0,-0.9998926550149918,17,-27.0,0.0,0.18196658007800579,0.38880808651447296,-0.9999562233686448,-0.7087305537570501,675.0,1.000000003898117,-10.070294711715167,-1.995063651794417,0.2544921875,-13.989980377309791,0.027440815651789307,-0.005767365917563438,0.0,0.0,0.0,-10.089955402212786,0.0005962369730696082,0.006645571450982138,450.0,1617167.0,0.0,10.112723842953198,-27.0,0.30071321651339533
-2.004245101517154,1900.0,2700.0,0.0016845703125,-2.0042452171319587,0.6703171449873262,-0.017111425194889306,-14.00618473810077,0.04146262556314469,0.23314708471298218,0.0,1.908942290356208e-05,-10.059921506034124,-2.8212650980557115e-07,0.0,-1.000140592455864,18,-27.0,0.0,0.20181188210844994,0.3903004892170429,-0.999951682984829,-0.7097780888107081,675.0,1.0000002844509628,-9.897377202141111,-2.0047162946943438,0.2383056640625,-14.02349395958995,0.02668379242531955,-0.005767365917563438,0.0,0.0,0.0,-9.898111018249164,0.0005372556042857468,0.006900816727509962,475.0,1708292.0,0.0,9.910356647647149,-27.0,0.30481856912374494
-2.025407826557057,2000.0,2700.0,0.0024658203125,-15.905279896869564,0.497638722924877,-0.012387910042889416,-13.533983364385149,0.0701320618391037,0.23314708471298218,0.0,1.7830712181421404e-05,-10.391599469428346,-27.0,0.0,-1.000278541445732,19,-27.0,0.0,0.2506781220436096,0.40559124276041986,-0.9999563068151474,-0.7125758072150348,675.0,28.0,-10.243692666227965,-15.726943845344682,0.2584228515625,-13.986066833344951,0.025412969337776304,-0.005767365917563438,0.0,0.0,0.0,-10.256235804455978,0.0005044379926403053,22.281743888227577,500.0,1799417.0,0.0,10.27367344496615,-27.0,0.30882022231817247
-1.9676934974289906,2100.0,2700.0,0.0017822265625,-15.775214005241498,0.554107405103295,-0.011732110730372369,-14.26437683109513,0.0701320618391037,0.23314708471298218,0.0,1.911583340188372e-05,-10.21863644713088,-27.0,0.0,-1.000304003059864,20,-27.0,0.0,0.2506781220436096,0.4209752604365349,-0.9999515920877456,-0.7084230596883572,675.0,28.0,-10.061552056560313,-15.478248379430516,0.243994140625,-13.812280731476216,0.025047074491158127,-0.005767365917563438,0.0,0.0,0.0,-10.059195548103023,0.0004983845217793714,19.578198120677037,525.0,1890542.0,0.0,10.078205173039104,-27.0,0.3119310803711414
-1.952847251734056,2200.0,2700.0,0.0019287109375,-15.795251548609064,0.7476756811557566,-0.010421975422650576,-14.168859772551025,0.0701320618391037,0.23314708471298218,0.0,1.7525125008432953e-05,-10.264276519786247,-27.0,0.0,-1.0002745926380157,21,-27.0,0.0,0.2506781220436096,0.43282229602336886,-0.9999574273824692,-0.7100373052380746,675.0,28.0,-10.109174300500007,-15.542985872914603,0.287744140625,-14.070013458209809,0.024605958350002767,-0.005767365917563438,0.0,0.0,0.0,-10.121872433952497,0.0005053800086898264,15.350990477702535,550.0,1981667.0,0.0,10.13578857087858,-27.0,0.31495423465967176
-1.985421792431589,2300.0,2700.0,0.0014892578125,-15.645009194775344,0.603604132370454,-0.008288048510439693,-14.256611264335882,0.0701320618391037,0.23314708471298218,0.0,1.6967329656836228e-05,-10.315473301693293,-27.0,0.0,-1.0004822611808777,22,-27.0,0.0,0.2506781220436096,0.45361348539590834,-0.9999594688415527,-0.7108684065213311,675.0,28.0,-10.156624940509069,-15.34882715684042,0.2525390625,-13.981676410780244,0.024933337001129985,-0.005767365917563438,0.0,0.0,0.0,-10.154251570230869,0.0004559753964713309,13.019788951538036,575.0,2072792.0,0.0,10.168671768522293,-27.0,0.3183683447539806
-1.9600778373271168,2400.0,2700.0,0.0017578125,-15.701060747483373,0.5032757810990012,-0.006765768711920828,-14.059135156014875,0.0701320618391037,0.23314708471298218,0.0,1.4235958110475621e-05,-10.285061512286749,-27.0,0.0,-1.0007709085941314,23,-27.0,0.0,0.2506781220436096,0.4709621623158455,-0.9999694988131523,-0.7094451932927768,675.0,28.0,-10.136374112085017,-15.409574443560905,0.3276611328125,-14.104409539649854,0.024865318182855846,-0.005767365917563438,0.0,0.0,0.0,-10.145490130523388,0.0003873059409670532,10.071031103561543,600.0,2163917.0,0.0,10.161412478020694,-27.0,0.32085637375712395
-1.9533565693556738,2500.0,2700.0,0.0018310546875,-15.532840456074434,0.8010661925231043,-0.00622541835764423,-14.30216363539377,0.0701320618391037,0.23314708471298218,0.0,1.5290122348687873e-05,-10.394631302602356,-27.0,0.0,-1.0006828635931015,24,-27.0,0.0,0.2506781220436096,0.4861772783100605,-0.9999656245112419,-0.7119701151670597,675.0,28.0,-10.217572494063736,-15.200621073808048,0.332373046875,-13.927833659619056,0.024929982703179122,-0.005767365917563438,0.0,0.0,0.0,-10.232893447711549,0.00040825121614034287,8.544219069884953,625.0,2255042.0,0.0,10.243818121414431,-27.0,0.3226359233260155
-1.9526569280300463,2600.0,2700.0,0.001513671875,-15.475293158498804,0.7587958071047829,-0.005882681906223297,-14.26964203293119,0.0701320618391037,0.23314708471298218,0.0,1.2107125257898588e-05,-10.268140390667764,-27.0,0.0,-1.0007728397846223,25,-27.0,0.0,0.2506781220436096,0.5030865341424942,-0.9999772891402244,-0.7090706798480824,675.0,28.0,-10.103834837831155,-15.122466498027801,0.3615234375,-14.171508545100584,0.024731168616563083,-0.005767365917563438,0.0,0.0,0.0,-10.116217958501043,0.00038684667233610524,7.790953449448625,650.0,2346167.0,0.0,10.130174811732335,-27.0,0.3244967319071293
-2.008550132135133,2700.0,2700.0,0.0015869140625,-15.500178550103891,0.6805942607670095,-0.005735816550441086,-14.05845637813466,0.0701320618391037,0.23314708471298218,0.0,1.4625842300119985e-05,-10.255243231910686,-27.0,0.0,-1.0010114043951035,26,-27.0,0.0,0.2506781220436096,0.5175387293100357,-0.9999680504202842,-0.7090904742733983,675.0,28.0,-10.106698679169995,-15.135463077204971,0.2894775390625,-14.085802717561515,0.024443580117076636,-0.005767365917563438,0.0,0.0,0.0,-10.122980452596492,0.0003300949356344063,6.371661135688617,675.0,2437292.0,0.0,10.144676947622262,-27.0,0.32614904046058657
-1.9948692678459339,2800.0,2700.0,0.001611328125,-15.61892688503344,0.6426413218782845,-0.005996855965349823,-14.35215387286163,0.0701320618391037,0.23314708471298218,0.0,1.2565752308546508e-05,-10.392736484531508,-27.0,0.0,-1.0009445816278457,27,-27.0,0.0,0.2506781220436096,0.5280236184597016,-0.999975611269474,-0.710375991086039,675.0,28.0,-10.235470076726424,-15.235871690217271,0.3528564453125,-14.044236249559168,0.024499580450356006,-0.005767365917563438,0.0,0.0,0.0,-10.25657662841157,0.00034598769852891567,6.349598286379768,700.0,2528417.0,0.0,10.287922503953855,-27.0,0.32806983664631845
-1.9894057242570853,2900.0,2700.0,0.001513671875,-15.55338570472584,0.724284507518762,-0.006591826921794564,-13.519711779997683,0.0701320618391037,0.23314708471298218,0.0,1.3829251622610173e-05,-10.172483927411506,-27.0,0.0,-1.0008573353290557,28,-27.0,0.0,0.2506781220436096,0.53606216609478,-0.9999709919095039,-0.7088600019094884,675.0,28.0,-10.010901919770234,-15.1757296747549,0.322900390625,-14.178621886116192,0.024353318149223924,-0.005767365917563438,0.0,0.0,0.0,-10.027772947270098,0.0003667427823529579,5.33651606337219,725.0,2619542.0,0.0,10.03325950919558,-27.0,0.3298818975687027
-1.9471076442452613,3000.0,2700.0,0.0012939453125,-15.628658913776519,0.694323139862407,-0.006654120981693268,-14.112516599119063,0.0701320618391037,0.23314708471298218,0.0,1.2435312305569823e-05,-10.344696423531541,-27.0,0.0,-1.0008070915937424,29,-27.0,0.0,0.2506781220436096,0.5448462247848511,-0.9999760881066322,-0.7114138279401232,675.0,28.0,-10.185398203634719,-15.225294963150551,0.33427734375,-13.749290438965645,0.024042130121961235,-0.005767365917563438,0.0,0.0,0.0,-10.210434835768808,0.00037869993466301823,7.964873960632744,750.0,2710667.0,0.0,10.222426657977618,-27.0,0.3311709642410278
-1.9782789851575218,3100.0,2700.0,0.001513671875,-15.701174004688777,0.5452205431359023,-0.0070630313246510925,-14.216436182704186,0.0701320618391037,0.23314708471298218,0.0,1.0684240100999886e-05,-10.321749638297387,-27.0,0.0,-1.0009427487850189,30,-27.0,0.0,0.2506781220436096,0.5537995234131813,-0.9999825105071067,-0.7104648911619733,675.0,28.0,-10.157173980225098,-15.307650351035374,0.35419921875,-13.984424119523206,0.023894787905737756,-0.005767365917563438,0.0,0.0,0.0,-10.187846006780484,0.00034642890896066094,6.071264237985721,775.0,2801792.0,0.0,10.224436692179959,-27.0,0.3329197555780411
-1.9801693662186153,3200.0,2700.0,0.001513671875,-15.694020440437374,0.803052712609284,-0.006827830418478698,-14.147323296202597,0.0701320618391037,0.23314708471298218,0.0,1.0210962409473723e-05,-10.292904365412095,-27.0,0.0,-1.0011102080345153,31,-27.0,0.0,0.2506781220436096,0.5632892474532127,-0.9999842464923858,-0.7106854855468555,675.0,28.0,-10.120265298317156,-15.3010274112499,0.3745361328125,-14.125681590270428,0.02384084272198379,-0.005767365917563438,0.0,0.0,0.0,-10.15901554308514,0.00030658623509225433,6.400574482266059,800.0,2892917.0,0.0,10.165908495896028,-27.0,0.3359796077013016
-1.9606070471658312,3300.0,2700.0,0.001611328125,-15.845001090134588,0.6650616352258354,-0.006516226939857006,-13.919001514088805,0.0701320618391037,0.23314708471298218,0.0,1.2687408707279247e-05,-10.376264560581106,-27.0,0.0,-1.0010236620903015,32,-27.0,0.0,0.2506781220436096,0.5700264751911164,-0.9999751687049866,-0.7101438343837799,675.0,28.0,-10.216450563728761,-15.445563117375462,0.36396484375,-14.035879149700449,0.023607483552768826,-0.005767365917563438,0.0,0.0,0.0,-10.252167654090025,0.00032717643771320584,5.635622626065639,825.0,2984042.0,0.0,10.270835332509792,-27.0,0.33880756348371505
-2.0204925826787075,3400.0,2700.0,0.0015625,-15.756953520178715,0.6630857625029207,-0.00674029162619263,-13.938254643425777,0.0701320618391037,0.23314708471298218,0.0,1.4809092556333781e-05,-10.157894132053503,-27.0,0.0,-1.0011414110660553,33,-27.0,0.0,0.2506781220436096,0.5745555371046066,-0.9999673873186111,-0.7097004899500462,675.0,28.0,-9.963176528013566,-15.34308439209346,0.3246337890625,-13.920941354154099,0.023419158440083264,-0.005767365917563438,0.0,0.0,0.0,-9.988844537144415,0.0002991639441461302,5.505915107598687,850.0,3075167.0,0.0,10.016187049120024,-27.0,0.3426610387861729
-2.0277329366967023,3500.0,2700.0,0.0014892578125,-15.706700221852959,0.7173962599406339,-0.007441363949328661,-13.955955007914556,0.0701320618391037,0.23314708471298218,0.0,1.1556928927802802e-05,-10.300636610504379,-27.0,0.0,-1.001315489411354,34,-27.0,0.0,0.2506781220436096,0.5775501042604446,-0.9999793186783791,-0.7098407315919758,675.0,28.0,-10.122300246697765,-15.306941563048085,0.3542236328125,-13.942170730170307,0.0229118256829679,-0.005767365917563438,0.0,0.0,0.0,-10.145458017086668,0.0002577537718025269,4.1866282076778925,875.0,3166292.0,0.0,10.169639871684982,-27.0,0.345251389592886
-1.971401968131977,3600.0,2700.0,0.0013916015625,-15.564451772819485,0.6302579697561634,-0.008453722670674324,-14.509109940933236,0.0701320618391037,0.23314708471298218,0.0,1.0403537078218506e-05,-10.328344139332051,-27.0,0.0,-1.001324439048767,35,-27.0,0.0,0.2506781220436096,0.5801219508051872,-0.9999835327267647,-0.7110269293028978,675.0,28.0,-10.146820774450855,-15.161406809564795,0.3682861328125,-13.95877792696794,0.022735725902020932,-0.005767365917563438,0.0,0.0,0.0,-10.16929375247914,0.0002556216262746602,4.424601213821095,900.0,3257417.0,0.0,10.21238940306526,-27.0,0.3480601727962494
-1.9742966651734606,3700.0,2700.0,0.00126953125,-15.460757114392218,0.5881730192818344,-0.009154115244746209,-14.392558500715461,0.0701320618391037,0.23314708471298218,0.0,1.1687168262142223e-05,-10.32028578497465,-27.0,0.0,-1.0012544751167298,36,-27.0,0.0,0.2506781220436096,0.583356323838234,-0.9999788284301758,-0.7101700829654873,675.0,28.0,-10.149927746317875,-15.053170900392283,0.3604248046875,-14.206436954613457,0.022199641773477198,-0.005767365917563438,0.0,0.0,0.0,-10.170959129560673,0.00027227040081925227,4.473443208452933,925.0,3348542.0,0.0,10.20592889527276,-27.0,0.3499478742480278
-1.9777968627880909,3800.0,2700.0,0.001171875,-15.597332507319345,0.6988562296503597,-0.010022879065945744,-13.994107396541065,0.0701320618391037,0.23314708471298218,0.0,1.0166844720060909e-05,-10.263185940669244,-27.0,0.0,-1.0012480348348618,37,-27.0,0.0,0.2506781220436096,0.5858579277992249,-0.9999844118952751,-0.7079267773595348,675.0,28.0,-10.102634558670562,-15.188706477658462,0.36923828125,-14.140858442268483,0.0218196542467922,-0.005767365917563438,0.0,0.0,0.0,-10.126175434803944,0.0002738027666055132,4.285727634261636,950.0,3439667.0,0.0,10.162437678191417,-27.0,0.35179794430732725
-1.9787584835095913,3900.0,2700.0,0.0012939453125,-15.666123717884597,0.5371217229357477,-0.010749189625494182,-13.711673232929881,0.0701320618391037,0.23314708471298218,0.0,1.2262963662124093e-05,-10.427677895528033,-27.0,0.0,-1.0012669682502746,38,-27.0,0.0,0.2506781220436096,0.5887439519166946,-0.999976733326912,-0.7120244954989176,675.0,28.0,-10.257114969128489,-15.2653200961885,0.38046875,-13.982897813103795,0.02118310732766986,-0.005767365917563438,0.0,0.0,0.0,-10.264850607047368,0.0002692961526918225,5.927112453296617,975.0,3530792.0,0.0,10.280621066307626,-27.0,0.35396887809038163
-1.9506966308079428,4000.0,2700.0,0.0014404296875,-15.7252713378392,0.6783780864466659,-0.01122180507518351,-13.722189370198388,0.0701320618391037,0.23314708471298218,0.0,1.1095442130226729e-05,-10.383548202267127,-27.0,0.0,-1.001173558831215,39,-27.0,0.0,0.2506781220436096,0.5933051809668541,-0.9999810099601746,-0.7121975353897142,675.0,28.0,-10.221990096178668,-15.329007590156957,0.36884765625,-13.863960522301113,0.020738023798912764,-0.005767365917563438,0.0,0.0,0.0,-10.225274026021683,0.0002915228920755908,5.6074277237057375,1000.0,3621917.0,0.0,10.253048379251727,-27.0,0.3561848782002926
-1.945350630261237,4100.0,2700.0,0.0015625,-15.925998091198744,0.6691408206104078,-0.011626938381232322,-14.012480155489175,0.0701320618391037,0.23314708471298218,0.0,8.983311215615685e-06,-10.359257709184192,-27.0,0.0,-1.0011504918336869,40,-27.0,0.0,0.2506781220436096,0.5989258587360382,-0.999988742172718,-0.7115788506212993,675.0,28.0,-10.190455570569943,-15.521706957542696,0.37021484375,-13.858051734236641,0.020724883209913968,-0.005767365917563438,0.0,0.0,0.0,-10.216360396258356,0.0002970077290228801,4.1843167639171295,1025.0,3713042.0,0.0,10.248310281866074,-27.0,0.3576339118182659
-1.9685234653567023,4200.0,2700.0,0.0015380859375,-15.862607449731708,0.7698880957417504,-0.012329118512570857,-13.867003015255568,0.0701320618391037,0.23314708471298218,0.0,1.0312329243333806e-05,-10.38749774340564,-27.0,0.0,-1.0013291507959365,41,-27.0,0.0,0.2506781220436096,0.6045461595058441,-0.9999838814139366,-0.7115031709137838,675.0,28.0,-10.233087366795841,-15.455504494356692,0.364501953125,-13.990962770654878,0.020535735180601478,-0.005767365917563438,0.0,0.0,0.0,-10.246386327036385,0.000254500771916355,4.568586289658035,1050.0,3804167.0,0.0,10.292215968461315,-27.0,0.35969760566949843
-1.9587329656264045,4300.0,2700.0,0.0012939453125,-15.77142144218891,0.5534506564911587,-0.01234799697995186,-14.031773594663553,0.0701320618391037,0.23314708471298218,0.0,1.134591292384357e-05,-10.376906289962529,-27.0,0.0,-1.0013038277626038,42,-27.0,0.0,0.2506781220436096,0.6106603890657425,-0.9999800860881806,-0.7104636778632993,675.0,28.0,-10.20287153893126,-15.363562214144006,0.3609619140625,-13.924137531426462,0.02033306551165879,-0.005767365917563438,0.0,0.0,0.0,-10.225682615217313,0.0002605282235890627,3.2330280742608637,1075.0,3895292.0,0.0,10.26655646435582,-27.0,0.3618957884609699
-1.9809130491325049,4400.0,2700.0,0.0011962890625,-15.708976037413763,0.6557877900519223,-0.012850575032643974,-13.99382452613265,0.0701320618391037,0.23314708471298218,0.0,7.532489973982592e-06,-10.473499232459728,-27.0,0.0,-1.0014012992382049,43,-27.0,0.0,0.2506781220436096,0.61676045358181,-0.999994084239006,-0.7123749687700183,675.0,28.0,-10.311699680035924,-15.298157748076301,0.389892578125,-14.004612403451535,0.020800324343144893,-0.005767365917563438,0.0,0.0,0.0,-10.327554491113037,0.000237339914747281,4.831884107401705,1100.0,3986417.0,0.0,10.35540821907859,-27.0,0.3646444916725159
-1.975775045977207,4500.0,2700.0,0.0008056640625,-15.851125143633464,0.6215638577394248,-0.01240637565497309,-14.038412850241837,0.0701320618391037,0.23314708471298218,0.0,9.336969617379509e-06,-10.386419281257437,-27.0,0.0,-1.00137919485569,44,-27.0,0.0,0.2506781220436096,0.6214062243700027,-0.9999874636530877,-0.7118345496783149,675.0,28.0,-10.227612273351838,-15.443020962632975,0.3891845703125,-13.984547263232857,0.020972778974100947,-0.005767365917563438,0.0,0.0,0.0,-10.249438185958887,0.00024259786296170204,4.149246576909516,1125.0,4077542.0,0.0,10.272537546072547,-27.0,0.3673626780509949
-2.004154334004852,4600.0,2700.0,0.0011962890625,-15.85108060353611,0.7483247407527374,-0.012223055795766413,-14.055477366611708,0.0701320618391037,0.23314708471298218,0.0,1.048760071853394e-05,-10.319329430838158,-27.0,0.0,-1.0012041807174683,45,-27.0,0.0,0.2506781220436096,0.6268823280930519,-0.9999832406640052,-0.7105995293211891,675.0,28.0,-10.123221504779977,-15.449107084784481,0.380126953125,-14.090478143495531,0.020740367053076626,-0.005767365917563438,0.0,0.0,0.0,-10.151378565114019,0.0002842334160959581,4.289232823991702,1150.0,4168667.0,0.0,10.161884833825063,-27.0,0.37053839191794397
-1.9956480030545207,4700.0,2700.0,0.0011474609375,-15.739860893679525,0.7368316189416458,-0.013132635946385562,-14.28140264129901,0.0701320618391037,0.23314708471298218,0.0,8.87279686594411e-06,-10.35942517867879,-27.0,0.0,-1.0012569457292557,46,-27.0,0.0,0.2506781220436096,0.6308233857154846,-0.9999891608953476,-0.7110297370381886,675.0,28.0,-10.202524022619627,-15.330636333733594,0.38505859375,-14.059726236521207,0.020475996378809213,-0.005767365917563438,0.0,0.0,0.0,-10.227042385690211,0.00027168054984940684,4.9720631179584345,1175.0,4259792.0,0.0,10.236839876887178,-27.0,0.37216735258698463
-2.037633655398531,4800.0,2700.0,0.001025390625,-15.699805042117287,0.5632354013671348,-0.013788532628677786,-13.553843843030013,0.0701320618391037,0.23314708471298218,0.0,9.705744651000714e-06,-10.406612046304977,-27.0,0.0,-1.0013171136379242,47,-27.0,0.0,0.2506781220436096,0.6319381564855575,-0.9999861136078835,-0.7108084827174025,675.0,28.0,-10.26480949532131,-15.302902007164562,0.3829345703125,-14.08926921957486,0.02032371936365962,-0.005767365917563438,0.0,0.0,0.0,-10.27555219111359,0.000257365691504674,5.8630613496240525,1200.0,4350917.0,0.0,10.307325111609085,-27.0,0.3745758913457394
-1.9837865810797666,4900.0,2700.0,0.00107421875,-15.832004842798526,0.5218248950385082,-0.014432166586630046,-14.018665275927546,0.0701320618391037,0.23314708471298218,0.0,1.0973143685077957e-05,-10.275362614767635,-27.0,0.0,-1.001288977265358,48,-27.0,0.0,0.2506781220436096,0.6323122933506966,-0.9999814584851265,-0.7086333063605708,675.0,28.0,-10.091117669166085,-15.42282475775446,0.37431640625,-13.802024751407629,0.02035315833054483,-0.005767365917563438,0.0,0.0,0.0,-10.118457674958517,0.00026405835633340756,3.950289583215465,1225.0,4442042.0,0.0,10.150362191366685,-27.0,0.3765404671430588
-1.990360503485863,5000.0,2700.0,0.0008056640625,-15.54077456598587,0.6217121429255326,-0.014677501446567476,-14.032966211900886,0.0701320618391037,0.23314708471298218,0.0,1.0658695134679875e-05,-10.37688603942571,-27.0,0.0,-1.0013020515441895,49,-27.0,0.0,0.2506781220436096,0.6343531593680382,-0.9999826207756997,-0.7123326138666016,675.0,28.0,-10.217148775815184,-15.12804662624408,0.3799560546875,-14.037092501519489,0.02042271476238966,-0.005767365917563438,0.0,0.0,0.0,-10.240835962590932,0.00026094688510056583,4.633280763273611,1250.0,4533167.0,0.0,10.261656271481495,-27.0,0.37784823402762413
-2.013282556701597,5100.0,2700.0,0.001318359375,-15.610854334045353,0.7248833350997684,-0.014718519244343042,-13.825361503570495,0.0701320618391037,0.23314708471298218,0.0,1.0107325203989604e-05,-10.37080746051514,-27.0,0.0,-1.001198908686638,50,-27.0,0.0,0.2506781220436096,0.6348044872283936,-0.9999846279621124,-0.708329719001631,675.0,28.0,-10.225030239141674,-15.218721068617617,0.3580810546875,-14.012280472212199,0.020257795695215464,-0.005767365917563438,0.0,0.0,0.0,-10.248961800294577,0.00028548777336254714,3.989475866134665,1275.0,4624292.0,0.0,10.290134866553332,-27.0,0.38001612275838853
-1.9779741388745606,5200.0,2700.0,0.00126953125,-15.520636248249568,0.7929885901968909,-0.01521378243342042,-13.941432155155823,0.0701320618391037,0.23314708471298218,0.0,9.80048231440378e-06,-10.316965767474846,-27.0,0.0,-1.0012119323015214,51,-27.0,0.0,0.2506781220436096,0.636373721063137,-0.9999857619404793,-0.7109303791941783,675.0,28.0,-10.124397901775158,-15.087602242435707,0.3813232421875,-13.961351873281496,0.020177959790453316,-0.005767365917563438,0.0,0.0,0.0,-10.157806585468014,0.0002823842467478244,6.088705199632484,1300.0,4715417.0,0.0,10.169510948043861,-27.0,0.3821422316133976
-1.9606969984182796,5300.0,2700.0,0.0015380859375,-15.46330734998079,0.6494116057420803,-0.015480496594682336,-14.054548691052208,0.0701320618391037,0.23314708471298218,0.0,9.547771526285942e-06,-10.42022421321415,-27.0,0.0,-1.0011303156614304,52,-27.0,0.0,0.2506781220436096,0.6386332660913467,-0.9999866858124733,-0.7120172683818964,675.0,28.0,-10.256809079814044,-15.040107193193716,0.34580078125,-13.966247100700615,0.020230067335069178,-0.005767365917563438,0.0,0.0,0.0,-10.28508332093316,0.00030180215580912775,3.9266345704648473,1325.0,4806542.0,0.0,10.32062492908845,-27.0,0.3842128895223141
