ReemS3/reg_curious_hac/data/d4a6886/CausalDependenciesMujocoEnv-o1-v0/alg:chac|eta:0.25|fw:1|fwhidsiz:256,256,256|nlev:2|reg:True|rolbatsiz:1|timsca:27,27|102/progress.csv
train_1/fw_loss,train_1/q_grads,train_0/avg_q,train_1/reward_-0.0_frac,train_0/reward_-0.0_frac,train/success_rate,test_0/avg_q,train_1/target_q,train_1/reward_-1.0_frac,train_1/mu_loss,train_1/reward,train_0/mu_grads_std,train_0/fw_loss,train_1/q_grads_std,epoch,train_1/avg_q,test/episodes,test_1/subgoal_succ_rate,test_1/avg_q,train_0/target_q,train_0/fw_bonus,train_1/q_loss,train_1/mu_grads_std,test/success_rate,train_0/mu_loss,train_1/mu_grads,train_1/fw_bonus,train_0/reward,test_1/n_subgoals,train_0/mu_grads,train_0/q_grads,train_0/q_loss,train_0/reward_-1.0_frac,train_1/n_subgoals,train_0/q_grads_std,train_1/subgoal_succ_rate,train_0/next_q,train_0/current_q,train_1/next_q,train_1/current_q,train/episodes,train_1/reward_-27.0_frac,policy/steps
0.0014245134603697806,0.020233194716274737,-17.965866443159356,0.0,0.0,0.0,-27.0,-1.4913872391871574,0.001171875,1.1011663554822253,-1.4290610281721456,0.16830178387463093,0.0001135777827585116,0.19062785767018794,0,-4.532423755820765,25.0,0.0,-6.9196896907724454,-7.890486739940618,-0.9995769068598748,0.4653364052630186,0.16159833669662477,0.0,7.700787769146328,0.014650731743313373,-0.9978544861078262,-0.8615723336479277,675.0,-0.0005459868043544702,0.03703567925840616,0.23029520820184474,0.000341796875,2700.0,0.15247569121420385,0.0662962962962963,-7.702478377591339,-7.791921915783322,-0.10031818801592692,-1.4805349821654814,100.0,0.0,86737.0
0.0012128229340305553,0.02253267588093877,-26.957425168516824,0.0,0.0,0.0,-26.55800189904212,-1.8194432476837439,0.000927734375,1.5987483524022936,-1.4619889290959691,0.19971442371606826,0.00010584914289211156,0.21427298039197923,1,-7.177842695833797,50.0,0.0014792899408284023,-7.8657417454994,-8.92380991439716,-0.9996066734194755,0.2595169728454826,0.4258619487285614,0.0,8.737341594346045,-0.002685361570911482,-0.998708213865757,-0.8593180423049489,676.0,-0.010483295703306795,0.03598463367670775,0.17173157597560634,2.44140625e-05,2700.0,0.16800639629364014,0.0,-8.72658969269153,-8.807718305320403,-0.5702059087141935,-1.8155412112046085,200.0,0.0,177862.0
0.0012529658619314433,0.02473032670095563,-26.805050610752797,0.0,0.0,0.0,-26.99430343328837,-1.7628356643070304,0.00078125,1.4556511140118218,-1.486745437324862,0.22571546472609044,8.207662804124994e-05,0.23986806757748128,2,-7.5737193426213105,75.0,0.0,-7.696918729934141,-9.134602982614261,-0.9996982008218765,0.15869821621428448,0.5175955280661583,0.0,8.931760606872706,-0.005537722446024418,-0.998546315729618,-0.8596735611965414,675.0,-0.015162222855724394,0.03367765741422772,0.19229924345626537,0.00126953125,2700.0,0.17463631369173527,0.00037037037037037035,-8.921669531108638,-8.983905785390851,-0.4344361030689797,-1.7606836328282416,300.0,0.0,268982.0
0.0013350512454053387,0.021935780858621003,-26.121282377857053,0.0,0.0,0.0,-26.626967238853247,-2.4830832924355613,0.0009033203125,2.9167734137659833,-1.479093587922398,0.24686169549822806,7.66717429542041e-05,0.25297281965613366,3,-7.078625182830478,100.0,0.0,-7.3178475572438035,-9.375397061235759,-0.999719025194645,0.8643943781951993,0.5420668393373489,0.0,9.171167292142599,-0.012388085061684252,-0.9982152715325355,-0.8606474219821394,675.0,-0.024583060201257466,0.04044642886146903,0.2110429518389992,0.0037109375,2700.0,0.20084622353315354,0.00037037037037037035,-9.168334129791507,-9.229637884471884,-1.94862234523417,-2.4836825423683733,400.0,0.0,360106.0
0.0015226801799144596,0.014823350473307073,-21.9463103228724,0.0,0.0,0.0,-12.562838391618664,-4.376414193054934,0.0010986328125,5.266756733878943,-1.4844464750247426,0.2665996700525284,0.00011486556741147069,0.26929075419902804,4,-6.67101646122708,125.0,0.005908419497784343,-7.410264218786066,-9.240803435581286,-0.9995719492435455,1.3154387442079378,0.5477290451526642,0.0,9.021066487161967,-0.013867590250447393,-0.9974585801362992,-0.8668359487666748,677.0,-0.028879435872659086,0.045100512076169254,0.2494894588666529,0.0003662109375,2700.0,0.21524536274373532,0.011111111111111112,-9.016935696019875,-9.075874495584767,-4.241932150340809,-4.325829008948961,500.0,0.0,450917.0
0.0015568838542094454,0.0109288789331913,-15.030733346133147,0.0,0.0,0.0,-27.0,-1.5483377119084811,0.001220703125,1.0968886519185075,-1.4930649430287304,0.2810668103396893,0.0001286331958908704,0.2832050435245037,5,-6.694824889826001,150.0,0.0,-7.8369862424378836,-9.287263685360584,-0.9995189473032952,0.3221927914345787,0.550678725540638,0.0,9.107548869319775,-0.012606488494202494,-0.9973206341266632,-0.8730400848828139,675.0,-0.03552371012046933,0.04775483375415206,0.26628694458962704,0.000244140625,2700.0,0.2410202194005251,0.022222222222222223,-9.075598946657802,-9.154169690005718,-0.09644321012948127,-1.542112559531225,600.0,0.0,541101.0
0.0015418186550959945,0.013032731832936406,-24.52930779384719,0.0,0.0,0.0,-1.9601274622673936,-3.715359256611312,0.0013916015625,4.434739418315397,-1.5182020624357393,0.29668728783726694,0.00012753409973811358,0.30079762265086174,6,-6.711812488688129,175.0,0.16216216216216217,-6.362195026491779,-9.076087939058834,-0.9995231717824936,0.9779244829081704,0.5513157829642296,0.0,8.864104686712702,-0.01568297166377306,-0.9973813906311989,-0.8726831516964012,777.0,-0.03650680100545287,0.04965254087001085,0.22718284044725295,0.0001708984375,2700.0,0.26448134779930116,0.02666666666666667,-8.828392713138516,-8.948631088922605,-3.3793628949063406,-3.748761681546063,700.0,0.0,630766.0
0.0016402336623286828,0.01529795357491821,-13.818446190175171,0.0,0.0,0.01,-27.0,-3.194595040199674,0.0011474609375,3.6604220824339393,-1.4923062412912258,0.3110339783132076,0.00012477675772970542,0.3104590803384781,7,-6.264053263918905,200.0,0.0,-7.4235546346478545,-8.54652701819371,-0.9995337784290313,0.7933801051264395,0.561025382578373,0.0,8.370307353172835,-0.014773145830258728,-0.9969845026731491,-0.8733930190079263,675.0,-0.03781129829585552,0.04916950892657042,0.26602454376146883,0.0005615234375,2678.0,0.2766533464193344,0.13293502613890965,-8.330527116350646,-8.45817258702392,-2.6242575997695043,-3.1973386631929617,800.0,0.0,714592.0
0.0018199158454081043,0.014743800298310817,-24.692284939088072,0.0,0.0,0.01,-10.47550781106105,-4.073441975787276,0.00166015625,4.863351008180056,-1.4906519142939942,0.32271892204880714,0.00013589567570306826,0.3267359137535095,8,-6.556595847228047,225.0,0.7886658795749705,-6.159135323236491,-8.587371253946703,-0.9994909733533859,1.3027793419036895,0.5735128089785576,0.0,8.418060702212083,-0.017526991898193955,-0.9962598562240601,-0.871969306714891,1694.0,-0.03878951584920287,0.050124671682715415,0.2370187088740261,0.0003662109375,2687.0,0.28759463503956795,0.08969110532192036,-8.372229779559778,-8.515681737984655,-3.8031666359343306,-4.099310721197767,900.0,0.0,800484.0
0.0017308957874774932,0.01266510768327862,-22.649013020611267,0.0,0.0,0.04,-26.73613038913021,-2.658567896025656,0.0011474609375,2.907067153850831,-1.4669282547009062,0.3399133443832397,0.00013296860161062795,0.3385617770254612,9,-6.384685025012323,250.0,0.0,-7.28039761965925,-8.431842476116039,-0.9995022490620613,0.9580999101954479,0.574639818072319,0.0,8.255626882153127,-0.018788590235635637,-0.9966188639402389,-0.8716847911768127,675.0,-0.04189153043553233,0.0507188756018877,0.20378445062052428,0.001123046875,2602.0,0.29823332130908964,0.17025365103766332,-8.203293943907793,-8.376316262839776,-1.8883180249900466,-2.659194190613845,1000.0,0.0,880857.0
0.0015622777224052697,0.010261456575244665,-26.029997708450765,0.0,0.0,0.0,-27.0,-1.4736930585938517,0.0012939453125,1.0000671371605903,-1.4736577574440162,0.353399046510458,0.00011837533056677785,0.3551120422780514,10,-6.275855159279852,275.0,0.0,-7.206286162707243,-8.626935476392413,-0.9995584294199944,0.5437369501977007,0.5768879443407059,0.0,8.423461538651509,-0.016719949431717396,-0.997298875451088,-0.8603560858260607,675.0,-0.044782701414078474,0.05215265015140176,0.14584503289351064,0.0011474609375,2700.0,0.30729004815220834,0.01925925925925926,-8.395215597084729,-8.527278761774406,-6.26092167224688e-05,-1.4610989420603586,1100.0,0.0,970977.0
0.0013054661627393215,0.008328206883743406,-27.0,0.0,0.0,0.0,-27.0,-1.4477929741207791,0.001171875,1.0000005513793286,-1.4477926931067486,0.36627024263143537,9.673317799752112e-05,0.3883746415376663,11,-7.137695979901514,300.0,0.0,-7.727553062369503,-8.662374224254512,-0.9996417865157128,0.4211348401920477,0.5769210129976272,0.0,8.438062372019251,-0.01651222431100905,-0.9983345910906791,-0.8584105307018035,675.0,-0.0506912125274539,0.05360137606039643,0.15745343058225342,0.003515625,2700.0,0.3186026312410831,0.0,-8.422044780425953,-8.547568694011321,-5.173712083960131e-07,-1.4296982840534158,1200.0,0.0,1062102.0
0.0011565951208467595,0.007440457446500659,-27.0,0.0,0.0,0.0,-27.0,-1.4877153631261855,0.00126953125,1.0000016581686046,-1.4877144210302504,0.37422152161598204,7.46974189496541e-05,0.41668865233659746,12,-7.396244601995506,325.0,0.0,-7.407344025993902,-9.556026593105035,-0.9997266113758088,0.17623620149339225,0.5769894808530808,0.0,9.369467232444052,-0.01613710862584412,-0.9989349767565727,-0.857528123789234,675.0,-0.05650703264400363,0.055050534382462504,0.18705593779904944,0.0035400390625,2700.0,0.3273333564400673,0.0,-9.348810750697421,-9.415266759775765,-1.2725146265364556e-06,-1.4746619292741907,1300.0,0.0,1153227.0
0.0010929068259429187,0.006491525669116527,-27.0,0.0,0.0,0.0,-27.0,-1.4553203898903173,0.000927734375,1.0000000013541233,-1.4553203891089652,0.38289724886417387,5.7869154534273545e-05,0.4405905567109585,13,-7.318237319565351,350.0,0.0,-7.250448053239214,-9.537165041149466,-0.9997914224863053,0.11037729878609477,0.5770834684371948,0.0,9.334131342156018,-0.015882809180766344,-0.9991918280720711,-0.858406800935336,675.0,-0.059330953005701306,0.05518708126619458,0.145282349486682,0.00576171875,2700.0,0.3331782788038254,0.0,-9.312993764639856,-9.396578583859236,-1.4822036170569757e-09,-1.4518897825953898,1400.0,0.0,1244352.0
0.0009723194627440535,0.0056444280315190555,-27.0,0.0,0.0,0.0,-27.0,-1.488442699747829,0.000732421875,1.0000000000126352,-1.488442699740699,0.38632811084389684,3.382577283446153e-05,0.4469176195561886,14,-7.339714510415917,375.0,0.0,-7.47208933085686,-9.874114114897969,-0.9998840004205704,0.017044736165278362,0.5770846605300903,0.0,9.634860261117764,-0.01588034685701132,-0.9996781483292579,-0.8565536297348444,675.0,-0.059458236768841745,0.05559401921927929,0.10788684549440113,0.0422119140625,2700.0,0.3351608745753765,0.0,-9.624421030393686,-9.727155973172799,-1.23749381260408e-11,-1.4893526320709936,1500.0,0.0,1335477.0
0.0008881526198820211,0.005655988748185336,-27.0,0.0,0.0,0.0,-27.0,-1.473060072598414,0.00087890625,1.0000000000052531,-1.4730600725961267,0.38955785930156706,2.2098783483670557e-05,0.44598442539572714,15,-7.478475356703027,400.0,0.0,-7.51141973327231,-9.90757765561296,-0.9999291598796844,0.00776224912683218,0.5770846605300903,0.0,9.662093619712362,-0.015880331629887223,-1.000017596781254,-0.855928316792415,675.0,-0.05886809844523668,0.05496476897969842,0.09270750650223678,0.1125732421875,2700.0,0.33663971424102784,0.0,-9.653239181543146,-9.756016419136497,-6.135804531425934e-12,-1.4731691072184738,1600.0,0.0,1426602.0
0.0008290198777103797,0.006000622094143182,-27.0,0.0,0.0,0.0,-27.0,-1.508791910975634,0.00087890625,1.0000000002369174,-1.5087919108002097,0.39629535004496574,2.2123260964690417e-05,0.442672611027956,16,-7.498124696001057,425.0,0.0,-7.5156003495473165,-9.924599648715773,-0.9999290764331817,0.0076223029198504684,0.5770848274230957,0.0,9.673591880941288,-0.01586273140273988,-1.000256071984768,-0.8559465566446306,675.0,-0.05951776821166277,0.05439411411061883,0.08898158654536006,0.1201171875,2700.0,0.33878896161913874,0.0,-9.665234141906769,-9.76999398397553,-2.3776918163306666e-10,-1.5092765410473075,1700.0,0.0,1517727.0
0.0008072761294897646,0.005495375778991729,-27.0,0.0,0.0,0.0,-27.0,-1.493952894236871,0.000732421875,1.000000000100038,-1.4939528941802565,0.402795772254467,2.06385926276198e-05,0.4434024229645729,17,-7.4919109257119,450.0,0.0,-7.478759168661018,-9.847785483796603,-0.9999347850680351,0.007413115445509898,0.5771085307002067,0.0,9.604251230677614,-0.015727977827191354,-1.000343769788742,-0.8547057269170182,675.0,-0.06217333609238267,0.05422492465004325,0.08559564652291049,0.128466796875,2700.0,0.34035323187708855,0.0,-9.597629363315336,-9.695450121191536,-8.447735861460198e-11,-1.494185673077368,1800.0,0.0,1608852.0
0.0007325516984565183,0.004756242572329939,-27.0,0.0,0.0,0.0,-27.0,-1.4915238850782806,0.0007568359375,1.0000000000171316,-1.4915238850662718,0.40849127173423766,1.9809047967100923e-05,0.44725438207387924,18,-7.48474895799326,475.0,0.0,-7.49008429483679,-9.90107669602942,-0.9999380066990853,0.007642438513203957,0.5771833166480065,0.0,9.657607208725981,-0.015546566457487643,-1.000645139813423,-0.8556785816152115,675.0,-0.06446653492748737,0.054020969104021786,0.08729090315365445,0.123974609375,2700.0,0.3412875674664974,0.0,-9.649761529726675,-9.74733278799142,-1.630361096641141e-11,-1.4919779069315053,1900.0,0.0,1699977.0
0.0007023681202554144,0.004955916490871459,-27.0,0.0,0.0,0.0,-27.0,-1.505311470628041,0.000830078125,1.000000000006426,-1.505311470622837,0.4126743145287037,1.9206521824344235e-05,0.45081168711185454,19,-7.49501154633259,500.0,0.0,-7.533610397975143,-9.823940830589086,-0.9999403014779091,0.006526078914855957,0.5772261589765548,0.0,9.582155870453594,-0.01546212900429964,-1.0007668524980544,-0.8550577634188812,675.0,-0.06548896729946137,0.05384738566353917,0.0857238085765087,0.1708740234375,2700.0,0.3419493518769741,0.0,-9.575962369908662,-9.6732280940726,-6.460068176671809e-12,-1.506051487143018,2000.0,0.0,1791102.0
0.0006400877013220452,0.003959034592844546,-27.0,0.0,0.0,0.0,-27.0,-1.48095151103334,0.00068359375,1.0000000000021942,-1.4809515110318898,0.41673276871442794,1.810888727504789e-05,0.45129177197813986,20,-7.505594305856856,525.0,0.0,-7.510580272533666,-9.939837543000746,-0.9999445229768753,0.0057877731986227775,0.5772431775927543,0.0,9.698207377945668,-0.015398692176677286,-1.0010180473327637,-0.8561961871251696,675.0,-0.06704534403979778,0.053439566493034364,0.08555615470803588,0.1825439453125,2700.0,0.34284401684999466,0.0,-9.691203523506527,-9.786536392736298,-1.772922724758498e-12,-1.4814243084145982,2100.0,0.0,1882227.0
0.000627048936439678,0.0021801074792165307,-27.0,0.0,0.0,0.0,-27.0,-1.4598666817555208,0.0006591796875,1.0000000000027802,-1.459866681753192,0.42028922140598296,1.7552616168359236e-05,0.45129103660583497,21,-7.5068455637889056,550.0,0.0,-7.558066143915689,-9.82758103056326,-0.9999466672539711,0.005102790265923634,0.5772634789347648,0.0,9.583775580495608,-0.015329149831086398,-1.0010706156492233,-0.8551113677356625,675.0,-0.06863968558609486,0.05307239070534706,0.08440267351616011,0.1709716796875,2700.0,0.34389265850186346,0.0,-9.575411622092002,-9.673758341799475,-2.7982192396908154e-12,-1.4603045280062759,2200.0,0.0,1973352.0
0.0005744373615016229,0.000772920784947928,-27.0,0.0,0.0,0.0,-27.0,-1.4922767934836165,0.0006591796875,1.0000000000079208,-1.4922767934811418,0.4254982188344002,2.043387717094447e-05,0.4521035872399807,22,-7.446673175890704,575.0,0.0,-7.518628224743037,-9.85249400424534,-0.9999355703592301,0.00489699977800302,0.5773276776075363,0.0,9.614502507472949,-0.015163376345299184,-1.0012827813625336,-0.8554509474532097,675.0,-0.0705485736951232,0.05207874327898025,0.08488346259620823,0.162255859375,2700.0,0.34549412652850153,0.0,-9.606692774494098,-9.700784558094501,-7.431156058598582e-12,-1.4928025831471992,2300.0,0.0,2064477.0
0.0006359415754559449,-5.7585899048717694e-05,-27.0,0.0,0.0,0.0,-27.0,-1.4930978411589049,0.0006591796875,1.0000000000046447,-1.493097841157578,0.429589731246233,2.3598213965669855e-05,0.45402932688593867,23,-7.4676351550787645,600.0,0.0,-7.520644280481482,-9.809198269497792,-0.9999234020709992,0.004478519430209808,0.5773882523179055,0.0,9.571992489899307,-0.015064555522985756,-1.0010347425937653,-0.8545629027212271,675.0,-0.07061648741364479,0.05169434743002057,0.08428253742842709,0.1443115234375,2700.0,0.3464732006192207,0.0,-9.565021258281954,-9.657627345853626,-4.451778425679292e-12,-1.4934689750302632,2400.0,0.0,2155602.0
0.0007358137358096428,-0.0006047086557373404,-27.0,0.0,0.0,0.0,-27.0,-1.481986430518349,0.00078125,1.0000000000042604,-1.4819864305172814,0.433920880407095,2.5437233557568106e-05,0.45415776073932645,24,-7.503164097588925,625.0,0.0,-7.525138885156072,-9.84137235562523,-0.9999162957072258,0.0036377389092525163,0.5774219155311584,0.0,9.60328051091031,-0.015004758373834193,-1.0006319910287857,-0.8547529041548841,675.0,-0.07153256423771381,0.05131524875760078,0.08574400174150662,0.1230712890625,2700.0,0.3481320239603519,0.0,-9.595660043495055,-9.689181455850683,-4.2940808444662836e-12,-1.4822206498427342,2500.0,0.0,2246727.0
0.0007824016298400238,-0.001623539620777592,-27.0,0.0,0.0,0.0,-27.0,-1.4970737866890564,0.0006103515625,1.000000000003165,-1.49707378668827,0.4398751504719257,1.6634475446153375e-05,0.4559039808809757,25,-7.505728526305465,650.0,0.0,-7.490598364828767,-9.799024241960433,-0.9999502137303352,0.003334530148219224,0.5775013729929924,0.0,9.560708467125172,-0.014850443252362311,-1.0004440903663636,-0.8542412167065777,675.0,-0.07326343916356563,0.05089097050949931,0.08515803843360895,0.208837890625,2700.0,0.34975254610180856,0.0,-9.553838763526988,-9.646468992813272,-3.1943724894083175e-12,-1.4972631058500856,2600.0,0.0,2337852.0
0.0008302799295051954,-0.0019167146587278695,-27.0,0.0,0.0,0.0,-27.0,-1.5069509413145465,0.0006591796875,1.000000000002034,-1.5069509413136983,0.4445523679256439,1.9448320153969688e-05,0.45764745622873304,26,-7.492041751354043,675.0,0.0,-7.540961300493843,-9.740141760785425,-0.9999393701553345,0.009600621623783485,0.5775223627686501,0.0,9.504032738770587,-0.014811470336280764,-1.0002509921789169,-0.8539035008681821,675.0,-0.07453290950506926,0.05027350289747119,0.0850148088107785,0.1152099609375,2700.0,0.35072908625006677,0.0,-9.4954548026947,-9.5894324741549,-1.350140062311241e-12,-1.5043029714057894,2700.0,0.0,2428977.0
0.0007884155507781543,-0.0023302844958379863,-27.0,0.0,0.0,0.0,-27.0,-1.498599785981392,0.000537109375,1.0000000000009703,-1.4985997859810596,0.44711991399526596,1.818853725126246e-05,0.45678591057658197,27,-7.506749946760988,700.0,0.0,-7.510500099842047,-9.739712851187653,-0.999944232404232,0.003486550509937057,0.5775815233588218,0.0,9.499237354215827,-0.014711368223652243,-1.000419819355011,-0.854242832188902,675.0,-0.0751732837408781,0.04998099729418755,0.08339863741885656,0.1587158203125,2700.0,0.3517323300242424,0.0,-9.491120732938299,-9.587017823118536,-1.0408803970268577e-12,-1.4989240372307773,2800.0,0.0,2520102.0
0.0007613496025442145,-0.0020530562265776097,-27.0,0.0,0.0,0.0,-27.0,-1.4997497674998497,0.0006591796875,1.0000000000045328,-1.4997497674979967,0.44961634576320647,1.482373143062432e-05,0.457180043309927,28,-7.503077332753721,725.0,0.0,-7.4910478771381195,-9.701723505766202,-0.9999571576714515,0.0025781224437682847,0.5776690050959588,0.0,9.46229964017199,-0.014569396292790771,-1.0005290076136588,-0.853752061369596,675.0,-0.07787145804613829,0.04993529692292213,0.08392258299908753,0.2313232421875,2700.0,0.35212745144963264,0.0,-9.455640456181456,-9.552276942985378,-4.65874497575121e-12,-1.499867983650103,2900.0,0.0,2611227.0
0.0006223972100997344,-0.002138451230712235,-27.0,0.0,0.0,0.0,-27.0,-1.5006583399680178,0.000830078125,1.0000000000038707,-1.5006583399663214,0.4525577396154404,1.3953397012755885e-05,0.4560395203530788,29,-7.500249313099886,750.0,0.0,-7.501174893684019,-9.80915959228017,-0.999960520863533,0.0023359368628431834,0.577703146636486,0.0,9.57394173243026,-0.014508468168787658,-1.0010893791913986,-0.8547433439147426,675.0,-0.07865107022225856,0.04953099433332682,0.0856788558014944,0.2062255859375,2700.0,0.35288767516613007,0.0,-9.567212365029851,-9.657401378908574,-4.054619900118438e-12,-1.500825388098645,3000.0,0.0,2702352.0
0.0005800423561595381,-0.0022749125317204745,-27.0,0.0,0.0,0.0,-27.0,-1.5045401133222727,0.0005859375,1.0000000000009477,-1.5045401133218548,0.45518840849399567,1.3867634913822258e-05,0.4556282125413418,30,-7.501966191598153,775.0,0.0,-7.526021237793989,-9.8450615801859,-0.9999608606100082,0.0023579469045947785,0.5777192190289497,0.0,9.607702773833092,-0.014482568460516631,-1.001260194182396,-0.8548961799548124,675.0,-0.07970815412700176,0.04961578212678432,0.0840870568362773,0.1906005859375,2700.0,0.35284903943538665,0.0,-9.599157312385758,-9.69332812255538,-9.831656477585438e-13,-1.504173299167062,3100.0,0.0,2793477.0
0.0005808476693346165,-0.002352345496183261,-27.0,0.0,0.0,0.0,-27.0,-1.4970730778413053,0.0007080078125,1.000000000000249,-1.4970730778411963,0.45993309542536737,1.328444886894431e-05,0.45651769563555716,31,-7.508232379887357,800.0,0.0,-7.537537766776999,-9.872566800335203,-0.9999630898237228,0.002306580236939073,0.5777226403355599,0.0,9.63511106800473,-0.014476447249762714,-1.0012569397687912,-0.8545926881794003,675.0,-0.08194381669163704,0.04948011506348848,0.08479405292793527,0.21650390625,2700.0,0.353308966755867,0.0,-9.627255444411873,-9.719063140417784,-2.5993123636539233e-13,-1.4968480163955573,3200.0,0.0,2884602.0
0.0006215503686689772,-0.0020299683208577337,-27.0,0.0,0.0,0.0,-27.0,-1.4876359988282066,0.0006591796875,1.0000000000004268,-1.4876359988280456,0.4642872177064419,1.2267553654510265e-05,0.4574942097067833,32,-7.515423638190992,825.0,0.0,-7.498256583728625,-9.883320345298715,-0.9999670073390007,0.0021244869333405933,0.5777250975370407,0.0,9.645905852093884,-0.014472573483362793,-1.0010927766561508,-0.8550655958388234,675.0,-0.08270736467093229,0.04942081226035953,0.08548090032366759,0.2803466796875,2700.0,0.35371294990181923,0.0,-9.637880905616111,-9.73085546128895,-4.3943448863477825e-13,-1.487560214820025,3300.0,0.0,2975727.0
0.0005762882356066257,-0.0024904057325329633,-27.0,0.0,0.0,0.0,-27.0,-1.4876691439480112,0.0007568359375,1.000000000000017,-1.4876691439480054,0.4681763663887978,2.010567784509476e-05,0.45868469700217246,33,-7.499621080512206,850.0,0.0,-7.5028712119620415,-9.70517935367008,-0.9999368414282799,0.0020764564690841274,0.57773357629776,0.0,9.468054168799515,-0.01446649618446827,-1.0012753158807755,-0.8537246002495522,675.0,-0.08348399326205254,0.04946623733267188,0.08268119337592819,0.1459716796875,2700.0,0.35439912155270575,0.0,-9.459685547685776,-9.554806753739943,-1.7742423788942058e-14,-1.4876573397934572,3400.0,0.0,3066852.0
0.0005431039731774945,-0.002421712421346456,-27.0,0.0,0.0,0.0,-27.0,-1.505780991770762,0.0006591796875,1.0000000000000924,-1.5057809917707345,0.47265381142497065,1.5368226388545737e-05,0.4584995724260807,34,-7.501872735523921,875.0,0.0,-7.490433595261446,-9.824108985569703,-0.9999550953507423,0.002081116678989381,0.5777336955070496,0.0,9.584933103855935,-0.014466320862993598,-1.0014091610908509,-0.8555021976979333,675.0,-0.08409895170480013,0.04919098690152168,0.0835129131655583,0.165087890625,2700.0,0.35509911477565764,0.0,-9.577064822162274,-9.672118822564345,-9.211654358694283e-14,-1.5057582510948602,3500.0,0.0,3157977.0
0.0005239332436758559,-0.002337311493465677,-27.0,0.0,0.0,0.0,-27.0,-1.492319690201886,0.000927734375,1.0000000000001417,-1.492319690201839,0.4768079653382301,1.461492947782972e-05,0.4580564022064209,35,-7.494135151350813,900.0,0.0,-7.517456512236799,-9.798748370556364,-0.999957974255085,0.0020687967104288203,0.577734836935997,0.0,9.563080453521234,-0.014465586771257222,-1.0014864653348923,-0.8546315705243615,675.0,-0.08470015376806259,0.04931704923510551,0.08358095248202171,0.214501953125,2700.0,0.3548572599887848,0.0,-9.555108574603732,-9.646800689561314,-1.3977311978339688e-13,-1.4923527746457748,3600.0,0.0,3249102.0
0.0005454691956401803,-0.0030743720417376608,-27.0,0.0,0.0,0.0,-27.0,-1.486559970215626,0.000830078125,1.0000000000000684,-1.4865599702156032,0.4807578332722187,1.7559512252773855e-05,0.45724392458796503,36,-7.482582490153117,925.0,0.0,-7.499790534814076,-9.842601069893789,-0.9999466449022293,0.002442032432745225,0.5777410864830017,0.0,9.592706177635488,-0.014462411846034228,-1.0013996213674545,-0.8576809281803435,675.0,-0.08566055297851563,0.04935917519032955,0.08537317613221662,0.230224609375,2700.0,0.35520483255386354,0.0,-9.586650452010712,-9.689375002153996,-6.946200337177622e-14,-1.4867265304754613,3700.0,0.0,3340227.0
0.0004656294979213271,-0.0029964705929160116,-27.0,0.0,0.0,0.0,-27.0,-1.4999911595631148,0.0004638671875,1.0000000000001212,-1.4999911595630693,0.4850716330111027,1.4927587085367122e-05,0.45834324657917025,37,-7.499503165136228,950.0,0.0,-7.509999054585042,-9.857393849948298,-0.9999567687511444,0.0020839943467153054,0.5777418613433838,0.0,9.612494869039944,-0.014461205899715423,-1.00172161757946,-0.8574565952672856,675.0,-0.08595958277583123,0.04930193927139044,0.08613681275426406,0.2248779296875,2700.0,0.3560485802590847,0.0,-9.604511943883761,-9.705110399103834,-1.2431177044324595e-13,-1.5001964987109804,3800.0,0.0,3431352.0
0.00048799643845995886,-0.002846212888834998,-27.0,0.0,0.0,0.0,-27.0,-1.4906339551802885,0.000390625,1.0000000000000957,-1.4906339551802374,0.48871123865246774,1.4323866207632818e-05,0.4595922455191612,38,-7.5011004619359305,975.0,0.0,-7.5087615469076106,-9.89041789487742,-0.9999591007828712,0.002073198800164304,0.5777427554130554,0.0,9.645734416639622,-0.014460475812666119,-1.0016313940286636,-0.8573728896590183,675.0,-0.08623958639800548,0.049342384468764065,0.08413062353787251,0.2379150390625,2700.0,0.35697872787714,0.0,-9.637688813014103,-9.737612795997343,-1.0105786411708138e-13,-1.490507805690061,3900.0,0.0,3522477.0
0.0004542423084785696,-0.0030712412146385757,-27.0,0.0,0.0,0.0,-27.0,-1.4984875166545637,0.0005615234375,1.000000000000813,-1.4984875166541314,0.49317284002900125,1.5282237609426374e-05,0.4624766357243061,39,-7.503112789921238,1000.0,0.0,-7.507707622933443,-9.806934149005306,-0.9999554082751274,0.001970130776440529,0.5777542889118195,0.0,9.562823928048433,-0.014446138450875879,-1.001767534017563,-0.856741459951445,675.0,-0.08729946110397577,0.04937333157286048,0.08380097464968193,0.1964111328125,2700.0,0.35794949904084206,0.0,-9.55520162314866,-9.654175304313766,-8.618773564808975e-13,-1.4986041760742705,4000.0,0.0,3613602.0
0.0004993515569367446,-0.00321079968707636,-27.0,0.0,0.0,0.0,-27.0,-1.500261474694868,0.0006103515625,1.0000000000003297,-1.5002614746947074,0.49744011983275416,1.5461010423223343e-05,0.46548418551683424,40,-7.499536514157913,1025.0,0.0,-7.51152954975283,-9.822111444914963,-0.9999547213315964,0.0018136780062002623,0.5777558505535125,0.0,9.579585396086982,-0.014442071481607855,-1.0015855938196183,-0.8572048105226713,675.0,-0.08784276898950338,0.04910567356273532,0.08452269273188955,0.2349853515625,2700.0,0.3587722428143024,0.0,-9.570650836009358,-9.670247685926117,-3.2306268339066736e-13,-1.5003705163265344,4100.0,0.0,3704727.0
0.0004500474518863484,-0.003353321406757459,-27.0,0.0,0.0,0.0,-27.0,-1.4780168070940394,0.0006591796875,1.0000000000004872,-1.478016807093809,0.5005587607622146,1.1016324708634784e-05,0.46617083325982095,41,-7.504936361529974,1050.0,0.0,-7.509884026709435,-9.81491399078658,-0.9999718397855759,0.0017461960092033703,0.5777596607804298,0.0,9.576629242180113,-0.014435606263577937,-1.0017844498157502,-0.8555086624517572,675.0,-0.08861153982579709,0.04904094217345119,0.084523446038447,0.2337646484375,2700.0,0.3599494032561779,0.0,-9.567983116156716,-9.661595187311688,-4.983284006306741e-13,-1.4779651567102097,4200.0,0.0,3795852.0
0.000460127124824794,-0.003483040409628302,-27.0,0.0,0.0,0.0,-27.0,-1.4859086818967557,0.00078125,1.0000000000008007,-1.4859086818963987,0.5044373065233231,1.5149085959365038e-05,0.4645056739449501,42,-7.50244950770526,1075.0,0.0,-7.514326065630669,-9.866830410244749,-0.9999559193849563,0.0017544667283948504,0.5777648776769638,0.0,9.625138104288528,-0.014425255288369954,-1.0017438143491746,-0.8564244613255141,675.0,-0.0884859886020422,0.049327738117426634,0.0842647322502066,0.2135986328125,2700.0,0.3605551294982433,0.0,-9.616834245900677,-9.712891138475516,-8.292550449587865e-13,-1.4859776348782123,4300.0,0.0,3886977.0
0.0005284375329210889,-0.003828394750598818,-27.0,0.0,0.0,0.0,-27.0,-1.489535069976413,0.001025390625,1.000000000000008,-1.4895350699764094,0.5084698542952537,1.5450541627615167e-05,0.46435303539037703,43,-7.501490134108624,1100.0,0.0,-7.558441091326683,-9.845230129624753,-0.9999547675251961,0.006070742540574061,0.5777693390846252,0.04,9.609696940517836,-0.014415732584893703,-1.0014682948589324,-0.8571804269216955,652.0,-0.08946504537016153,0.04941237634047866,0.08589734248849501,0.2010986328125,2700.0,0.3612894296646118,0.0,-9.600261149054482,-9.693130086459124,-8.113349406495384e-15,-1.4882240529991304,4400.0,0.0,3977458.0
0.0005079565271444153,-0.004215421061962843,-27.0,0.0,0.0,0.0,-27.0,-1.4874546857900017,0.0006103515625,1.0000000000000093,-1.4874546857899986,0.5111938551068306,1.647320466418023e-05,0.4626230575144291,44,-7.516344701533499,1125.0,0.0,-7.497701538957764,-9.86581627739111,-0.9999508172273636,0.0016922261108641094,0.5777693390846252,0.0,9.612540905232645,-0.014415726065635681,-1.0015509188175202,-0.8580136552060139,675.0,-0.08837892152369023,0.04913635663688183,0.08647402513046028,0.2528564453125,2700.0,0.3629351004958153,0.0,-9.605880079164283,-9.714253873525758,-9.647629570281044e-15,-1.4878248491169266,4500.0,0.0,4068583.0
0.0005287363979732618,-0.004413152602501214,-27.0,0.0,0.0,0.0,-27.0,-1.4760148790010141,0.000439453125,1.0000000000000018,-1.4760148790010135,0.5112598463892937,1.616157273929275e-05,0.4613687567412853,45,-7.501736465157353,1150.0,0.0,-7.5007507897169745,-9.73852252903023,-0.9999520123004914,0.0017758675978856498,0.5777693390846252,0.0,9.500210904258214,-0.014415720477700233,-1.0014670848846436,-0.8571722695793141,675.0,-0.08713854961097241,0.04969429355114698,0.10287133260513785,0.2759765625,2700.0,0.36469731554389,0.0,-9.49651173220401,-9.590089040908106,-1.8326619218265677e-15,-1.476133566060422,4600.0,0.0,4159708.0
0.0005411001009633764,-0.004443954688031227,-27.0,0.0,0.0,0.0,-27.0,-1.4881600995417101,0.00068359375,1.0000000000000007,-1.4881600995417101,0.5110101029276848,2.029223501267552e-05,0.4627968542277813,46,-7.4960647239977725,1175.0,0.0,-7.320157238267552,-9.884859016669811,-0.9999361112713814,0.016250266657160867,0.5777693390846252,0.0,9.63334018438482,-0.014415720477700233,-1.001417237520218,-0.859351502575737,675.0,-0.08768767789006233,0.04959095176309347,0.09856960379453943,0.150048828125,2700.0,0.36615526899695394,0.0,-9.629764063707723,-9.734759509285656,-6.542196567272245e-16,-1.4833117839556376,4700.0,0.0,4250833.0
0.0009525967907393351,-0.00461544212885201,-27.0,0.0,0.0,0.03,-27.0,-1.5162428326337267,0.0006103515625,1.0000000000000047,-1.516242832633725,0.5131068244576454,4.13679509620124e-05,0.465444253385067,47,-7.346830970299947,1200.0,0.0,-7.5244525366669395,-9.827194378211491,-0.999854962527752,0.003963714232399558,0.57776939868927,0.0,9.563847776468299,-0.014415640057995916,-0.9997577026486397,-0.8625193969724932,675.0,-0.0899375582113862,0.048558037262409925,0.10761093529553356,0.1698486328125,2645.0,0.3694311916828156,0.0,-9.553032751074607,-9.682725431100232,-4.816693768277105e-15,-1.5154994288420816,4800.0,0.0,4340437.0
0.001047830817697104,-0.00440167177002877,-27.0,0.0,0.0,0.02,-27.0,-1.5061464287500725,0.00126953125,1.0000000000000042,-1.5061464287500712,0.5149590209126472,4.27004788434715e-05,0.46911143586039544,48,-7.458882409380096,1225.0,0.0,-7.518204156389728,-9.898609473137814,-0.9998498275876045,0.004033033048086387,0.57776939868927,0.0,9.624353432855685,-0.014415507204830647,-0.9993736281991005,-0.8673922577843769,675.0,-0.08793095704168082,0.04845530856400728,0.11315570148481005,0.1314208984375,2676.0,0.371768295019865,0.0,-9.607310076234716,-9.750139403353689,-4.3026195919897144e-15,-1.505419974528142,4900.0,0.0,4430898.0
0.000875299604376778,-0.004173396492842585,-27.0,0.0,0.0,0.0,-27.0,-1.5054109612174251,0.0011474609375,1.000000000000011,-1.5054109612174216,0.5169599369168282,4.26988898198033e-05,0.4726474404335022,49,-7.5039081039992235,1250.0,0.0,-7.495004300452487,-9.908808950136429,-0.9998498365283013,0.004148560124306295,0.5777694582939148,0.0,9.632672000335134,-0.01441536012571305,-1.000069434940815,-0.8667758076524479,675.0,-0.08775557018816471,0.048463198356330395,0.10563849515696751,0.115283203125,2700.0,0.37310646697878835,0.0,-9.617059855198132,-9.758336997829451,-1.1243305884686158e-14,-1.5050092230131864,5000.0,0.0,4522023.0
0.0007795205994625576,-0.0037756875331979244,-27.0,0.0,0.0,0.0,-27.0,-1.5039855773808122,0.0009521484375,1.0000000000000102,-1.5039855773808086,0.5191367715597153,3.8540497234862416e-05,0.47509523034095763,50,-7.493688113647272,1275.0,0.0,-7.495366716599666,-9.901369368249856,-0.9998658508062362,0.004176223022257067,0.5777694582939148,0.0,9.628054411843301,-0.014415013953112066,-1.0004557013511657,-0.8668793692850159,675.0,-0.08826867546886205,0.04831069950014353,0.1132669100888608,0.126123046875,2700.0,0.37418090328574183,0.0,-9.612179449848659,-9.753915826205718,-1.0677133848808307e-14,-1.5038093148146507,5100.0,0.0,4613148.0
0.0007277357231942006,-0.003538902569562197,-27.0,0.0,0.0,0.0,-27.0,-1.4938089597595219,0.00078125,1.0000000000007927,-1.4938089597591897,0.5219351872801781,4.016080756628071e-05,0.4779791601002216,51,-7.49404516121434,1300.0,0.0,-7.509482261990575,-9.836846849255352,-0.999859607219696,0.0027444231933962983,0.5777782037854194,0.0,9.565297531959544,-0.014380665798671543,-1.0006645500659943,-0.8640975903050275,675.0,-0.08932838644832372,0.0481373299844563,0.10511579742578506,0.1711669921875,2700.0,0.37517845779657366,0.0,-9.550508456957122,-9.690296868506232,-8.070787855364562e-13,-1.4937006210256523,5200.0,0.0,4704273.0
0.0006005000512232072,-0.003328286448959261,-27.0,0.0,0.0,0.0,-27.0,-1.5086042116314435,0.00068359375,1.000000000001552,-1.5086042116308818,0.5238094106316566,2.8156089706499186e-05,0.4778340272605419,52,-7.499790196545643,1325.0,0.0,-7.5068794141118795,-9.891100292726392,-0.9999058336019516,0.0019024061571901274,0.577801625430584,0.0,9.633901730148475,-0.014342909678816795,-1.001177680492401,-0.8607142904671491,675.0,-0.09022112376987934,0.04818550711497664,0.09653731181808325,0.178125,2700.0,0.3760670699179173,0.0,-9.621786923131271,-9.735709925428376,-1.5711960044102533e-12,-1.5089623902433558,5300.0,0.0,4795398.0
0.0005453132260299753,-0.0031189382716547698,-27.0,0.0,0.0,0.0,-27.0,-1.5024845145513837,0.0007568359375,1.000000000000627,-1.502484514551179,0.5257174506783485,9.855150312887418e-06,0.4777056433260441,53,-7.4975255826875244,1350.0,0.0,-7.510177526659654,-9.781193364755604,-0.9999763160943985,0.006509281334081818,0.577842615544796,0.0,9.546541385720165,-0.014281740481965243,-1.0014002650976181,-0.8545781776585499,675.0,-0.09162956699728966,0.04820713941007852,0.08524388584079715,0.3323486328125,2700.0,0.3762440413236618,0.0,-9.539479601137389,-9.629187567080766,-6.069788523672635e-13,-1.499311620125474,5400.0,0.0,4886523.0
0.0005160842374607455,-0.003236911742715165,-27.0,0.0,0.0,0.0,-27.0,-1.4886202869777194,0.000732421875,1.0000000000001221,-1.4886202869776752,0.5290265679359436,1.320132993214429e-05,0.47781701311469077,54,-7.501280290157431,1375.0,0.0,-7.524543280851652,-9.799360754860384,-0.9999634265899658,0.001830437190504608,0.5778432294726372,0.0,9.560663152630408,-0.014280324289575218,-1.0015181303024292,-0.8550690023141214,675.0,-0.09371158480644226,0.04785410789772868,0.08601760193456752,0.2704345703125,2700.0,0.3770184420049191,0.0,-9.554338351360823,-9.64653875043366,-1.1975771335808591e-13,-1.4888307874868179,5500.0,0.0,4977648.0
0.000475508227100363,-0.0031857217254582793,-27.0,0.0,0.0,0.0,-27.0,-1.461246679732063,0.0004638671875,1.0000000000001865,-1.4612466797319938,0.5321015760302543,1.4084847418871504e-05,0.47849075868725777,55,-7.507554695037624,1400.0,0.0,-7.50795512651132,-9.807312109984087,-0.9999600186944008,0.0017828188644146744,0.577844500541687,0.0,9.569149464133217,-0.014277291460894048,-1.0016817510128022,-0.8554387655705795,675.0,-0.09497903194278479,0.04737617680802941,0.08709188082385075,0.2603515625,2700.0,0.3777206212282181,0.0,-9.562722334890534,-9.6555425519457,-1.69109176770584e-13,-1.4610400158517298,5600.0,0.0,5068773.0
0.00048785924445837736,-0.0032841481151990592,-27.0,0.0,0.0,0.0,-27.0,-1.4888521436990334,0.0005859375,1.000000000003031,-1.4888521436980227,0.5351175963878632,8.337881922670931e-06,0.4786388650536537,56,-7.498478161977308,1425.0,0.0,-7.507096273683296,-9.82829778366961,-0.9999821498990059,0.0017251149461494023,0.5779967531561852,0.0,9.58887188321458,-0.014038981962949037,-1.0016319632530213,-0.8550525302867754,675.0,-0.0949565064162016,0.047522359900176524,0.09086551427477815,0.3392578125,2700.0,0.3775469817221165,0.0,-9.584701081438885,-9.675530050391822,-3.0630562803824686e-12,-1.488969938677022,5700.0,0.0,5159898.0
0.0005069991042546462,-0.0032674466376192866,-27.0,0.0,0.0,0.0,-27.0,-1.4913272106733384,0.0005615234375,1.000000000001379,-1.4913272106728983,0.5374317735433578,1.097720044072048e-05,0.47978279665112494,57,-7.50087677317974,1450.0,0.0,-7.500468209256794,-9.733227372286109,-0.9999719858169556,0.0016699316202660858,0.5780133932828904,0.0,9.495659348478844,-0.014004526985809207,-1.0015547841787338,-0.8547336288262158,675.0,-0.0944462113082409,0.047436789702624084,0.08734651474745943,0.322216796875,2700.0,0.37779917418956754,0.0,-9.488238255691423,-9.578839642131763,-1.1917891573018904e-12,-1.4914285538955458,5800.0,0.0,5251023.0
0.0004733147099614143,-0.003400540165603161,-27.0,0.0,0.0,0.0,-27.0,-1.5074447209157271,0.0004638671875,1.000000000000915,-1.5074447209146455,0.5399341106414794,9.915079920119751e-06,0.4807075135409832,58,-7.49907723936819,1475.0,0.0,-7.480489740734516,-9.859706114815555,-0.9999760821461677,0.0015238344827984203,0.5780278861522674,0.0,9.622660106967153,-0.01396713915746659,-1.0016906172037126,-0.8554447040747618,675.0,-0.09436171893030405,0.04732742579653859,0.08742738634982108,0.29404296875,2700.0,0.378430500626564,0.0,-9.617094575710762,-9.705881621458904,-1.801583105796529e-12,-1.5075228472885835,5900.0,0.0,5342148.0
0.0004625237997970544,-0.003355921700131148,-27.0,0.0,0.0,0.0,-27.0,-1.4975835613392132,0.0005859375,1.0000000000022446,-1.4975835613382515,0.5429303750395775,1.1223962781059527e-05,0.4818137414753437,59,-7.491574335655112,1500.0,0.0,-7.537015405124836,-9.852648823166145,-0.9999710455536842,0.0015766858730583548,0.5780473038554191,0.0,9.616579524295705,-0.01392797997687012,-1.0017341405153275,-0.8549953672962147,675.0,-0.09482595231384039,0.04716682340949774,0.0872998502233479,0.2908935546875,2700.0,0.3792323499917984,0.0,-9.611360185493059,-9.698846364323268,-2.24269000596841e-12,-1.4978040656852103,6000.0,0.0,5433273.0
0.0004912206524750218,-0.0036384356790222228,-27.0,0.0,0.0,0.0,-27.0,-1.502843440794189,0.0006103515625,1.0000000000003357,-1.502843440794095,0.5458167538046836,8.069899683960102e-06,0.48239137083292005,60,-7.509259508621075,1525.0,0.0,-7.543920865111434,-9.841913110453884,-0.9999831885099411,0.0017247932121512467,0.5780634939670563,0.0,9.601818559776857,-0.013898550299927592,-1.0016183882951737,-0.8551448569574859,675.0,-0.09500707257539034,0.04688817821443081,0.08705734007166763,0.3398193359375,2700.0,0.38021459728479384,0.0,-9.5962934229245,-9.68727394771539,-2.896534626195122e-13,-1.5029179280545195,6100.0,0.0,5524398.0
0.0005316257818776648,-0.004127575864549727,-27.0,0.0,0.0,0.0,-27.0,-1.4850393423243076,0.0006591796875,1.0000000000000002,-1.4850393423243076,0.5490079805254936,8.758413730447501e-06,0.48265096470713614,61,-7.513797261615799,1550.0,0.0,-7.512305841629134,-9.857460771484577,-0.9999805301427841,0.001469287229725899,0.5780635476112366,0.0,9.623225191484943,-0.013898410834372044,-1.0014554589986802,-0.8552161108556902,675.0,-0.09432502742856741,0.04690726986154914,0.0879636589381376,0.33798828125,2700.0,0.38153692334890366,0.0,-9.617211014216164,-9.704005989481777,-6.203634673041218e-17,-1.485051718131561,6200.0,0.0,5615523.0
0.00043659457078319973,-0.0042480875737965105,-27.0,0.0,0.0,0.0,-27.0,-1.49506799580995,0.0004638671875,1.0000000000000007,-1.49506799580995,0.5514344051480293,1.4417870988836513e-05,0.4827788665890694,62,-7.505629587422038,1575.0,0.0,-7.518181922217587,-9.826093802542598,-0.9999587312340736,0.0014174479483187274,0.5780635476112366,0.0,9.590054919896962,-0.013898404315114021,-1.0018387228250503,-0.8544795516863815,675.0,-0.09529564343392849,0.04669175753369927,0.08582777616342555,0.2727294921875,2700.0,0.38288194835186007,0.0,-9.584287532716484,-9.672613726759954,-6.129973317584603e-16,-1.495122442055529,6300.0,0.0,5706648.0
0.0005003835656680166,-0.004347295488696545,-27.0,0.0,0.0,0.0,-27.0,-1.5099751505826133,0.000537109375,1.0,-1.5099751505826133,0.5534021526575088,8.094049456985886e-06,0.4827018931508064,63,-7.507893761194681,1600.0,0.0,-7.5012246643857114,-9.702939972047663,-0.9999830842018127,0.0013793916634811006,0.5780635476112366,0.0,9.469121671621465,-0.013898373581469059,-1.0015814512968064,-0.8531184201769065,675.0,-0.0949642276391387,0.046502060070633885,0.08522640668199757,0.3480712890625,2700.0,0.38393272235989573,0.0,-9.463946680664105,-9.551782091802407,-4.989776398821626e-17,-1.5101102753268516,6400.0,0.0,5797773.0
0.00046052195903030225,-0.004387373907957226,-27.0,0.0,0.0,0.0,-27.0,-1.4968999191056356,0.0005859375,1.0,-1.4968999191056356,0.5556028619408607,9.567077518113365e-06,0.48341709077358247,64,-7.501774937622596,1625.0,0.0,-7.4834352443423215,-9.71390709366257,-0.9999774128198624,0.001272685794265531,0.5780635476112366,0.0,9.478001345787609,-0.013898373581469059,-1.0017422169446946,-0.8540541071881307,675.0,-0.09524002857506275,0.04627484744414687,0.08586184199597957,0.34931640625,2700.0,0.3854313582181931,0.0,-9.472024136099765,-9.560974253095925,-9.344461158028277e-17,-1.4969587572330147,6500.0,0.0,5888898.0
0.00046037822248763406,-0.004645473195705563,-27.0,0.0,0.0,0.0,-27.0,-1.4938608032549383,0.0009521484375,1.0000000000000002,-1.4938608032549383,0.5561075612902642,9.941458432649598e-06,0.4836518831551075,65,-7.496348101237888,1650.0,0.0,-7.5088755071920685,-9.788486428785523,-0.9999759703874588,0.00130491508858535,0.5780635476112366,0.0,9.555529901430772,-0.013898373581469059,-1.00174278318882,-0.8547427234181668,675.0,-0.09588226843625307,0.04614206086844206,0.08609812607230301,0.2830078125,2700.0,0.38656307086348535,0.0,-9.549047698403758,-9.637049838695182,-2.3522937362507046e-16,-1.4938442083649939,6600.0,0.0,5980023.0
0.00046560871196561494,-0.004970582795795053,-27.0,0.0,0.0,0.0,-27.0,-1.5050693474572983,0.0005126953125,1.0000000000019422,-1.505069347456447,0.5563505202531814,1.1801473169725795e-05,0.4850000344216824,66,-7.502217526283841,1675.0,0.0,-7.505980714120093,-9.849787763883628,-0.9999688044190407,0.0014709086566475986,0.5780743166804314,0.0,9.600943975437294,-0.013883174606598913,-1.0017216980457306,-0.8569590314742527,675.0,-0.09640526957809925,0.045913318172097206,0.08679646675429063,0.2823974609375,2700.0,0.3880766876041889,0.0,-9.594706841434345,-9.693006269987588,-1.920274557797417e-12,-1.5050556500292611,6700.0,0.0,6071148.0
0.0005632652508211322,-0.004645830555818975,-27.0,0.0,0.0,0.0,-27.0,-1.4871164942752917,0.00087890625,1.000000000003646,-1.4871164942727773,0.55691127628088,1.6153643923644267e-05,0.4865864314138889,67,-7.499954562920897,1700.0,0.0,-7.474781940984538,-9.83852063941911,-0.9999520525336265,0.0017028211490718466,0.578192238509655,0.0,9.588804981688394,-0.013654496939852833,-1.0013278543949127,-0.8582648221054114,675.0,-0.0969941472634673,0.045382557064294816,0.08855214626689906,0.2664306640625,2700.0,0.38928934633731843,0.0,-9.582305997032828,-9.68343546348252,-4.482952195933533e-12,-1.4868113966232275,6800.0,0.0,6162273.0
0.0007446900781360455,-0.005478790134657174,-27.0,0.0,0.0,0.0,-27.0,-1.4764420037099986,0.000732421875,1.000000000000109,-1.4764420037099626,0.5584520667791366,2.7043448835684102e-05,0.48874266594648363,68,-7.433237763999856,1725.0,0.0,-7.5037219942913715,-9.901774919919392,-0.9999101161956787,0.00246485173833039,0.5782268077135087,0.0,9.64743144216541,-0.013605306996032596,-1.000596171617508,-0.8598752184974728,675.0,-0.097510283626616,0.04534619310870767,0.09489404419824002,0.1993408203125,2700.0,0.3904674120247364,0.0,-9.640860271253983,-9.745671099589973,-6.850723673637305e-14,-1.4764040330274224,6900.0,0.0,6253398.0
0.0007687784382142127,-0.00602779375622049,-27.0,0.0,0.0,0.0,-27.0,-1.5026203648488177,0.0008056640625,1.000000000000775,-1.5026203648485534,0.558323846757412,2.5616195762268036e-05,0.4922485835850239,69,-7.494028691758486,1750.0,0.0,-7.525972480610494,-9.929038039911655,-0.9999156087636948,0.002195842907399245,0.5787494435906411,0.0,9.662560685135588,-0.01263429329264909,-1.0004990205168725,-0.8628090281024925,675.0,-0.09789245873689652,0.04559510434046388,0.09505710466836162,0.2586669921875,2700.0,0.3914826065301895,0.0,-9.655565101892458,-9.775015587508928,-4.018206100542218e-13,-1.502702384984462,7000.0,0.0,6344523.0
0.0007132378988899291,-0.006607135152444243,-27.0,0.0,0.0,0.0,-27.0,-1.5051382116718748,0.000634765625,1.0000000000000029,-1.5051382116718741,0.5601421132683754,2.5292317582170652e-05,0.4960970625281334,70,-7.502756821425775,1775.0,0.0,-7.489367984924231,-9.886078299774695,-0.9999168679118157,0.0022730649880677153,0.5788560509681702,0.0,9.62018014626111,-0.012453349307179451,-1.0007230371236802,-0.8625047874564189,675.0,-0.0992061598226428,0.04603925487026572,0.09545600178022044,0.24951171875,2700.0,0.39254084378480913,0.0,-9.611612868398533,-9.73195641726402,-1.3710817245198023e-15,-1.505414175026444,7100.0,0.0,6435648.0
0.0007246568900882266,-0.006889356952160597,-27.0,0.0,0.0,0.0,-27.0,-1.4983287700539236,0.0007568359375,1.00000000000001,-1.4983287700539223,0.5628012508153916,2.7007407766177494e-05,0.5003039970993995,71,-7.483500964065009,1800.0,0.0,-7.500506101407373,-9.756893874191302,-0.9999102637171745,0.0019534260030066725,0.5788602828979492,0.0,9.50602019639488,-0.01244651060551405,-1.0006769716739654,-0.8586668266565539,675.0,-0.09852386731654406,0.046087254956364634,0.09325161469727472,0.1953857421875,2700.0,0.3935999497771263,0.0,-9.496308631972934,-9.606263253536273,-2.720884644711449e-15,-1.4984080373668167,7200.0,0.0,6526773.0
0.0006945550456293858,-0.006995712860953063,-27.0,0.0,0.0,0.0,-27.0,-1.491266499386984,0.0009521484375,1.0000000000000004,-1.491266499386984,0.5646225586533546,1.9049063303100412e-05,0.5020393341779709,72,-7.4970858017003845,1825.0,0.0,-7.568526496375241,-9.92333620740249,-0.9999409019947052,0.00558121854531973,0.578860342502594,0.0,9.671973550671883,-0.012446461245417595,-1.0007983803749085,-0.8591048488655361,675.0,-0.09898170810192823,0.04598420886322856,0.09230748930071987,0.27001953125,2700.0,0.3957991376519203,0.0,-9.664418135586388,-9.768443712957586,-1.4448851281301816e-16,-1.4914194539730623,7300.0,0.0,6617898.0
