ReemS3/reg_curious_hac/data/d4a6886/CausalDependenciesMujocoEnv-o1-v0/alg:chac|eta:0.25|fw:1|fwhidsiz:256,256,256|nlev:2|reg:True|rolbatsiz:1|timsca:10,10|100/progress.csv
train_0/reward,train_1/reward_-1.0_frac,test_0/avg_q,train_0/q_loss,train_0/q_grads_std,train_1/target_q,train/episodes,train_0/avg_q,train_0/fw_bonus,train_1/current_q,train_1/reward,train_0/mu_grads_std,test_1/subgoal_succ_rate,train_1/fw_loss,test/success_rate,train_1/reward_-0.0_frac,train_0/mu_loss,train_0/reward_-1.0_frac,train_1/q_grads,train_0/target_q,train_0/reward_-0.0_frac,train_1/subgoal_succ_rate,train_0/next_q,train_1/n_subgoals,train_1/avg_q,train_1/mu_loss,train_1/mu_grads_std,train_0/q_grads,train_0/current_q,train_1/reward_-10.0_frac,train_0/fw_loss,train_1/q_grads_std,policy/steps,train_1/fw_bonus,train/success_rate,test/episodes,train_1/next_q,epoch,test_1/avg_q,train_1/q_loss,train_0/mu_grads,train_1/mu_grads,test_1/n_subgoals
-0.8617238384060328,0.0002685546875,-7.769734551451914,0.506698102748995,0.22212553694844245,-4.878334500910785,100.0,-3.528851147956879,-0.9991848513484001,-4.856348164571388,-1.1099571902275784,0.1573650199919939,0.3601108033240997,0.0013531894714105875,0.0,0.0,3.205870000229986,0.01630859375,0.03566637691110373,-3.4617791101121043,0.0,0.213,-3.1777111756437924,1000.0,-3.4981102001293873,5.174390809577094,0.08533903695642948,0.039006298407912254,-3.2987475001049185,0.0,0.00017471045903221237,0.27027077600359917,10856.0,-1.0061473309993745,0.0,25.0,-4.95606294087891,0,-7.943366857669217,2.5171423632286003,-0.007108936773147434,0.017785196052864195,361.0
-0.862533677619649,0.000146484375,-5.724935556271179,0.6016936943325104,0.24707352928817272,-4.900258616021349,200.0,-7.151804962494439,-0.9987753689289093,-4.847977968622198,-1.0980636784326634,0.21094197183847427,0.3342857142857143,0.0016094157472252846,0.0,0.0,3.027651961352002,0.0052734375,0.034094347525388,-3.295509736305479,0.0,0.294,-3.003002514461746,1000.0,-6.458176769659738,5.123262490098452,0.08612008299678564,0.0409321459941566,-3.132900439245598,0.0,0.00025344827699882446,0.3324409581720829,21169.0,-1.0049459010362625,0.0,50.0,-4.881775549634796,1,-5.459356429718352,2.315076532552239,-0.018372576776891948,0.01818821341730654,350.0
-0.861155033877003,0.0002197265625,-8.887476580008967,0.5733834756221571,0.2593157023191452,-4.596151431470952,300.0,-5.8372948307749875,-0.9988903000950813,-4.522062398539054,-1.0880388160556322,0.256066757440567,0.0,0.00138287870795466,0.0,0.0,3.1842151956351628,0.0122314453125,0.027775440411642194,-3.193889902913405,0.0,0.312,-3.1148646665745123,1000.0,-5.115262557152367,4.833068548531761,0.08613891024142503,0.041396780870854855,-3.1977031989793394,0.0,0.00023134760231187103,0.3665850341320038,31278.0,-1.0060081511735917,0.0,75.0,-4.646119089032676,2,-5.234832433619553,2.2058529768169897,-0.025086900452151895,0.018197031086310746,250.0
-0.8610198712529382,0.0001953125,-0.8107568173978638,0.8865452681947579,0.27444292306900026,-4.703793812720134,400.0,-6.616419851519853,-0.9991088584065437,-4.618983438999168,-1.0900909567280905,0.2880596838891506,0.0,0.0012367048795567826,0.0,0.0,2.883969313449112,0.0185791015625,0.024186009215191005,-3.1938925745996776,0.0,0.147,-2.8865324498445046,1000.0,-4.6385517869001704,5.076193272887115,0.0861390084028244,0.04732309030368924,-2.934034897438404,0.0,0.00018932317070721182,0.3921117939054966,42618.0,-1.006693536043167,0.0,100.0,-4.994141013856921,3,-6.061250806384809,2.1857505229610887,-0.03656333973631263,0.018197076395154,250.0
-0.8608266190887661,0.000244140625,-7.408499872085563,0.3193004340916512,0.28586781695485114,-4.738524366923947,500.0,-3.8065705138074533,-0.9991034522652626,-4.658540400171807,-1.0957475551957032,0.3211435556411743,0.18032786885245902,0.0014453590236371383,0.0,0.0,2.393822894535895,0.0107666015625,0.02188049266114831,-2.7037022539464393,0.0,0.191,-2.3551609579439754,1000.0,-5.219458582423187,5.257356338963823,0.0861390084028244,0.050068818777799604,-2.6140587155527184,0.0,0.00019035982550121843,0.41374693661928175,53657.0,-1.0057151556015014,0.0,125.0,-5.147252895424005,4,-5.197968386251882,2.4674717791845646,-0.03781638639047742,0.018197076395154,305.0
-0.8624234016650008,0.0001708984375,-1.7577017104242492,0.11572935033454104,0.29175965338945387,-4.871852406447122,600.0,-4.4102007900730875,-0.9990840628743172,-4.755179772189442,-1.0898280691544642,0.3180942513048649,0.9780979827089337,0.0013479046960128472,0.0,0.0,2.079877364306423,0.0148681640625,0.017674242705106737,-2.425123736757409,0.0,0.352,-2.0418029557840542,1000.0,-5.528748576304061,5.4152048197740585,0.0861390084028244,0.051965062599629165,-2.428100687260725,0.0,0.0001940890433616005,0.43031183555722236,63541.0,-1.0061721235513688,0.0,150.0,-5.37435312923249,5,-5.214923268038394,2.2124537566567577,-0.03552325125783682,0.018197076395154,1735.0
-0.8642059801248252,9.765625e-05,-1.2197961727864721,0.1582670679718165,0.29953487440943716,-4.562506171632483,700.0,-2.301194005454955,-0.9990682736039161,-4.440665376094918,-1.0689595473799272,0.31379442662000656,0.2985507246376812,0.0013133646454662085,0.0,0.0,1.9901537479515525,0.014794921875,0.015678296657279135,-2.3053168082324214,0.0,0.6062437059415912,-1.936104698794439,993.0,-5.677862648104574,5.269775077656971,0.0861390084028244,0.05358297266066074,-2.269189371174499,0.0,0.0001971285731997341,0.4460571870207787,71244.0,-1.0063340812921524,0.02,175.0,-5.015299070509877,6,-4.67586415128167,1.9124184967151652,-0.033477158099412915,0.018197076395154,345.0
-0.8624621686118189,9.765625e-05,-1.4297430939234768,0.18296335799076835,0.30502535328269004,-4.464691907576549,800.0,-1.7897862584504365,-0.999209001660347,-4.35716660457251,-1.0508487514816807,0.32151952385902405,0.9832372970141435,0.0011437531473347917,0.04,0.0,2.020577260190783,0.0291259765625,0.013050101487897337,-2.303859584930008,0.0,0.497,-1.9688961329232035,1000.0,-5.774182208828404,5.114611728136813,0.0861390084028244,0.053665516618639234,-2.279848868034611,0.0,0.00017006591406243388,0.45944420248270035,79826.0,-1.0071293801069259,0.0,200.0,-4.9080969321217465,7,-5.610987025845234,1.76804207825569,-0.0371916014701128,0.018197076395154,1909.0
-0.863225040587713,0.0001220703125,-3.2009217688176657,0.12373529413967436,0.31001978293061255,-4.331577039936564,900.0,-2.6747083648864898,-0.9991926178336143,-4.246930867788272,-1.0232680271758,0.324075598269701,0.8952496954933008,0.0010809708008309826,0.0,0.0,2.1795857805703465,0.03193359375,0.011996161029674112,-2.4921206266794584,0.0,0.7893681043129388,-2.109937784402642,997.0,-6.923989425925715,4.8937123499196264,0.0861390084028244,0.054008301440626384,-2.506153114958315,0.0,0.0001732129148876993,0.47634098008275033,86218.0,-1.0074237793684007,0.02,225.0,-4.688671211033811,8,-6.379437656084576,1.836955356388915,-0.03718917416408658,0.018197076395154,821.0
-0.8657225292088697,0.0001220703125,-2.9248073070888685,0.1254998444678474,0.31786942332983015,-4.382741185878258,1000.0,-3.517067367796986,-0.9992836862802505,-4.2753008694196115,-0.9954521372186719,0.3372539319097996,0.9629941126997477,0.0009705116477562115,0.0,0.0,2.119298703959587,0.035888671875,0.010486449860036374,-2.4517916876449877,0.0,0.7379518072289156,-2.01768878350666,996.0,-6.5079162346985076,4.748245013632158,0.0861390084028244,0.05422839457169175,-2.4394074642089225,0.0,0.00015570438772556373,0.491552372276783,93806.0,-1.0079417109489441,0.01,250.0,-4.556961784519409,9,-6.414471322304998,1.65628945562637,-0.03438889104872942,0.018197076395154,1189.0
-0.8687624505662825,7.32421875e-05,-1.9608459332788166,0.18367830635629442,0.3293464697897434,-4.1339053467495575,1100.0,-3.5267938619717674,-0.9992841705679893,-4.0081066558356895,-0.9656479662822676,0.3573388434946537,0.8641063515509602,0.0009255871686036698,0.04,0.0,2.138364196147273,0.0392333984375,0.009696150897070765,-2.447996228922861,0.0,0.809,-2.0242447215540507,1000.0,-7.48230551357888,4.242703556491962,0.0861390084028244,0.05427330182865262,-2.4372693010413116,0.0,0.00015560931205982342,0.5088836178183556,100776.0,-1.008152374625206,0.0,275.0,-4.102950577136488,10,-6.688889603173154,1.6403716851364964,-0.03647852223366499,0.018197076395154,677.0
-0.8731692779998411,0.0,-2.386128145402334,0.1328248242000881,0.34079446122050283,-4.188484517689018,1200.0,-2.7190315754280543,-0.9992761537432671,-4.0739468542392885,-0.965350155584747,0.37888806238770484,0.963808025177026,0.0008020035558729433,0.0,0.0,2.1899666175658257,0.0406494140625,0.005528746382333338,-2.506642605815495,0.0,0.779,-2.058525528426359,1000.0,-7.608027939190252,4.286139770076131,0.0861390084028244,0.05426059067249298,-2.5077260858423913,0.0,0.0001571513417729875,0.5268302649259567,108089.0,-1.0087318480014802,0.0,300.0,-4.1573115681091535,11,-7.314722944111291,1.5018388341867976,-0.041740375105291605,0.018197076395154,1271.0
-0.8732677030813647,7.32421875e-05,-1.4524386058354433,0.19755850986310225,0.35486097186803817,-4.300358067698079,1300.0,-3.387643665787395,-0.9992446303367615,-4.134674408369226,-0.9460494401515461,0.39537007734179497,0.9755035383777899,0.0007190945034381002,0.0,0.0,2.125459263048794,0.0458740234375,0.0022276984876953066,-2.4450468616322065,0.0,0.792,-1.9950945121844548,1000.0,-7.634161061149121,4.2449163286905645,0.0861390084028244,0.05546421036124229,-2.4324878623564614,0.0,0.00016321365983458237,0.5405847683548928,114774.0,-1.0091206073760985,0.0,325.0,-4.123928446738018,12,-8.626135341616394,1.208341194914,-0.045086090732365844,0.018197076395154,1837.0
-0.8745759020617697,4.8828125e-05,-1.4887739012303842,0.2290066221506904,0.3671840213239193,-4.1414110247533715,1400.0,-3.618942400730119,-0.9991252988576889,-3.972831971747996,-0.9452815439755795,0.41128207594156263,0.9909859154929578,0.0006597593412152492,0.0,0.0,2.2849930916812005,0.03359375,-0.0002649652835316374,-2.5143979819999394,0.0,0.82,-2.1119247675519848,1000.0,-7.7103661027361525,4.108707604556136,0.0861390084028244,0.053170157875865695,-2.518466152720433,0.0,0.00018616195557115135,0.5544028267264366,120885.0,-1.0093988239765168,0.0,350.0,-3.9534353880858975,13,-8.277400367102324,1.2555676657018573,-0.046869106404483316,0.018197076395154,1775.0
-0.8757687021468883,4.8828125e-05,-2.5794823487991954,0.16741984759412645,0.37991333901882174,-4.38470038886626,1500.0,-3.0885788393252396,-0.9992915391921997,-4.196293183953893,-0.9289490428520366,0.42596820592880247,0.9771689497716894,0.0006578794113011099,0.04,0.0,2.037519536549742,0.047607421875,-0.0020542360551189633,-2.374634793396271,0.0,0.898,-1.875846295457233,1000.0,-8.78794376649645,4.27762903283938,0.0861390084028244,0.052470055595040324,-2.315971690333558,0.0,0.0001541942994663259,0.5674920052289962,126225.0,-1.009407651424408,0.0,375.0,-4.180497742925075,14,-9.27611819062373,0.9604730827387602,-0.04820823799818754,0.018197076395154,1752.0
-0.8757379411908914,2.44140625e-05,-1.272817003121734,0.25746724032397605,0.39249528720974924,-4.297770808403277,1600.0,-3.629882638058992,-0.9993074879050254,-4.106969518959461,-0.9247848837076162,0.43857199102640154,0.9879895561357702,0.0006184054509503767,0.0,0.0,2.332793308896669,0.0479248046875,-0.005146056902594865,-2.5695842439492056,0.0,0.858,-2.148872347719551,1000.0,-8.430393351563387,4.161716408150581,0.0861390084028244,0.05194353489205241,-2.5686574539948266,0.0,0.00015112692381080706,0.5801576048135757,132021.0,-1.0095927566289902,0.0,400.0,-4.082484696322892,15,-9.041999645540193,0.9627948244106346,-0.05064367884770036,0.018197076395154,1915.0
-0.8749758552075946,2.44140625e-05,-1.9435075962971666,0.17701772444897088,0.4053907856345177,-3.940166347345104,1700.0,-3.103639425695734,-0.9992923513054848,-3.7538279627984736,-0.9196055316962883,0.4494392335414886,0.977233921457029,0.0005725608760258182,0.0,0.0,2.234414946101107,0.0499267578125,-0.006977062707301229,-2.494918808617405,0.0,0.828,-2.0392746557586063,1000.0,-7.650438431979307,3.771826807747375,0.0861390084028244,0.05150995180010796,-2.4933127832145514,0.0,0.00015403780962515158,0.5907511129975319,138012.0,-1.009807687997818,0.0,425.0,-3.660335908484207,16,-8.224557456814876,0.8876125759204274,-0.053725785203278066,0.018197076395154,1757.0
-0.8746791532714269,0.0,-2.12327583240838,0.1958181467095961,0.41652709394693377,-3.829360673591733,1800.0,-3.245744875697078,-0.9993606254458427,-3.651277995586679,-0.9140544550318737,0.4624763421714306,0.9788388497015735,0.0005803507083328441,0.0,0.0,2.2266514456632134,0.0507080078125,-0.009031951799988747,-2.504962512740444,0.0,0.826,-2.0392576735914205,1000.0,-7.402892066458797,3.6832110681360204,0.0861390084028244,0.04979034839197993,-2.513379635465444,0.0,0.00014091114644543268,0.6074520036578178,143961.0,-1.0097711682319641,0.0,450.0,-3.586183356205953,17,-9.25968738791429,0.7899833067160618,-0.05500918123871088,0.018197076395154,1843.0
-0.8727852495911066,2.44140625e-05,-1.7668999859881256,0.1836141542246376,0.4273803099989891,-3.8392632819791204,1900.0,-3.3364802790810626,-0.9993256464600563,-3.666095891724413,-0.9101479756747721,0.47415411844849586,0.9873551106427819,0.0004901666317891796,0.04,0.0,1.997882302814607,0.0517578125,-0.011063668597489595,-2.3208011502200785,0.0,0.8542713567839196,-1.8336057372873433,995.0,-8.127507144382678,3.6943302180837136,0.0861390084028244,0.04821393033489585,-2.277948613584742,0.0,0.0001476357432693476,0.6189222738146782,149648.0,-1.0101940393447877,0.01,475.0,-3.5842995128511417,18,-8.35143417319655,0.7788865484818815,-0.05928181977942586,0.018197076395154,1898.0
-0.8730902407623944,0.0,-1.9083187593977247,0.24322833361750149,0.4376179434359074,-3.623669995862783,2000.0,-3.4160477100684172,-0.999325406551361,-3.469027377085961,-0.9101680553372716,0.4842035748064518,0.9829968119022316,0.00047751471502124334,0.0,0.0,2.341870150925544,0.051171875,-0.015105813601985573,-2.5898421170752846,0.0,0.857,-2.149423182005926,1000.0,-8.306501641015398,3.471611313795413,0.0861390084028244,0.04693136485293507,-2.579005589734314,0.0,0.000147683091199724,0.6322165787220001,155331.0,-1.0102533608675004,0.0,500.0,-3.3622471459720153,19,-6.944963745945826,0.8065187174924919,-0.06321534924209118,0.018197076395154,1882.0
-0.8731961989920819,0.0,-2.2608861345415914,0.23797577207336512,0.44776054173707963,-3.5451372040195026,2100.0,-3.9175113918039974,-0.9993690207600594,-3.4014682935651366,-0.9154252903506859,0.49246324598789215,0.9429296131896006,0.0004560885783575941,0.0,0.0,2.3438438658639127,0.0509033203125,-0.016939783515408636,-2.5958722290978775,0.0,0.8208208208208209,-2.148028589805763,999.0,-7.336946424871341,3.411647023110821,0.0861390084028244,0.04704577019438148,-2.5726357061182643,0.0,0.00013929503420513357,0.6412925809621811,161445.0,-1.0103538274765014,0.01,525.0,-3.289845965896469,20,-7.707188639724264,0.67159787787782,-0.06545828245580196,0.018197076395154,1577.0
-0.8727399441762828,2.44140625e-05,-3.4209412778079464,0.2467972504700672,0.4574093334376812,-3.4964809592927226,2200.0,-4.503508419950547,-0.9994198560714722,-3.3622003686241286,-0.9150466367893386,0.5030840665102005,0.9428172942817294,0.00040929547321866266,0.0,0.0,2.4717061190022114,0.0541259765625,-0.018328683637082576,-2.7251940853078658,0.0,0.745,-2.2665572599441766,1000.0,-6.433203618652393,3.3722123771996664,0.0861390084028244,0.04581230040639639,-2.704316476390877,0.0,0.0001295188785661594,0.6514694496989251,167966.0,-1.0105732470750808,0.0,550.0,-3.256930386049304,21,-8.409901873567858,0.694175265273244,-0.06731082573533058,0.018197076395154,1434.0
-0.8706868023014976,0.0,-4.132577098948937,0.27935623761494377,0.4675858303904533,-3.5378011100386217,2300.0,-4.662728121598325,-0.9993760243058205,-3.3843015622251316,-0.9168745546339778,0.5111032098531723,0.9353582554517134,0.0004206008030450903,0.0,0.0,2.490825816750089,0.051171875,-0.01993039227090776,-2.7277784432143095,0.0,0.7582748244734202,-2.2980000078795575,997.0,-6.8999467108741035,3.422289198599775,0.0861390084028244,0.04491818901151419,-2.68427533011267,0.0,0.0001379486460791668,0.6642037436366082,174624.0,-1.010520228743553,0.01,575.0,-3.26032598944303,22,-7.187071017918979,0.6361488937068274,-0.07035388592630624,0.018197076395154,1284.0
-0.8700598189578159,0.0,-1.8749208332739327,0.2899156848132879,0.4762064449489117,-3.7868379604958022,2400.0,-5.172530286831601,-0.9993701204657555,-3.6392622253410933,-0.9218408721746527,0.5197345316410065,0.9727810650887574,0.0003968557393818628,0.0,0.0,2.4348084682129953,0.0535400390625,-0.02259857254102826,-2.6693001058669514,0.0,0.7987987987987988,-2.2538237055006336,999.0,-6.971894580301801,3.664958688525407,0.0861390084028244,0.04418858168646693,-2.641678663087678,0.0,0.0001390830255331821,0.6765992298722268,181096.0,-1.0106315672397614,0.01,600.0,-3.531692070936746,23,-8.462245665803191,0.9214613673873788,-0.07351539954543114,0.018197076395154,1690.0
-0.8688897312953486,0.0,-3.365003359355522,0.33018200947933696,0.4843122839927673,-3.8014297669029533,2500.0,-3.987579152263841,-0.9994620203971862,-3.6395831287731695,-0.9174490137214889,0.5271945998072625,0.9663319551092735,0.00035444224704406224,0.0,0.0,2.4837605885816134,0.0552978515625,-0.02468464714474976,-2.7169068163467367,0.0,0.8748738647830474,-2.3093290345461073,991.0,-7.913184479685274,3.6374985749146176,0.0861390084028244,0.044195447210222484,-2.665477617514033,0.0,0.00012141128663643031,0.6921024903655052,186581.0,-1.010830470919609,0.02,625.0,-3.5316778223980263,24,-8.23782785366614,0.6897798327873568,-0.0756587291136384,0.018197076395154,1693.0
-0.866602886893088,0.0,-2.1023644830858115,0.21519072653688487,0.4913045383989811,-3.87143470182275,2600.0,-3.9038483327401443,-0.9994972050189972,-3.6873306724025228,-0.915022442190093,0.5348532319068908,0.9691358024691358,0.00041270422589150256,0.0,0.0,2.3438244619529787,0.055224609375,-0.027891337871551514,-2.626494687397873,0.0,0.8946840521564694,-2.1739696691205586,997.0,-8.33796344141285,3.6935256125317437,0.0861390084028244,0.0436478222720325,-2.574940188605589,0.0,0.00011464562376204413,0.707180705666542,191900.0,-1.01055728495121,0.01,650.0,-3.5716006381836225,25,-7.965466700932746,0.6841049270650706,-0.07832427006214857,0.018197076395154,1620.0
-0.8664339488866972,0.0,-1.9691731803385548,0.23159718159810527,0.49805759117007253,-3.927411792146809,2700.0,-3.8349627095180483,-0.9994672700762749,-3.745475357170122,-0.910264084082155,0.5411109268665314,0.9891864057672503,0.00037210831433185374,0.0,0.0,2.361297580348377,0.0560546875,-0.028835676843300462,-2.6081936351070203,0.0,0.894,-2.179617506687719,1000.0,-7.981469540043952,3.739612025824568,0.0861390084028244,0.04429371990263462,-2.5575063969257283,0.0,0.00012040248038829305,0.714821957051754,197251.0,-1.0107476204633712,0.01,675.0,-3.637789149512193,26,-8.114199090096786,0.673449026238516,-0.0809236915782094,0.018197076395154,1942.0
-0.86545213208301,4.8828125e-05,-2.198386050259969,0.28171436950741147,0.5044130399823189,-3.8861479754034165,2800.0,-3.4726773841317393,-0.9994684129953384,-3.693435016247436,-0.9000894576543942,0.5477666616439819,0.9802784222737819,0.0004224584634357598,0.0,0.0,2.418285533526494,0.056884765625,-0.028537985496222974,-2.6259248240250415,0.0,0.9254783484390735,-2.2304088258134382,993.0,-7.968482252647441,3.686961209071538,0.0861390084028244,0.0444027959369123,-2.572427419178015,0.0,0.00012018478082609363,0.7228995859622955,202558.0,-1.0105115205049515,0.02,700.0,-3.583247604741279,27,-8.958075367924307,0.6240456945411902,-0.08374464139342308,0.018197076395154,1724.0
-0.8639160391656333,0.0,-2.2397336507520094,0.2968170613036395,0.5124151945114136,-3.816734169224648,2900.0,-3.723735337102651,-0.9994873359799386,-3.6201678597690012,-0.8947883948043455,0.5567433252930641,0.9749287749287749,0.00037651131642633116,0.0,0.0,2.314778948535672,0.0557373046875,-0.030619677482172848,-2.553060485519203,0.0,0.8964824120603015,-2.1468595922141733,995.0,-7.967856372384486,3.6157704247173625,0.0861390084028244,0.04378933431580663,-2.5228550702794075,0.0,0.00011654406625893898,0.7339813798666001,207854.0,-1.0107269555330276,0.01,725.0,-3.47277825531243,28,-7.792535874728475,0.5103472023669763,-0.08505973294377327,0.018197076395154,1755.0
-0.8642293314085692,0.0,-1.7084761714429215,0.23545332249371514,0.5202747970819473,-3.859421711760831,3000.0,-3.233341478270669,-0.9994900226593018,-3.6644444203882274,-0.8905933821632062,0.5642385184764862,0.9880656389855793,0.0003614307534007821,0.0,0.0,2.3009465329401873,0.0536376953125,-0.03242312232032418,-2.5483549241929535,0.0,0.9277833500501504,-2.133343378758644,997.0,-8.737844285191116,3.6753086705613485,0.0861390084028244,0.04317968860268593,-2.5057150212366843,0.0,0.00011602793674683198,0.745638507604599,212916.0,-1.010797694325447,0.01,750.0,-3.539460913536293,29,-8.858912677126847,0.5595204176936319,-0.08744708355516195,0.018197076395154,2011.0
-0.86355210452748,2.44140625e-05,-1.3987535143157213,0.2605119990314703,0.5287899404764176,-3.875712057000288,3100.0,-3.723385485944823,-0.9994740962982178,-3.678956851427118,-0.8889858833659673,0.5705392047762871,0.9931693989071039,0.0004297642852179706,0.0,0.0,2.098771786751671,0.0535888671875,-0.032950362749397756,-2.356354697289276,0.0,0.8965863453815262,-1.9346272437241843,996.0,-7.791888944220882,3.676365466324184,0.0861390084028244,0.04236201541498304,-2.327777456823458,0.0,0.00011909020358871202,0.7534311458468437,218255.0,-1.010477277636528,0.01,775.0,-3.5502994713918334,30,-9.047202422039119,0.6124756449206263,-0.09113131370395422,0.018197076395154,2196.0
-0.8631575835403055,0.0,-2.7082904819892732,0.22630292579781103,0.5388532534241677,-3.872073159182147,3200.0,-3.404223875799238,-0.9994688928127289,-3.675452720450359,-0.8897143129259348,0.5762087136507035,0.9700374531835206,0.0003996595172793604,0.0,0.0,2.3239698953242915,0.052197265625,-0.03344971872866154,-2.558435396895479,0.0,0.8956870611835507,-2.148168174022077,997.0,-8.34845126829013,3.666708906026517,0.0861390084028244,0.041759390849620104,-2.504582678237006,0.0,0.00012008909725409467,0.7629880622029305,223508.0,-1.0106184244155885,0.01,800.0,-3.5671223296424825,31,-8.602942779044465,0.6176258629192107,-0.09317759163677693,0.018197076395154,1869.0
-0.8617341962235514,4.8828125e-05,-2.507473775947333,0.3010179883633486,0.5479985058307648,-3.8208320776417515,3300.0,-3.4641782622516066,-0.9995079010725021,-3.613946782286056,-0.8875483300565975,0.5829594001173973,0.9720982142857143,0.0003682017653773073,0.0,0.0,2.2706475781333824,0.05517578125,-0.03466964326798916,-2.5040329268160484,0.0,0.909,-2.0960650534682315,1000.0,-8.4771392959361,3.6084957908286404,0.0861390084028244,0.04114139014855027,-2.4530915210308293,0.0,0.00011258988470217446,0.771353006362915,228465.0,-1.0107659250497818,0.0,825.0,-3.497805509269648,32,-9.153549318089686,0.5634835375505599,-0.09361708983778953,0.018197076395154,1792.0
-0.8631682513732812,0.0,-1.4972154202042962,0.22168306591255993,0.5553025349974632,-4.030207105218964,3400.0,-3.982608101623712,-0.9995238140225411,-3.846923356427787,-0.8906850506871706,0.5896268412470818,0.9904214559386973,0.00031974438097677195,0.04,0.0,2.242348894766662,0.0589599609375,-0.034450777992606166,-2.494195699764338,0.0,0.895,-2.075861490621448,1000.0,-8.276023172203493,3.826000636405702,0.0861390084028244,0.03993225395679474,-2.453280233289862,0.0,0.00010952963748422917,0.7801836997270584,233563.0,-1.0109931379556656,0.0,850.0,-3.7664836999098767,33,-9.382297962384332,0.670728353940747,-0.09712653700262308,0.018197076395154,2088.0
-0.8604224807655555,9.765625e-05,-1.7006644244689224,0.29876212021007814,0.5634513705968857,-4.005141210646056,3500.0,-3.5485012555956836,-0.9994679301977157,-3.8150965887224153,-0.8943943029502407,0.5957691073417664,0.9845201238390093,0.00036187707228236833,0.04,0.0,2.1398335766586287,0.0559814453125,-0.03696967400610447,-2.372999122750098,0.0,0.9123867069486404,-1.9711774622282214,993.0,-8.567488300093327,3.8035779112354007,0.0861390084028244,0.03878336613997817,-2.336251400360151,0.0,0.00012027562370349187,0.7902842000126838,238539.0,-1.010795596241951,0.01,875.0,-3.6999754049999174,34,-8.853825460912383,0.6711272111675498,-0.09809216614812613,0.018197076395154,1938.0
-0.8614380489074392,2.44140625e-05,-2.6650392515342167,0.2784369944497678,0.5698444724082947,-3.9928748360661315,3600.0,-3.229202205781196,-0.9994711130857468,-3.8014307088018575,-0.8937918369789258,0.6010665833950043,0.9680589680589681,0.0003509569614834618,0.04,0.0,2.182095501285797,0.0513427734375,-0.039476094860583545,-2.416828633002015,0.0,0.9155778894472362,-2.0082179973422916,995.0,-8.359515573854308,3.783898158835804,0.0861390084028244,0.03796968795359135,-2.380697885329429,0.0,0.00011966428464802448,0.8011386692523956,243481.0,-1.010846808552742,0.02,900.0,-3.6945247456432773,35,-8.201843324808067,0.7337856240402825,-0.10075845383107662,0.018197076395154,1628.0
-0.8619623203761876,0.0,-1.7163397823230617,0.279073677648475,0.5769251599907875,-4.10636009361266,3700.0,-3.373944839243062,-0.9994946792721748,-3.910791025363892,-0.8974639367268538,0.6052154660224914,0.9898580121703854,0.0003620006566052325,0.04,0.0,2.2098046904754454,0.053515625,-0.04097539260983467,-2.412879815447186,0.0,0.9085427135678392,-2.0302286635188675,995.0,-8.920461537607794,3.898064889411337,0.0861390084028244,0.03757432857528329,-2.3882610973005263,0.0,0.00011513145236676791,0.8107937902212143,248615.0,-1.0107950150966645,0.01,925.0,-3.7917787388772326,36,-8.916564374760437,0.8455340894141129,-0.10166243501007557,0.018197076395154,1972.0
-0.8619805992479087,0.0,-1.6027058135371552,0.2332676287155205,0.5836265474557877,-4.130399197303204,3800.0,-3.2578521320094254,-0.9995027765631675,-3.9188048191223843,-0.8952142465423094,0.6100656256079674,0.9912806539509537,0.00039252785500139,0.0,0.0,2.1908026580096918,0.05361328125,-0.04150643888860941,-2.4224633060227783,0.0,0.9377510040160643,-2.0181649795694616,996.0,-9.108507923017745,3.9152722114358105,0.0861390084028244,0.036789643671363594,-2.388454912464296,0.0,0.00011357464591128519,0.8178105890750885,253464.0,-1.0106518805027007,0.01,950.0,-3.782579151789536,37,-9.146255555360943,0.7192137091174711,-0.10416250061243773,0.018197076395154,1835.0
-0.8618754448456457,0.0,-1.5316922318801622,0.22126664217709205,0.5913112238049507,-4.1646956177559336,3900.0,-2.8045437661375376,-0.9994846463203431,-3.9416743876729923,-0.8940925169081311,0.6155969366431236,0.9875,0.0003661198628833517,0.08,0.0,2.240460001003279,0.050634765625,-0.04374469425529241,-2.4811335984077294,0.0,0.9423076923076923,-2.067363901499473,988.0,-9.190157299538967,3.947971929824169,0.0861390084028244,0.03655069256201386,-2.449168955633912,0.0,0.00011706197547027841,0.8241630226373673,258192.0,-1.0107756972312927,0.03,975.0,-3.818697519887123,38,-9.463719718420903,0.8594364019605545,-0.10552771128714085,0.018197076395154,1840.0
-0.8616416706063319,4.8828125e-05,-1.6800363219216738,0.1890208986036428,0.5982373148202896,-4.220943010459568,4000.0,-3.255717734691826,-0.9994170770049096,-3.9908354929211987,-0.8953781634074403,0.621507354080677,0.9870641169853769,0.0003702152600453701,0.08,0.0,2.1281223280059733,0.055810546875,-0.04531711246818304,-2.3763635834019383,0.0,0.9216867469879518,-1.9490662280276396,996.0,-8.931473981178273,3.9979806218467706,0.0861390084028244,0.03579687075689435,-2.3466782837411673,0.0,0.00013005284181417666,0.8336810886859893,263165.0,-1.010756492614746,0.01,1000.0,-3.8558968163394978,39,-9.180730279287134,0.7462997581777893,-0.10723605453968048,0.018197076395154,1778.0
-0.8621335765885305,4.8828125e-05,-1.639005861083449,0.23755099850083372,0.6059611558914184,-4.340318050058795,4100.0,-3.1086073494968414,-0.9995032951235772,-4.083000191907806,-0.8929088682984002,0.6272254556417465,0.9876360039564788,0.0003989721568359528,0.04,0.0,2.1862988464769453,0.049755859375,-0.04565641637891531,-2.4069762505133907,0.0,0.9436052366565961,-2.005618185505854,993.0,-9.437766123142305,4.072623754496645,0.0861390084028244,0.03542611710727215,-2.3758525831048276,0.0,0.00011347481813572813,0.8450278684496879,267941.0,-1.0106216549873352,0.01,1025.0,-3.995937961161573,40,-9.850290241574498,0.7363792473085257,-0.10811681915074586,0.018197076395154,2022.0
-0.8624079325265483,0.0,-1.6383882121636988,0.24052121891360176,0.6132888153195382,-4.356876613457087,4200.0,-3.0699609088535915,-0.9994133859872818,-4.092341349855083,-0.8873797291103983,0.6331108659505844,0.9881956155143339,0.0003831686088233255,0.08,0.0,2.1220698945084173,0.0552001953125,-0.04694774430245161,-2.3468263178358706,0.0,0.9425981873111783,-1.9402154512760088,993.0,-9.570701359570851,4.092691625343582,0.0861390084028244,0.03573942454531789,-2.308268670694247,0.0,0.0001307658567384351,0.8550767943263053,272730.0,-1.0106957703828812,0.01,1050.0,-4.026591985650735,41,-9.704742835705938,0.6701491545867722,-0.10992846302688122,0.018197076395154,1779.0
-0.862932006351184,2.44140625e-05,-1.2439293103784537,0.1781519983612851,0.6198886409401894,-4.237228759963517,4300.0,-2.8638704552369547,-0.9994692385196686,-3.989747187849878,-0.883268390133162,0.6391958087682724,0.9957386363636364,0.00035991504482808524,0.04,0.0,2.055274774359711,0.0553955078125,-0.047204796317964794,-2.291669186208633,0.0,0.9565217391304348,-1.8694869345998981,989.0,-9.476278342784518,3.984563383007452,0.0861390084028244,0.03542254026979208,-2.268682468415538,0.0,0.00012002425100945401,0.8657680332660675,277368.0,-1.0108048081398011,0.02,1075.0,-3.8885010995000284,42,-9.86597572786965,0.8814716586613297,-0.11036553252488375,0.018197076395154,2112.0
-0.8627905627799919,0.0,-1.457533251541423,0.18729163648476915,0.6265332370996475,-4.318933548600226,4400.0,-2.843764402365587,-0.9994352638721467,-4.052229410497517,-0.8818380183249246,0.6444387570023536,0.9936651583710407,0.00035531959074432964,0.0,0.0,1.986271173583411,0.0558349609375,-0.04930538320913911,-2.214663037012518,0.0,0.9416498993963782,-1.7877117337619772,994.0,-9.789223055826222,4.053721593732984,0.0861390084028244,0.03608934693038464,-2.192355803426344,0.0,0.00012655612827074946,0.8737470611929894,282071.0,-1.010826337337494,0.01,1100.0,-3.9789251122514573,43,-9.879690127570793,0.552316564189803,-0.11097252555191517,0.018197076395154,2210.0
-0.8620142829444376,0.0,-1.5030848967234594,0.19227607675212652,0.6334013700485229,-4.326997241758331,4500.0,-3.0283176052235823,-0.9995069950819016,-4.056271815604991,-0.878705666771566,0.6491625532507896,0.9540078843626807,0.0003122854213870596,0.0,0.0,1.9908449807597457,0.0532470703125,-0.049703773483633994,-2.217490407910498,0.0,0.9448345035105316,-1.798504381908693,997.0,-9.517196249064554,4.061438389438914,0.0861390084028244,0.03588078301399946,-2.1943791859923985,0.0,0.00011276293771516066,0.878803725540638,286827.0,-1.0110281258821487,0.01,1125.0,-4.00860296901178,44,-9.938346118513815,0.5176381656187921,-0.11270147617906331,0.018197076395154,1522.0
-0.8633858446904924,7.32421875e-05,-1.2826220536181963,0.16226028741974297,0.6402467280626297,-4.414597782353627,4600.0,-2.4712443242776856,-0.9995046943426132,-4.142177196857825,-0.8758030954719288,0.6536819562315941,0.9946404644930773,0.0003063103416934609,0.0,0.0,2.0339102165295677,0.0512451171875,-0.049707459099590776,-2.2748277347216392,0.0,0.961,-1.840469656551128,1000.0,-9.85951283811155,4.1481790252322455,0.0861390084028244,0.03495985269546509,-2.2476013231011485,0.0,0.00011320628764224238,0.8821964398026466,291416.0,-1.0110561430454255,0.0,1150.0,-4.109076986157751,45,-9.768953074159903,0.5101989570909732,-0.11361620519310237,0.018197076395154,2239.0
-0.863661703991238,0.0,-1.8613994188001417,0.1676641770042268,0.6474153161048889,-4.317095609494848,4700.0,-3.343204092919339,-0.9994574740529061,-4.0517747379274525,-0.8765557981707388,0.6590952113270759,0.9871991807475679,0.0003040145034901798,0.08,0.0,2.0049318434162156,0.056494140625,-0.05190253183245659,-2.2342846078361305,0.0,0.9228456913827655,-1.8048187090360543,998.0,-9.554590588508054,4.062671910156261,0.0861390084028244,0.03427279470488429,-2.216162207798991,0.0,0.00012228746436449,0.8862203180789947,296220.0,-1.011066922545433,0.01,1175.0,-3.9894313215117494,46,-9.511781967903168,0.4884651335365472,-0.114660320058465,0.018197076395154,1953.0
-0.8641741817831644,0.0,-1.5651824601076256,0.16368458706720582,0.6553830787539482,-4.261038203382787,4800.0,-3.9295958056571028,-0.9994978755712509,-4.004358440758901,-0.8765432966974913,0.6642926961183548,0.9905519641969169,0.00029194921044108926,0.0,0.0,1.9811743853092758,0.0533203125,-0.05252251913771033,-2.2215300955352175,0.0,0.9105527638190954,-1.7798071754012603,995.0,-9.630192756088734,4.002523366996222,0.0861390084028244,0.034246272314339875,-2.195447147466914,0.0,0.00011451905629655812,0.8900113150477409,301303.0,-1.0111234813928605,0.01,1200.0,-3.930577132155951,47,-9.551585663360365,0.5193093409852494,-0.11528045311570168,0.018197076395154,2011.0
-0.864447692714748,0.0,-1.3883611073087003,0.1457125033675142,0.6623549088835716,-4.239384308131525,4900.0,-3.608273864287451,-0.9994719222187995,-3.9821752937477948,-0.876235829993675,0.6697563543915749,0.9952874646559849,0.00030301412771223114,0.0,0.0,2.0049200053343235,0.0579345703125,-0.053539021499454977,-2.246095037246234,0.0,0.92992992992993,-1.800456776940748,999.0,-9.531320424630547,3.9868323656368823,0.0861390084028244,0.03446827856823802,-2.2209934174343227,0.0,0.00011950777825404657,0.8956405147910118,306286.0,-1.0110716074705124,0.01,1225.0,-3.9149164153709735,48,-9.90443133911753,0.4698768566723401,-0.11701015997678041,0.018197076395154,2122.0
-0.8639352099839016,2.44140625e-05,-1.6918342818115042,0.164703326267014,0.6699317663908004,-4.259535240833417,5000.0,-4.021043479630359,-0.999455925822258,-4.005478957030272,-0.8794163346668938,0.6753762617707253,0.9901185770750988,0.0003549180648406036,0.0,0.0,2.0120898915755823,0.051806640625,-0.05442215418443084,-2.248014767515783,0.0,0.897876643073812,-1.8163998925746072,989.0,-9.680446702104478,4.007111691017185,0.0861390084028244,0.034060017019510266,-2.2292944570312665,0.0,0.00012258290098543512,0.9005294367671013,311359.0,-1.0108282178640366,0.03,1250.0,-3.9387630079598197,49,-9.96394814645244,0.558175443825722,-0.11857994012534619,0.018197076395154,2024.0
-0.8647694501763908,2.44140625e-05,-1.3860374096483328,0.14160291584217213,0.6774949759244919,-4.317956115736673,5100.0,-3.1896328452283345,-0.999502158164978,-4.0649788959929065,-0.8788861662862473,0.6798331320285798,0.9902813299232737,0.0003060840936086606,0.08,0.0,2.0201208824515327,0.0551513671875,-0.05522978939116001,-2.2695726885449092,0.0,0.9267068273092369,-1.8221100269542092,996.0,-9.898453248326526,4.071513621675244,0.0861390084028244,0.033531713951379064,-2.2412453958436416,0.0,0.0001136915358074475,0.9062683254480361,315968.0,-1.0110572189092637,0.01,1275.0,-4.008318401604823,50,-9.817079993629847,0.5136284115138683,-0.12030677124857903,0.018197076395154,1955.0
-0.8635611226549372,0.0,-1.1240941110304556,0.16926167009407167,0.6848668560385704,-4.33685857217928,5200.0,-3.268276656416268,-0.9995349466800689,-4.078587452665317,-0.8785931642705691,0.6851997047662735,0.9963669391462306,0.00029568024474428966,0.04,0.0,2.0334066373904927,0.056103515625,-0.05637552198022604,-2.262321013946599,0.0,0.9337349397590361,-1.8296743621207896,996.0,-9.847879799526543,4.09373981055988,0.0861390084028244,0.03386026676744223,-2.253474738436669,0.0,0.0001073888217433705,0.913483613729477,320647.0,-1.0111060053110124,0.01,1300.0,-4.033967562471777,51,-9.975091440756362,0.4952870220593274,-0.12075008247047662,0.018197076395154,2202.0
-0.8638955732356408,0.0,-2.3067476587486277,0.1360336197138175,0.6929548919200897,-4.352578472437564,5300.0,-2.8689733837328046,-0.9995251521468163,-4.092544361136246,-0.8779071306184051,0.6899167731404304,0.9873864783047427,0.00025992713162850125,0.0,0.0,2.0186050795649075,0.0551513671875,-0.05598687855526805,-2.2519015145619283,0.0,0.944,-1.8195691112154229,1000.0,-9.718927050883877,4.0949269851664525,0.0861390084028244,0.033590312395244834,-2.242053754741766,0.0,0.00010927233306574635,0.9179292142391204,325318.0,-1.0112736374139786,0.01,1325.0,-4.048800667985675,52,-9.926854906260587,0.4471311008736392,-0.12231448832899332,0.018197076395154,1982.0
-0.8646923048421741,0.0,-1.5167559814564033,0.14042370542150265,0.7000241592526436,-4.34841496362177,5400.0,-3.194967260266966,-0.9995376631617546,-4.089502009509474,-0.8789847520514741,0.6956233352422714,0.9920987654320987,0.0002919353410106851,0.08,0.0,2.0175253444151973,0.0511962890625,-0.05688449339941144,-2.2498490820761092,0.0,0.9234642497482377,-1.8164052401373083,993.0,-9.783475177052113,4.09514244350311,0.0861390084028244,0.032972837518900636,-2.2325616532307984,0.0,0.00010686793084460077,0.9238267317414284,330062.0,-1.0111235588788987,0.01,1350.0,-4.051779360065289,53,-9.846089773493622,0.5051956020601567,-0.124199771694839,0.018197076395154,2025.0
-0.8664275021437788,0.0,-1.6065580640984227,0.1309825502723838,0.7080071493983269,-4.313218111799342,5500.0,-2.9581973363494916,-0.9995400488376618,-4.047932318996985,-0.874659217541921,0.7005074515938758,0.9886251236399605,0.0002445467536745127,0.04,0.0,2.0886750687073614,0.057080078125,-0.05732167027890682,-2.313861705855218,0.0,0.943,-1.8786508367020347,1000.0,-9.741338891184714,4.051519827107211,0.0861390084028244,0.03280378505587578,-2.285303104891309,0.0,0.00010640678247000323,0.9290886044502258,334664.0,-1.0113457649946214,0.0,1375.0,-4.025929595937109,54,-9.937022327012471,0.38343085735717275,-0.12535056322813035,0.018197076395154,2022.0
-0.8660087285010377,0.0,-1.4026872365960772,0.10976462344322054,0.715274827182293,-4.305305678484109,5600.0,-2.8070373132711546,-0.999526946246624,-4.034676506830619,-0.8727989126564353,0.706204180419445,0.9950666008880118,0.0002493931639037328,0.0,0.0,2.009081458889961,0.05341796875,-0.05790991522371769,-2.255275870073335,0.0,0.94994994994995,-1.8034603002733764,999.0,-9.881365933662883,4.026296676939053,0.0861390084028244,0.030977115733549,-2.233877260573368,0.0,0.00010892910722759552,0.9341535598039628,339280.0,-1.0113230347633362,0.01,1400.0,-4.003160655157295,55,-9.921679943081116,0.3731218820718189,-0.12598931305110456,0.018197076395154,2027.0
-0.8674036895434256,0.0,-0.9818590283747853,0.10652362504544928,0.7214033678174019,-4.271380002886082,5700.0,-3.1888955750274928,-0.9995232775807381,-4.006862085277904,-0.8732297438749811,0.7108922392129898,0.9987029831387808,0.0002587870712886797,0.0,0.0,2.0055321014270033,0.05966796875,-0.05839076098054648,-2.255862307090273,0.0,0.932,-1.796512892202734,1000.0,-9.70584896910912,3.9890802345052103,0.0861390084028244,0.030890802340582012,-2.2312797790784105,0.0,0.00010963253153022379,0.9397298604249954,344035.0,-1.0112789779901505,0.0,1425.0,-3.973134015844015,56,-9.99155319319471,0.36572768242544446,-0.12717108391225337,0.018197076395154,2313.0
-0.8663492285748362,0.0,-1.2551620483830532,0.12298288501774875,0.7266870245337487,-4.287986606248955,5800.0,-2.7201722268936095,-0.9995577663183213,-4.0253112780342715,-0.8714837392486515,0.7154533922672272,0.9953095684803002,0.0002623715659865411,0.04,0.0,2.0357398365526675,0.0536865234375,-0.05952731054276228,-2.27149377837251,0.0,0.9446680080482898,-1.8279429114170873,994.0,-9.67543000216012,4.008063861079767,0.0861390084028244,0.029849328706040977,-2.2644108632387527,0.0,0.00010300214198650792,0.9424897521734238,348619.0,-1.0112621754407882,0.01,1450.0,-3.982916404288621,57,-9.742451413016235,0.40495245428179505,-0.12745061255991458,0.018197076395154,2132.0
-0.8683565430736053,0.0,-1.3984773285439773,0.08569623913708657,0.7309199392795562,-4.298430471115213,5900.0,-2.9366155083727032,-0.9995242193341255,-4.030249249285892,-0.8700684483919758,0.7201850786805153,0.9932855863921217,0.00023266098396561573,0.0,0.0,1.963009415392218,0.0592529296875,-0.05974496882408857,-2.203959438237846,0.0,0.9398194583751254,-1.7477467162245879,997.0,-9.598495361986023,3.991924954186543,0.0861390084028244,0.028061242029070853,-2.195077609789685,0.0,0.0001094518585887272,0.9475690230727196,353280.0,-1.0114014804363252,0.01,1475.0,-4.005663471808977,58,-9.75304307609807,0.3733190806003854,-0.12775051333010196,0.018197076395154,2234.0
-0.8683488829003181,0.0,-1.3042063417100391,0.08829087640425345,0.7368280634284019,-4.3539224719987475,6000.0,-3.0908906556250066,-0.9995872423052787,-4.079336412045702,-0.8694179011930828,0.7248055800795555,0.9976883957466481,0.00021458623741636983,0.0,0.0,2.0039582251800843,0.0573974609375,-0.05968159353360534,-2.248592202170646,0.0,0.938938938938939,-1.784801724083001,999.0,-9.899950970439999,4.049474272823514,0.0861390084028244,0.028409597184509038,-2.2415912530732074,0.0,9.733197148307227e-05,0.9509068876504898,358001.0,-1.0114862442016601,0.01,1500.0,-4.050121341063608,59,-9.588250983586835,0.3579226820295073,-0.12844769693911076,0.018197076395154,2163.0
-0.8683385459895362,0.0,-0.9770487130076159,0.10034163721930475,0.7427442893385887,-4.320372549099341,6100.0,-3.033085439861426,-0.9995897471904754,-4.054011779287229,-0.8696770064925659,0.7278070688247681,0.9987157534246576,0.00026413333653181327,0.0,0.0,1.9467578402966912,0.0568603515625,-0.06029653437435627,-2.2014658691281315,0.0,0.946,-1.738949242881327,1000.0,-9.870772875317343,4.021557810608051,0.0861390084028244,0.02786110956221819,-2.1823650772393512,0.0,9.685255863587373e-05,0.9541512861847877,362577.0,-1.0112539023160934,0.0,1525.0,-4.0253462183695286,60,-9.989049110234923,0.34362023399425956,-0.1298947434872389,0.018197076395154,2336.0
-0.869217693117389,0.0,-1.0347710055634298,0.08426449255645584,0.7474181219935417,-4.322023250038127,6200.0,-2.6878878176586163,-0.9995981976389885,-4.049035661136772,-0.8676926443615229,0.7318107932806015,0.9986859395532195,0.0002487180157913826,0.0,0.0,2.0255560377662465,0.0557861328125,-0.06078572636470199,-2.2692156167529234,0.0,0.952,-1.8039104476224792,1000.0,-9.926722923760366,4.024612493570804,0.0861390084028244,0.02750674234703183,-2.258673063041857,0.0,9.522596537863137e-05,0.9596173897385597,367120.0,-1.0113261967897416,0.0,1550.0,-4.019180393808954,61,-9.906612643412192,0.3367665276770343,-0.13036419302225113,0.018197076395154,2283.0
-0.8687387103025686,2.44140625e-05,-1.1478549671165748,0.07617089585855907,0.7528534233570099,-4.286420016715293,6300.0,-2.6311007326585414,-0.9996105924248695,-4.018377415813226,-0.8666603197438235,0.7353329986333847,0.9986136783733827,0.0002888719558541197,0.0,0.0,2.0331482056052668,0.063623046875,-0.06028617005795241,-2.274506629296925,0.0,0.941,-1.8143239457484288,1000.0,-9.898670928983494,4.002425981686042,0.0861390084028244,0.027302516577765345,-2.2666172513669722,0.0,9.28419569390826e-05,0.9626914128661156,371721.0,-1.0111379235982896,0.0,1575.0,-3.9919182474603816,62,-9.690539624753253,0.37361565839168914,-0.13174091652035713,0.018197076395154,2164.0
-0.868875398208911,0.0,-1.5283584639294363,0.07907914332438659,0.7595539659261703,-4.3105563563909755,6400.0,-2.7479238200682436,-0.9995975375175477,-4.03669113991302,-0.8647453717974714,0.7395788803696632,0.9955357142857143,0.0002311560216185171,0.04,0.0,2.0205053621654536,0.0494873046875,-0.0592698959633708,-2.2613390725710323,0.0,0.948,-1.7991255711027947,1000.0,-9.94071609167324,4.013775121920406,0.0861390084028244,0.026803451171144844,-2.250171179071197,0.0,9.535357858112548e-05,0.9653674632310867,376225.0,-1.011408546566963,0.0,1600.0,-4.006248566035753,63,-9.993497625819975,0.3017756456826615,-0.13369226455688477,0.018197076395154,2016.0
-0.8693294815224363,0.0,-1.092645730592921,0.08643483933696058,0.7661605134606362,-4.279557760517174,6500.0,-3.023665215382452,-0.9995763599872589,-4.008836950406099,-0.8657694878711482,0.7440140530467033,0.9977954144620811,0.00026449423930898777,0.0,0.0,2.0093843151149726,0.0652099609375,-0.05946427090093494,-2.2480752692341426,0.0,0.9396378269617707,-1.7849455035667758,994.0,-9.773650384593804,3.989187274760103,0.0861390084028244,0.027200452331453562,-2.2389413635985056,0.0,9.942694377969019e-05,0.967917051911354,380895.0,-1.011252224445343,0.01,1625.0,-3.982571452943405,64,-9.984552337786274,0.39074540637904515,-0.13490619510412216,0.018197076395154,2268.0
-0.8700296076975065,0.0,-1.1203970591292476,0.07094005770673403,0.7725738197565079,-4.272250869860763,6600.0,-2.7597388666300375,-0.9996065437793732,-3.99966081324846,-0.8663661886690533,0.7478504866361618,0.9964586100044267,0.0002892026273912052,0.0,0.0,2.0168218119355013,0.0560546875,-0.0594181515276432,-2.2623180020879348,0.0,0.945,-1.795670769710949,1000.0,-9.881436883369924,3.9751257700533493,0.0861390084028244,0.02770550507120788,-2.245974327168298,0.0,9.362335313198856e-05,0.9716902270913124,385474.0,-1.0111363649368286,0.0,1650.0,-3.972028133072663,65,-9.990515246819925,0.33101052209289666,-0.1360500007867813,0.018197076395154,2259.0
-0.8703153564434615,2.44140625e-05,-1.2196788877729232,0.07145023981240373,0.7792732819914818,-4.256804557697593,6700.0,-3.0649042379986455,-0.9996131807565689,-3.9843548493792973,-0.8663850956218084,0.75157680362463,0.9954128440366973,0.0002682062062376644,0.0,0.0,2.0445584060067348,0.0560791015625,-0.05890819188207388,-2.289352915152243,0.0,0.944331983805668,-1.8226418658066343,988.0,-9.740745216155263,3.9653423147040767,0.0861390084028244,0.027278157230466605,-2.276397395162693,0.0,9.234470689989394e-05,0.974738122522831,390174.0,-1.0112348198890686,0.02,1675.0,-3.963675555216466,66,-9.992211275233968,0.34719290077476145,-0.1384152103215456,0.018197076395154,2180.0
-0.8703845235650078,2.44140625e-05,-1.4238757922818692,0.06479034447650271,0.7856521353125572,-4.315736358232753,6800.0,-3.6186242046964345,-0.9995426371693611,-4.0458450117906795,-0.8696181625899044,0.7543004304170609,0.9936218678815489,0.00023227022793435027,0.0,0.0,2.063660700100867,0.06328125,-0.05826054960489273,-2.3073258462697703,0.0,0.917,-1.8396280879493088,1000.0,-9.892271339866687,4.025294537854835,0.0861390084028244,0.026749679911881687,-2.297772401200948,0.0,0.00010590842648525723,0.9790397062897682,395030.0,-1.0114033192396163,0.0,1700.0,-4.034322423832044,67,-9.991141366451187,0.34890123629777525,-0.13876158706843852,0.018197076395154,2195.0
-0.8695366477622883,0.0,-1.076459562048199,0.0902289439872105,0.7921388894319534,-4.25264061775311,6900.0,-3.038270363294689,-0.999616576731205,-3.988935538797049,-0.8700350760511355,0.7576720863580704,0.9986474301172227,0.0002508284036593977,0.0,0.0,1.9936526350181971,0.05576171875,-0.0580014506354928,-2.2369774960543447,0.0,0.9459459459459459,-1.7774889288451206,999.0,-9.859195478275376,3.9685474525470434,0.0861390084028244,0.02649001092649996,-2.2212036918557105,0.0,9.169313689199044e-05,0.9828736707568169,399755.0,-1.0113162845373154,0.01,1725.0,-3.960513784801826,68,-9.996729022327886,0.4113866898722341,-0.14098360650241376,0.018197076395154,2218.0
-0.8694177372366539,0.0,-1.5184250745783454,0.07319425761176031,0.7993843451142311,-4.266861905920382,7000.0,-2.613773005247943,-0.9996370643377304,-4.000496738224198,-0.8687674208311364,0.7617089822888374,0.9922630560928434,0.00020517033735814038,0.0,0.0,2.0735836753456787,0.0590576171875,-0.05851467214524746,-2.314384402539664,0.0,0.9567404426559356,-1.8519713277555787,994.0,-9.920246024286797,3.972742915344573,0.0861390084028244,0.02647693776525557,-2.2995582175328524,0.0,8.775330388743896e-05,0.9884553208947182,404212.0,-1.0115303933620452,0.01,1750.0,-3.9728905851269047,69,-9.723764828636142,0.3329402079717252,-0.14105527214705943,0.018197076395154,2068.0
-0.8699076143806451,0.0,-1.0396564472983814,0.06405241999341307,0.8057813853025436,-4.268686495303664,7100.0,-2.827113557795262,-0.9996554598212242,-4.006213100572232,-0.8677190275891917,0.7662363857030868,0.9982378854625551,0.00023080241626303178,0.0,0.0,2.0235209204391054,0.0591552734375,-0.05907049328088761,-2.2600526581492733,0.0,0.957,-1.7992430449901395,1000.0,-9.787959081079945,3.989051589238379,0.0861390084028244,0.02631547711789608,-2.250911290872404,0.0,8.421435868513071e-05,0.9945082515478134,408823.0,-1.0114102065563202,0.0,1775.0,-3.9853006136410216,70,-9.759321373147998,0.3735041818057949,-0.14236961640417575,0.018197076395154,2270.0
-0.8690153701594682,0.0,-1.051787610618539,0.07312162693659754,0.8128909468650818,-4.253135929317191,7200.0,-2.6522885179340956,-0.999621407687664,-3.9897175879963727,-0.8666801900631981,0.7695689037442207,0.9986636971046771,0.00023462599492631852,0.0,0.0,2.0643684013653028,0.060693359375,-0.05779194086790085,-2.295152853561155,0.0,0.955,-1.8389270829822297,1000.0,-9.908166977798457,3.9797311615856374,0.0861390084028244,0.026507608545944094,-2.288336553203688,0.0,9.076379428734072e-05,0.9995870441198349,413428.0,-1.0113922595977782,0.0,1800.0,-3.966082067591725,71,-9.739875994339409,0.3622512379967492,-0.1428835667669773,0.018197076395154,2245.0
-0.8686883423462859,0.0,-1.227504008256023,0.08481184635915927,0.8208212167024612,-4.295488491746366,7300.0,-2.5519008112871755,-0.9996655136346817,-4.022482135960081,-0.86492404309829,0.7744123578071594,0.9938938468764679,0.00024283035309053959,0.0,0.0,1.9653409334767917,0.051416015625,-0.05666764946654439,-2.2120915830157672,0.0,0.963,-1.7461903619094201,1000.0,-9.839272686420136,4.014793587438134,0.0861390084028244,0.026163061242550613,-2.192411461719543,0.0,8.228260776377283e-05,1.0039371609687806,417959.0,-1.0113537907600403,0.0,1825.0,-4.003797367560732,72,-9.882167294788866,0.3876992568998837,-0.14390956722199916,0.018197076395154,2129.0
-0.8692146108776797,0.0,-1.48971807567743,0.06918835114825017,0.8293397784233093,-4.3150875507677595,7400.0,-2.7811245379688225,-0.999618498980999,-4.046677857801769,-0.8635101719308296,0.7784024819731712,0.9926706367384334,0.0002109803717758041,0.0,0.0,2.0420767044992365,0.0600830078125,-0.0557678691111505,-2.2720967888576236,0.0,0.9524291497975709,-1.8164753249765517,988.0,-9.916855666630982,4.0393070516821314,0.0861390084028244,0.026498937886208294,-2.267291018183486,0.0,9.132160957960877e-05,1.0057356029748916,422541.0,-1.0115031540393828,0.02,1850.0,-4.023673930165939,73,-9.742744082123902,0.41495596144582514,-0.14432756192982196,0.018197076395154,2183.0
-0.8693778867702349,2.44140625e-05,-1.132610556830031,0.0637903573767696,0.8365622460842133,-4.198652058721547,7500.0,-2.7905965572048466,-0.9994781404733658,-3.9423162474182893,-0.8631135294228443,0.7822850495576859,0.9960229783473266,0.00025781606600503435,0.0,0.0,1.9721683776544725,0.057177734375,-0.056838765274733305,-2.207839846695817,0.0,0.949,-1.7474445424026677,1000.0,-9.890595446917093,3.9329167409595684,0.0861390084028244,0.026899218512699007,-2.1985375616274254,0.0,0.00011831371466541896,1.005682173371315,427250.0,-1.0112835198640824,0.0,1875.0,-3.9011475665012894,74,-9.869629924823704,0.4655101670702999,-0.1449516497552395,0.018197076395154,2263.0
-0.8694472956500249,2.44140625e-05,-1.6249875213588663,0.058322646274105286,0.8435589328408242,-4.358761289945896,7600.0,-2.8950793202339957,-0.9996602088212967,-4.090346039677332,-0.8679981406254228,0.78622617572546,0.9941291585127201,0.00027466026367619636,0.0,0.0,1.9569632632364145,0.0562744140625,-0.056537574250251056,-2.1796951245500784,0.0,0.93,-1.7233737442279247,1000.0,-9.613989625646028,4.080927119954486,0.0861390084028244,0.026693044044077397,-2.174544347214575,0.0,8.330462787853321e-05,1.0064296036958695,432107.0,-1.0112045496702193,0.0,1900.0,-4.067114043545356,75,-9.679263754262074,0.39877009055638785,-0.14664549119770526,0.018197076395154,2044.0
-0.8702692890830803,0.0,-1.0904626978742205,0.06154245432141027,0.8499146580696106,-4.345143427446963,7700.0,-3.304378504753547,-0.9996494129300117,-4.076630612975602,-0.8691780928653315,0.7905636891722679,0.9986149584487535,0.00025674344979051964,0.08,0.0,2.0234662104332335,0.057080078125,-0.055070852767676114,-2.2593141238000003,0.0,0.9197592778335005,-1.7919598777433223,997.0,-9.641255304776234,4.069310971416572,0.0861390084028244,0.028200504556298255,-2.249078388550883,0.0,8.537742069165688e-05,1.008373185992241,436969.0,-1.011288571357727,0.01,1925.0,-4.055939579783186,76,-9.925652539431331,0.3728132128338566,-0.14827701337635518,0.018197076395154,2166.0
-0.8674639561300864,0.0,-1.392898572786639,0.06435637981642217,0.8554947897791862,-4.360541200693634,7800.0,-2.4656976515685396,-0.999628047645092,-4.0919413037546954,-0.8694809328415432,0.7938113793730736,0.9924492685228882,0.00020013406829093582,0.04,0.0,1.9939248102171732,0.0636474609375,-0.05517262667417526,-2.22685180071188,0.0,0.967,-1.7722787218415519,1000.0,-9.985038870195757,4.076676146571067,0.0861390084028244,0.028380231373012064,-2.2163955363209142,0.0,8.948640261223773e-05,1.0124468088150025,441259.0,-1.0115540146827697,0.0,1950.0,-4.072832036531918,77,-9.951554089094165,0.35841865357718095,-0.15028484016656876,0.018197076395154,2119.0
-0.8675112907541915,0.0,-1.144344247373691,0.07186165501567142,0.861998638510704,-4.300847498094315,7900.0,-3.4206961270674214,-0.9996667340397835,-4.037027071942726,-0.8684660028739017,0.7980064496397972,0.9973707274320771,0.00019195285021851306,0.0,0.0,1.9441983030649106,0.049169921875,-0.054748617392033336,-2.171526815377825,0.0,0.9284994964753273,-1.7236942402893682,993.0,-9.794415713578658,4.022806327686822,0.0861390084028244,0.028103681886568664,-2.168152718564046,0.0,8.20449463390105e-05,1.0166307359933853,446003.0,-1.0115923702716827,0.01,1975.0,-4.007327037500416,78,-9.589958161137245,0.36424067589685916,-0.15061075910925864,0.018197076395154,2282.0
-0.8680350673690554,0.0,-1.0028499739058632,0.0607008508532586,0.8690520837903023,-4.295563893407051,8000.0,-2.7157665157652082,-0.9996245577931404,-4.0288221589387945,-0.865359875665672,0.8021604135632515,0.9978002639683238,0.00023691758906352334,0.0,0.0,2.019140090641213,0.064404296875,-0.05363867934793234,-2.2448882182901366,0.0,0.951,-1.7953007725708527,1000.0,-9.897128424836938,4.022593339015839,0.0861390084028244,0.02848441181704402,-2.2457722679025687,0.0,9.015787836688104e-05,1.0224959909915925,450541.0,-1.0113815307617187,0.0,2000.0,-4.008487871613228,79,-9.940317020262421,0.366637650196206,-0.15128617025911809,0.018197076395154,2273.0
-0.868235663176165,0.0,-0.9748062799868181,0.05179461804018894,0.8764829620718956,-4.2884864405737275,8100.0,-2.647848821527901,-0.9996641606092453,-4.02043129027224,-0.8642673522757832,0.8054268419742584,0.9995693367786391,0.00022823812360002195,0.0,0.0,1.9758006493924483,0.06005859375,-0.052968237549066544,-2.213527146655239,0.0,0.9513677811550152,-1.7569077381488831,987.0,-9.853897866067319,4.017705810956595,0.0861390084028244,0.02922406271100044,-2.208685983014351,0.0,8.254383192252135e-05,1.0287470191717147,455031.0,-1.0114222437143325,0.02,2025.0,-4.005813463595141,80,-9.974918272205333,0.33090360985616635,-0.15104847624897957,0.018197076395154,2322.0
-0.867720575502608,2.44140625e-05,-0.9779501953176492,0.04937652157352436,0.8834213286638259,-4.315076418540535,8200.0,-2.768812099633561,-0.9997016519308091,-4.045570248284461,-0.8623919129458955,0.8077676638960838,1.0,0.0002321811785805039,0.0,0.0,1.980882559075932,0.049365234375,-0.05188553920015693,-2.2132180887646506,0.0,0.949,-1.7602937706841335,1000.0,-9.879979019529518,4.040514948359876,0.0861390084028244,0.028742833621799947,-2.206125540110688,0.0,7.533296593464911e-05,1.0340674817562103,459566.0,-1.0114037156105042,0.0,2050.0,-4.042763097496513,81,-9.86150445330641,0.38338416289358357,-0.1514731351286173,0.018197076395154,2303.0
-0.8672519692510832,0.0,-1.0750719246067741,0.07673034248866202,0.8908940047025681,-4.291437671158022,8300.0,-2.809063013108874,-0.9996709123253822,-4.028454406812105,-0.8622449912130833,0.8109126687049866,0.9925999013320178,0.00021668544541171287,0.04,0.0,1.9967075784753292,0.0616943359375,-0.05073377750813961,-2.2193481054268887,0.0,0.9536290322580645,-1.7752055249804097,992.0,-9.853508701440058,4.011505345376104,0.0861390084028244,0.029027302376925947,-2.2090347608332914,0.0,8.124257874442264e-05,1.039070200920105,464064.0,-1.011476382613182,0.01,2075.0,-4.010626725875454,82,-9.416768082037256,0.4330601505840674,-0.15238000750541686,0.018197076395154,2027.0
-0.8676342314851354,4.8828125e-05,-1.043365890359145,0.07339309207495767,0.8982951954007149,-4.325058523015035,8400.0,-2.5803197497633206,-0.9996679127216339,-4.054128350811552,-0.8605207164320745,0.8147031977772713,0.9982261640798226,0.0002175622768845642,0.0,0.0,1.973176740113661,0.055224609375,-0.04977917904034257,-2.2010926223127725,0.0,0.954,-1.7507693977363055,1000.0,-9.867865251439532,4.046207006826291,0.0861390084028244,0.02910648938268423,-2.194340595422287,0.0,8.182175988622476e-05,1.0428014993667603,468596.0,-1.0114722728729248,0.0,2100.0,-4.049268945512251,83,-9.870522706129394,0.3329665760950191,-0.15396669544279576,0.018197076395154,2255.0
-0.8671955574915046,2.44140625e-05,-1.191533786119498,0.06512016252249239,0.904586336016655,-4.3181993005845865,8500.0,-2.76237699666951,-0.9996689468622207,-4.044455677306987,-0.8600919358854299,0.8181767612695694,0.9927884615384616,0.00020584983212756924,0.04,0.0,1.967532624152397,0.0532470703125,-0.049321938399225475,-2.2030274525656437,0.0,0.9406438631790744,-1.7490708376888435,994.0,-9.777343676785252,4.03208816800206,0.0861390084028244,0.029103117063641548,-2.1939350752549442,0.0,8.162205849657767e-05,1.0467768341302872,473267.0,-1.0115272045135497,0.01,2125.0,-4.032341337083763,84,-9.796195592707534,0.34352248115491435,-0.154806974157691,0.018197076395154,2080.0
-0.867777956687496,0.0,-1.1142430512685086,0.07443047253772404,0.9100830063223839,-4.311229011653909,8600.0,-2.925607881900956,-0.9997049227356911,-4.0410720934352415,-0.861055198792019,0.8212683543562889,0.996844003606853,0.0001766559300449444,0.04,0.0,1.9772030380476822,0.053759765625,-0.04934369660913944,-2.210342033557567,0.0,0.9365558912386707,-1.7640324914799563,993.0,-9.849854436529103,4.030863647576519,0.0861390084028244,0.028820139169692994,-2.201720992055214,0.0,7.47048518860538e-05,1.0517387866973877,477895.0,-1.011664080619812,0.01,2150.0,-4.027627695271216,85,-9.912359095143495,0.36521945859245164,-0.1549875520169735,0.018197076395154,2218.0
-0.8666409607263631,0.0,-1.3798435384823549,0.06312652339297409,0.9156046867370605,-4.250443059031504,8700.0,-3.9057988064835207,-0.999661898612976,-3.9922792103118985,-0.8631031319673639,0.8245762437582016,0.9897483690587139,0.00020697020700026768,0.0,0.0,1.9759631767706085,0.0499267578125,-0.049739942979067565,-2.206333439252783,0.0,0.9095477386934674,-1.7555566858398368,995.0,-9.695140773203978,3.998129820870961,0.0861390084028244,0.029948017094284296,-2.194499068144553,0.0,8.297588701680069e-05,1.0550418436527251,482798.0,-1.0115219563245774,0.01,2175.0,-3.9842572776317353,86,-9.641873741968645,0.4047064067540972,-0.155354293435812,0.018197076395154,2146.0
-0.868019574797654,0.0,-1.2860916762980081,0.06975051069682739,0.9209109753370285,-4.2628362971227505,8800.0,-2.972771607907047,-0.9996852725744247,-3.9961420224466435,-0.8645593844834366,0.8278176188468933,0.992781520692974,0.00020073552004760132,0.04,0.0,1.9684433679157276,0.053466796875,-0.049763088766485455,-2.198854424476484,0.0,0.941,-1.7502423212886768,1000.0,-9.661151973382996,4.006107904542034,0.0861390084028244,0.02986852200701833,-2.191193883223814,0.0,7.84813297286746e-05,1.0598475158214569,487512.0,-1.0115511864423752,0.0,2200.0,-3.9883964564626337,87,-9.83664947524069,0.3900031811364536,-0.15574901327490806,0.018197076395154,2078.0
-0.8683846977030043,0.0,-1.4136396175976205,0.08619936416486813,0.9258924320340156,-4.309114415211376,8900.0,-3.166771512262821,-0.9996919751167297,-4.052465321720279,-0.8688303047718364,0.8306488186120987,0.9922705314009662,0.00022720693705196026,0.04,0.0,2.034952360539853,0.053125,-0.050326368492096665,-2.2566038925928895,0.0,0.9120323559150657,-1.812882770253743,989.0,-9.78842295117344,4.055884190270857,0.0861390084028244,0.030376115534454583,-2.2441797663084806,0.0,7.719539862591774e-05,1.0637799859046937,492526.0,-1.0114270716905593,0.02,2225.0,-4.040802243166567,88,-9.976210767008304,0.45804298134679466,-0.15678721778094767,0.018197076395154,2070.0
-0.8673287290221197,0.0,-1.98233243478187,0.06731255385313024,0.9309825405478478,-4.234165950310858,9000.0,-3.481706927020957,-0.9997000202536583,-4.008859667663205,-0.8724448617809685,0.8333055391907692,0.983212087297146,0.00024246424545708577,0.0,0.0,2.0287982411646532,0.0545166015625,-0.05284524746239185,-2.269165293373313,0.0,0.913,-1.8167029993652855,1000.0,-9.795615260546853,4.007964315317833,0.0861390084028244,0.029651515046134592,-2.2577358929528497,0.0,7.564602619822836e-05,1.0674128770828246,497600.0,-1.0113555163145065,0.0,2250.0,-3.9728596606249704,89,-9.764586683879728,0.7241079539192107,-0.1569817241281271,0.018197076395154,1787.0
-0.8687153762977686,0.0,-1.6390485879408319,0.07908355329711629,0.9348180338740348,-4.311883208067815,9100.0,-2.8163880198706073,-0.9997341111302376,-4.057081960707725,-0.872867566680361,0.8370168551802635,0.9861467419189328,0.00024896226605051195,0.0,0.0,1.9748634474871853,0.0552490234375,-0.051879575755447147,-2.2179310064622335,0.0,0.948,-1.7584884846085616,1000.0,-9.885527765394981,4.062715356895405,0.0861390084028244,0.02928464887663722,-2.208449371283871,0.0,6.90920007400564e-05,1.070343655347824,502287.0,-1.0113250404596328,0.0,2275.0,-4.02572171472489,90,-9.81141420370389,0.47889196529774364,-0.15734660923480986,0.018197076395154,1949.0
-0.8692773906936054,0.0,-1.4984653637288428,0.08381728959775696,0.9387048065662384,-4.316769006607233,9200.0,-3.254054986929983,-0.9997266188263894,-4.079484202699926,-0.8762358173524263,0.8398997411131859,0.989388580090955,0.0002509508041839581,0.04,0.0,2.0119836783972684,0.0447265625,-0.05269131865352392,-2.254338982195457,0.0,0.913,-1.795022029753461,1000.0,-9.684447792980546,4.068404016145239,0.0861390084028244,0.02978435708209872,-2.249036079501276,0.0,7.053091785564902e-05,1.0734307557344436,507391.0,-1.0113157272338866,0.0,2300.0,-4.040093046063431,91,-9.352006198563966,0.5489426046353587,-0.15793162435293198,0.018197076395154,1979.0
-0.8691863991058199,0.0,-1.6781811684474026,0.06842321072177661,0.9425777778029442,-4.285548788072006,9300.0,-3.351253612933084,-0.9997029587626457,-4.053638198536033,-0.875901484915812,0.8424830555915832,0.9826689774696707,0.00024709272256586703,0.04,0.0,2.0033560413151648,0.0535888671875,-0.05143843842670322,-2.2424371363981948,0.0,0.9072375127420998,-1.7821597085639702,981.0,-9.69829407116102,4.045395810031557,0.0861390084028244,0.030038432497531176,-2.233372948694127,0.0,7.508168300773832e-05,1.0757776916027069,512528.0,-1.0113338202238082,0.03,2325.0,-4.001218827790007,92,-9.898192248173174,0.6941874277325809,-0.15807416513562203,0.018197076395154,1731.0
-0.8706542395637371,0.0,-1.667397683629096,0.08300848975150354,0.9467775270342826,-4.329836811004183,9400.0,-3.54960355491445,-0.9996581211686134,-4.0895584068158914,-0.8776361633674241,0.8456070125102997,0.9902313624678664,0.00024325763733941131,0.0,0.0,2.0172708252784517,0.0612548828125,-0.04907335685566068,-2.2623467611424575,0.0,0.917,-1.7947281393517447,1000.0,-9.60733210308154,4.071955589522968,0.0861390084028244,0.030260500963777304,-2.2466848416808327,0.0,8.370258055947488e-05,1.07902789413929,517571.0,-1.0113518059253692,0.0,2350.0,-4.048823096854436,93,-9.945196998435234,0.6712165837157736,-0.15798077024519444,0.018197076395154,1945.0
-0.8712862650630996,2.44140625e-05,-1.2006764932649387,0.07742739768984501,0.9515367776155472,-4.290893702503356,9500.0,-3.082663826275152,-0.999678885936737,-4.041418492657624,-0.8762347081385087,0.8482459917664528,0.9932218707636692,0.00020787714202015196,0.0,0.0,2.01732848942921,0.0537841796875,-0.050716346316039565,-2.25317317892842,0.0,0.9386934673366835,-1.7891654664160517,995.0,-9.61905950143021,4.0207474417497,0.0861390084028244,0.029470361908897756,-2.242974089664833,0.0,7.971051600179635e-05,1.0854632645845412,522320.0,-1.0115177035331726,0.02,2375.0,-3.9917487204238085,94,-8.984970161578467,0.5102728589858513,-0.15834060907363892,0.018197076395154,2213.0
-0.8721532608251437,0.0,-1.5212992370722456,0.06977932477563825,0.9573590934276581,-4.214030155981719,9600.0,-2.7995753821560108,-0.9996955707669258,-3.9697920554537363,-0.8725371229229495,0.8520870208740234,0.9920239282153539,0.00021622936183121055,0.0,0.0,2.086924286548774,0.057373046875,-0.053911443520337346,-2.323948549403181,0.0,0.9478957915831663,-1.8592695525090135,998.0,-9.637221553906953,3.967108428735365,0.0861390084028244,0.029933776473626494,-2.31410832228113,0.0,7.650477327842964e-05,1.091793966293335,527035.0,-1.0114785432815552,0.01,2400.0,-3.93078794105912,95,-9.077586740816454,0.5457187351506179,-0.15804449766874312,0.018197076395154,2006.0
-0.8713999143772526,0.0,-1.0266455522004987,0.07564538151891766,0.9622084766626358,-4.294025586645189,9700.0,-3.146914094784914,-0.9997083470225334,-4.042090456167157,-0.8727684223893448,0.8547779947519303,0.9982425307557118,0.0002580631316959625,0.0,0.0,2.102016821826642,0.0541748046875,-0.05454361233860254,-2.329803093324102,0.0,0.9342105263157895,-1.8740212476780012,988.0,-9.544106164451716,4.030185706259935,0.0861390084028244,0.029517293069511653,-2.3194034654872806,0.0,7.404522348224419e-05,1.0965247362852097,531782.0,-1.0112823575735093,0.02,2425.0,-4.022738896953259,96,-9.552752073667357,0.5422280801766145,-0.15820586383342744,0.018197076395154,2276.0
-0.8727444646909135,0.0,-1.251166849265849,0.07210133131968416,0.9673642352223396,-4.223970478166793,9800.0,-3.3693201287746115,-0.9997107088565826,-3.9802536679021947,-0.8695662325320882,0.8577579647302628,0.9968152866242038,0.00020364767224236857,0.0,0.0,2.1236667914513068,0.05478515625,-0.05512249581515789,-2.368106902557835,0.0,0.9264853977844915,-1.8986765637263545,993.0,-9.721256662887681,3.967715439067253,0.0861390084028244,0.02930492558516562,-2.352041741812994,0.0,7.35896820515336e-05,1.1026046216487884,536617.0,-1.0115375369787216,0.01,2450.0,-3.9559781132479395,97,-9.300150897479556,0.5550268488699432,-0.1584461398422718,0.018197076395154,2198.0
-0.8712996252623271,0.0,-1.426642035023113,0.09595283075817292,0.9710283264517784,-4.214908976911275,9900.0,-3.2488074926126544,-0.9997048571705818,-3.9683644925432815,-0.8702090605074773,0.8617958664894104,0.9938967136150235,0.00022391740421880967,0.04,0.0,2.0927094123352843,0.0529296875,-0.054414028953760865,-2.322525795288681,0.0,0.938,-1.8615594064971481,1000.0,-9.647146976427688,3.9593936731683597,0.0861390084028244,0.02872434980235994,-2.3071208500293734,0.0,7.472023098671343e-05,1.1050598829984666,541287.0,-1.0114424765110015,0.0,2475.0,-3.923276886159679,98,-9.25026900063571,0.5450348564243903,-0.1586072888225317,0.018197076395154,2130.0
-0.8725962569587864,0.0,-1.987744612654578,0.07877432055921636,0.9755558535456658,-4.14850960159938,10000.0,-3.2394403741073488,-0.9996433153748512,-3.9066565712739347,-0.869547610967129,0.8657064110040664,0.981611681990265,0.0002228274221124593,0.04,0.0,2.0692335543001343,0.057275390625,-0.05523011889308691,-2.3152864792202745,0.0,0.934,-1.8503341564077391,1000.0,-9.500379300998166,3.888789472549756,0.0861390084028244,0.029379895050078632,-2.305188753222364,0.0,8.655040692246984e-05,1.108989104628563,546030.0,-1.0114476025104522,0.0,2500.0,-3.859810739081412,99,-8.967430627343823,0.45410357656212835,-0.159188836440444,0.018197076395154,1849.0
